VatsinShah86/newton/mujoco_test_control_debug.csv
frame,sim_time,phase,scripted_mode,gripper_cmd,ee_target_x,ee_target_y,ee_target_z,ee_pos_x,ee_pos_y,ee_pos_z,ee_err_x,ee_err_y,ee_err_z,ee_pos_err_norm,ee_rot_err_x,ee_rot_err_y,ee_rot_err_z,ee_rot_err_norm,ee_vel_x,ee_vel_y,ee_vel_z,arm_joint_err_l2,arm_joint_err_max_abs,arm_target_delta_l2,arm_target_delta_max_abs,arm_qvel_l2,ee_pos_error_time_integral,ee_rot_error_time_integral,arm_joint_error_l2_time_integral,arm_joint_error_max_running,finger_left_target,finger_right_target,finger_left_qpos,finger_right_qpos,finger_left_qvel,finger_right_qvel,finger_left_err,finger_right_err,arm_ctrl_l2,finger_ctrl,ik_success,ik_status,ik_cost,ik_optimality,ik_nfev,ik_njev,ik_weighted_residual_norm,ik_seed_delta_norm,ik_seed_delta_max_abs,ik_pos_err_norm,ik_rot_err_norm,ncon_total,ncon_finger_rope_total,ncon_rope_ground_total,ncon_finger_ground_total,finger_rope_normal_force_sum,rope_ground_normal_force_sum,panda_joint1_target,panda_joint1_qpos,panda_joint1_qvel,panda_joint1_err,panda_joint1_actuator_force,panda_joint1_qfrc_bias,panda_joint2_target,panda_joint2_qpos,panda_joint2_qvel,panda_joint2_err,panda_joint2_actuator_force,panda_joint2_qfrc_bias,panda_joint3_target,panda_joint3_qpos,panda_joint3_qvel,panda_joint3_err,panda_joint3_actuator_force,panda_joint3_qfrc_bias,panda_joint4_target,panda_joint4_qpos,panda_joint4_qvel,panda_joint4_err,panda_joint4_actuator_force,panda_joint4_qfrc_bias,panda_joint5_target,panda_joint5_qpos,panda_joint5_qvel,panda_joint5_err,panda_joint5_actuator_force,panda_joint5_qfrc_bias,panda_joint6_target,panda_joint6_qpos,panda_joint6_qvel,panda_joint6_err,panda_joint6_actuator_force,panda_joint6_qfrc_bias,panda_joint7_target,panda_joint7_qpos,panda_joint7_qvel,panda_joint7_err,panda_joint7_actuator_force,panda_joint7_qfrc_bias
0,0.016666666666666666,approach,sequence,0.0,0.05328767511570371,-0.49812848216155026,0.32249520387170527,0.053771517092708145,-0.4998631449801633,0.3227905243850938,-0.00048384197700443443,0.0017346628186130642,-0.0002953205133885417,0.001824930781870439,0.0001193438573232498,-0.0017766153119491796,-0.0002507557728052236,0.0017981889168071908,0.0,0.0,0.0,0.008713385708047763,0.005642876727008028,0.015090116286813891,0.01183793773541808,1.6444713083058,3.0415513031173983e-05,2.9969815280119847e-05,0.00014522309513412938,0.005642876727008028,0.04,0.04,0.039999707601853576,0.039999476719461025,0.0006247088171425161,-0.00045530818375201314,2.923981464245107e-07,5.232805389762674e-07,2.3694343694402464,0.04,1,1,4.557650195708269e-08,4.5133870963049514e-12,4,4,0.00030191555758881555,0.015090116286813891,0.01183793773541808,1.5094509873679199e-06,8.440615075858386e-07,0,0,0,0,0.0,0.0,0.001677947201141287,9.661253711229528e-05,-1.0405358283541477,0.0015813346640289917,-113.65263984322223,-0.03485218870572404,-0.00545762111058791,-0.0017253139300270135,-0.04152479508229072,-0.003732307180560896,-14.00154685479644,-19.905923868747777,0.0016976722375041265,0.0002211776807187866,1.0692347411612153,0.00147649455678534,97.63174412098721,-0.03644514814858623,-1.582627937735418,-1.57698506100841,-0.35139637297143866,-0.005642876727008028,8.568968024091191,14.834568620261429,9.33566201109639e-06,-0.00012256761662963211,-0.021783205638950587,0.0001319032786407285,0.14971869857466424,0.8834932040555885,1.577169487601527,1.5734511191956653,0.11793618921453738,0.003718368405861705,3.0201710861733773,1.1395909881647182,0.7886754502643,0.7852656704651879,-0.5819973966675295,0.003409779799112056,-22.551590163846868,0.00019144657501756965
1,0.03333333333333333,approach,sequence,0.0,0.05207693245025772,-0.4962493178685375,0.3204944930585355,0.052630429519745586,-0.49969097808128576,0.3198630614010397,-0.0005534970694878669,0.0034416602127482765,0.0006314316574957957,0.003542610614227036,0.00023855636128336245,-0.005069273620297649,-0.0006311280048239093,0.005113977584368884,-0.0684652543777535,0.010330013932653426,-0.17564777904324647,0.014383205225674992,0.007700001210572793,0.014905000476952262,0.011674877788304006,1.7070599949171723,8.945902326829125e-05,0.00011520277501960124,0.0003849431822287126,0.007700001210572793,0.04,0.04,0.03999952569009887,0.03999915220888382,0.0003948498988457943,-0.00028291584422214934,4.743099011328411e-07,8.477911161777762e-07,2.3825873828868964,0.04,1,1,1.1013544209309926e-07,2.702186228247376e-11,4,4,0.000469330250661726,0.023458212156483502,0.017317754515312034,2.273427548630476e-06,1.2890242019291336e-06,22,0,22,0,0.0,4.600293969997546e-07,0.003283093630878971,-0.00023081877769802925,-1.0579918551559033,0.003513912408577,-102.20548647790869,-0.10048518076076496,-0.010820215065130938,-0.00398537488624246,-0.08836633314752104,-0.006834840178888478,-22.773123645454667,-19.898659501188895,0.003483318381500889,0.0009239776783988118,1.0870677887503222,0.0025593407031020772,98.83481493406829,-0.10454584357380702,-1.594302815523722,-1.5866028143131492,-0.4794609285778123,-0.007700001210572793,12.575830555014363,14.855373392056524,3.7828932859001896e-05,-0.00023641256887640464,-0.01613916641250034,0.0002742415017354065,0.614748295570007,0.8816857761356481,1.583481395628707,1.577513883291466,0.18605805483487134,0.005967512337241132,4.173104742616033,1.133339260312649,0.7920655582127697,0.7852620799476462,-0.5834562708582435,0.006803478265123508,-15.812455921060518,0.00037504579342993727
2,0.05,approach,sequence,0.0,0.050867384287126345,-0.49435685494538517,0.3185056297335282,0.05136283894310997,-0.4994536862613974,0.31689232960553393,-0.0004954546559836279,0.00509683131601224,0.001613300127994266,0.005368975887728053,0.0003321463989205607,-0.007890831693548418,-0.00032541527842039244,0.007904520298516128,-0.0760554345981368,0.014237509193301134,-0.1782439077303466,0.018282994839016783,0.00943160612463656,0.01472263706635935,0.011495316352267082,1.7517631411034957,0.00017894195473042548,0.00024694477999487004,0.0006896597628789923,0.00943160612463656,0.04,0.04,0.03999952621838068,0.03999905867071916,9.94472138704255e-05,-6.638569766609596e-05,4.737816193187139e-07,9.413292808430063e-07,2.3955927583010834,0.04,1,1,1.6271902162771252e-07,2.6940269165712293e-10,4,4,0.0005704717725316696,0.028514289103237667,0.019195317562839875,2.64503683723282e-06,1.5261170797924877e-06,22,0,22,0,0.0,7.119430495600176e-07,0.004428687312465644,-0.0011273891894288388,-1.0767508786846336,0.005556076501894483,-89.84423731197049,-0.17804495246832877,-0.016084740464016183,-0.00712786347908706,-0.146209834208796,-0.008956876984929123,-25.88886952551627,-19.84159455014357,0.005749304544762047,0.002293320087101185,1.1107587352860668,0.0034559844576608624,98.51538750675442,-0.18617629246970668,-1.605798131875989,-1.5974805691545644,-0.5208033545521468,-0.008317562721424698,14.00580978311973,14.876067625366012,9.269077503940166e-05,-0.00031049364799069204,-0.00703574071570804,0.0004031844230300937,1.0467629076960336,0.880095206256359,1.5897121662194873,1.5824369453362581,0.22738889728482922,0.007275220883229183,4.803211534797356,1.1304262854997997,0.7954752394766842,0.7860436333520476,-0.5754372405209722,0.00943160612463656,-12.043087785503985,0.00044443980773914427
3,0.06666666666666667,approach,sequence,0.0,0.04965983742217885,-0.49245083830662,0.31652852803110976,0.05008843542676973,-0.4987869718127799,0.3143056804678779,-0.00042859800459087855,0.006336133506159913,0.002222847563231878,0.006728397680487345,0.00042481138180141425,-0.009614844874297923,0.0005747685293011663,0.009641372595704209,-0.0764642109804145,0.04000286691704935,-0.15519894825936298,0.020442276078323676,0.010712307510554742,0.014594133741325316,0.011316193854478351,1.759949501119734,0.0002910819160718812,0.00040763432325660685,0.0010303643641843868,0.010712307510554742,0.04,0.04,0.039999574852136725,0.039999020080873596,-0.00025847951473721703,0.00020082167689428586,4.2514786327552123e-07,9.799191264051044e-07,2.4084488702378075,0.04,1,1,2.0173128419602168e-07,1.2696374049530237e-09,4,4,0.0006351870341813058,0.03174985270734376,0.01963375657590305,2.813675869036544e-06,1.6467832172462683e-06,22,0,22,0,0.0,9.867132784192185e-07,0.004953502295715109,-0.0016971068016074684,-1.0488348478418084,0.006650609097322577,-86.37344753972518,-0.2412111919700216,-0.021250404884133108,-0.011142073739456936,-0.19445535136947179,-0.010108331144676172,-25.705588683751458,-19.759457169496866,0.00865083379015791,0.0041091137648336514,1.142630040663188,0.004541720025324258,97.5526911790492,-0.25518822295574206,-1.6171143257304674,-1.6086375869988658,-0.5262849010064203,-0.008476738731601596,13.875663246549266,14.894512484716326,0.000184133444581079,-0.00035467206695594816,0.005133433176574239,0.0005388055115370272,1.4900560381565624,0.8782596424387032,1.595863120948914,1.5878661510556127,0.2517477108903523,0.007996969893301342,5.126016086928303,1.128832966009779,0.7988974461964038,0.788185138685849,-0.5599753171703364,0.010712307510554742,-12.119606142372959,0.00047001561295122174
4,0.08333333333333333,approach,sequence,0.0,0.04845433762388989,-0.49053509242967147,0.31455959736415373,0.0488434650367994,-0.49747140494999054,0.3121175913686904,-0.0003891274129095082,0.006936312520319066,0.0024420059954633477,0.0073639150460126585,0.0004796670609446484,-0.01034710722972412,0.0009827415236937356,0.010404733990600446,-0.07469822339821991,0.07893401176736314,-0.13128534595124974,0.021456828734020387,0.011356993401966053,0.014418872690656922,0.011152707935309758,1.7628050312388686,0.00041381383350542556,0.000581046556433281,0.00138797817641806,0.011356993401966053,0.04,0.04,0.039999603861123646,0.03999906855478356,-0.0006694635008105342,0.0004994416684327535,3.9613887635459033e-07,9.314452164427278e-07,2.4211720035074937,0.04,1,1,2.244411705087744e-07,3.380176977762145e-09,4,4,0.000669986821525281,0.03348992096060655,0.019629446666911354,2.8729489318842243e-06,1.6969227543668842e-06,22,0,22,0,0.0,1.279894335798448e-06,0.005428147713072601,-0.0017301829334770429,-1.0169082878860816,0.007158330646549645,-87.79347997034787,-0.2849561668882683,-0.02632135862426162,-0.01579013023078806,-0.225189953275643,-0.01053122839347356,-24.220803478201603,-19.67027587079249,0.011615283939830296,0.006530295168282348,1.171606029166948,0.005084988771547947,96.23987046574968,-0.30639293175322524,-1.6282670336657772,-1.6197229843996737,-0.5214249554204551,-0.008544049266103526,13.12659389403052,14.912186989452442,0.00030612555601241414,-0.00032245629914223897,0.018172746442364742,0.0006285818551546531,1.8975479777860538,0.8767462695471766,1.6019458140282197,1.593578453198726,0.2659948756120335,0.00836736082949363,5.288573454872676,1.127476827040776,0.8023295204103642,0.7909725270083982,-0.5541122655678126,0.011356993401966053,-12.156219682873598,0.0004914204620440482
5,0.09999999999999999,approach,sequence,0.0,0.047250097473452705,-0.4886149023386291,0.3125942282704877,0.04762559411292621,-0.4956490786729787,0.3101856164621302,-0.00037549663947350487,0.007034176334349607,0.002408611808357497,0.0074445983956382186,0.0005019877787881993,-0.010450614025053597,0.0008082069450394205,0.010493832650500464,-0.07307225543239135,0.10933957662071059,-0.1159184943936098,0.02177662119472303,0.011698221660534469,0.014262350924094693,0.011011338612885613,1.7505116476209794,0.0005378904734327292,0.0007559437672749554,0.0017509218629967772,0.011698221660534469,0.04,0.04,0.039999546691657784,0.039999064262891244,-0.0010998782782528948,0.0008116515326491746,4.5330834221729566e-07,9.357371087564959e-07,2.4337826896022294,0.04,1,1,2.3470228896599337e-07,6.0699449537735e-09,4,4,0.000685131066243523,0.03424730324409745,0.01955538787898914,2.8756426646675575e-06,1.7090405997971743e-06,22,0,22,0,0.0,1.5879043994113489e-06,0.00587662280057922,-0.0013606963088290875,-0.98470694858046,0.007237319109408308,-90.30598614692573,-0.30465705993035785,-0.031305048483412076,-0.020779795885601193,-0.23906899970908624,-0.010525252597810883,-22.693273888312035,-19.57712280832358,0.014610131397423308,0.009436396482322744,1.1787227191046918,0.005173734915100564,94.5314228725727,-0.3346237154489362,-1.6392783722786628,-1.6306709347741153,-0.516390961103314,-0.00860743750454751,12.380065752094197,14.92998875633095,0.0004579008771027903,-0.00021723470078074822,0.029745034260286123,0.0006751355778835385,2.336954565132151,0.8759057444489812,1.6079750182424282,1.5994367637905285,0.2737992627741412,0.008538254451899707,5.369082844590139,1.1265135986344363,0.805762206067268,0.7940639844067335,-0.5528033924014952,0.011698221660534469,-12.173311436317135,0.0005051470302961172
6,0.11666666666666665,approach,sequence,0.0,0.046046302648295616,-0.486694248252041,0.31062903975571426,0.04642078087703488,-0.4935352594167278,0.308356631343782,-0.0003744782287392612,0.006841011164686828,0.0022724084119322696,0.007218275949961325,0.0005119090634820446,-0.010277358622745258,0.0002620332925434613,0.010293435412737214,-0.07228879415348,0.12682915537505224,-0.10973910710089352,0.02173640366718351,0.011893070975357745,0.014125716179413614,0.010887645579735983,1.736522382134889,0.0006581950725987512,0.000927501024153909,0.0021131952574498358,0.011893070975357745,0.04,0.04,0.0399994649896651,0.03999904296451152,-0.0015289295552233797,0.0011256105966969251,5.350103349024971e-07,9.570354884830268e-07,2.4462969413437254,0.04,1,1,2.369921264300775e-07,9.070107458375255e-09,4,4,0.0006884651428069216,0.03441419941738583,0.019495083084283493,2.8500710064156705e-06,1.7016834637928324e-06,22,0,22,0,0.0,1.907857660290215e-06,0.006288870157178121,-0.0007538028237314095,-0.9619856577797412,0.0070426729809095305,-92.79081201646434,-0.30493077245002004,-0.03620799488612003,-0.02587244917126799,-0.24120723450334794,-0.01033554571485204,-21.660878550587313,-19.481184394449386,0.017638746074892755,0.012617793656978226,1.1758802521521363,0.00502095241791453,92.69465288375436,-0.3439676470372103,-1.6501660178583988,-1.6415118023153283,-0.513704944140058,-0.008654215543070443,11.902309713655995,14.948018021212267,0.0006393970285698293,-6.150482986309288e-05,0.0403241530666272,0.0007009018584329222,2.7841854083419206,0.8756088757303238,1.6139620118559634,1.6053592979845166,0.2777668920752197,0.008602713871446843,5.42318266718712,1.1259898998030584,0.8091880869400452,0.7972950159646874,-0.5536650857836131,0.011893070975357745,-12.181118461694268,0.0005090318172009597
7,0.13333333333333333,approach,sequence,0.0,0.04484237960530114,-0.48477528877277626,0.30866227494428233,0.04521672249216578,-0.49128636884531485,0.30652863589999685,-0.00037434288686464395,0.006511080072538589,0.0021336390442854847,0.006861975799961316,0.0005227806782414357,-0.010058663900155558,-0.0004606014474305196,0.010082766127765251,-0.07224350309214575,0.13493343428477855,-0.10967972662710879,0.021542291749518716,0.01201657330300121,0.013997268717533843,0.010774917220538027,1.7228638502473808,0.0007725613359314398,0.0010955471262833298,0.0024722334532751478,0.01201657330300121,0.04,0.04,0.03999934591583283,0.03999898150860789,-0.0019446835760945232,0.0014312870640384417,6.540841671690001e-07,1.0184913921129635e-06,2.4587244467996556,0.04,1,1,2.3506188647989615e-07,8.421849330013969e-13,5,5,0.0006856557248064019,0.03427392648419639,0.01942913276360847,2.811022850063062e-06,1.6847118737954462e-06,22,0,22,0,0.0,2.2374290480053455e-06,0.006684597774461475,-3.212528257716816e-05,-0.9469933853080279,0.006716723057038643,-94.7988338415232,-0.2941085244448004,-0.04103469102515803,-0.0309218970717797,-0.23725432356829423,-0.010112793953378326,-21.16748491283471,-19.384098503530577,0.020678679901387144,0.01592469996852959,1.167581913481961,0.0047539799328575535,90.80696380692771,-0.3424867094579497,-1.6609409350789368,-1.6522825215432049,-0.5125201583173699,-0.008658413535731935,11.715111697772045,14.966016069571879,0.0008495806064658479,0.00012849088363016208,0.050153189825761335,0.0007210897228356858,3.2287527427372926,0.875610012618613,1.6199133787060898,1.6112993837466993,0.2795456537288614,0.008613994959390414,5.470099572286017,1.1257551285049079,0.8126037790053601,0.8005872057023589,-0.5555071631221036,0.01201657330300121,-12.184489204609463,0.0005060895516885225
8,0.15,approach,sequence,0.0,0.043637975732946706,-0.4828588661770685,0.30669333214498157,0.04400700684105815,-0.48899639611321927,0.30465767054005555,-0.00036903110811144224,0.006137529936150743,0.00203566160492602,0.006476833782464275,0.0005406134307822583,-0.009898873119702563,-0.0012310001637350315,0.009989760423785337,-0.07258293906645799,0.1373983639257348,-0.11225792159647807,0.02130164155900462,0.012104681504603976,0.013873483561551436,0.010668219214126973,1.710113432343324,0.0008805085656391778,0.0012620431333464188,0.0028272608125918916,0.012104681504603976,0.04,0.04,0.039999261113282676,0.039998950198071925,-0.0023430802331778017,0.0017236919628298899,7.388867173246938e-07,1.0498019280755222e-06,2.4710701790080916,0.04,1,1,2.3125950778982962e-07,3.668503795952403e-12,5,5,0.0006800875058252866,0.033995715271953164,0.019326632749858907,2.7659152038615204e-06,1.663874734272239e-06,22,0,22,0,0.0,2.5747452490665457e-06,0.007075992401556925,0.0007245170563565221,-0.937178824689473,0.0063514753452004035,-96.22664637818512,-0.27929400280940136,-0.04578804788665329,-0.03586473123016155,-0.2313863261058626,-0.009923316656491737,-21.041732353510355,-19.28705450288594,0.02371735904865585,0.01927247031937848,1.156704170581306,0.004444888729277372,88.9015917783768,-0.33725219154485575,-1.6716091542930638,-1.6629980320183861,-0.5114405975565705,-0.00861112227467764,11.728755444178205,14.983718874158775,0.0010874465096134135,0.00034444543653516893,0.05944616925617592,0.0007430010730782445,3.661966914227987,0.875712393450301,1.6258323447875607,1.617232190543885,0.2801491878846819,0.008600154243675773,5.5136762148645175,1.125659475682843,0.8160082970481376,0.8039036155435336,-0.5577550829396943,0.012104681504603976,-12.18575196461893,0.0004997618842876236
9,0.16666666666666666,approach,sequence,0.0,0.0424329091196424,-0.4809450860305343,0.30472222585453684,0.04279026771953384,-0.48671483208144034,0.3027395166566633,-0.00035735859989144414,0.005769746050906022,0.0019827091978735223,0.006111367312164624,0.0005666333707037079,-0.009816264436858006,-0.0019779104773215233,0.010029568820613203,-0.07300434729145835,0.1368938419067356,-0.11508923300353358,0.021062101985887247,0.012174710266189548,0.013753467905860616,0.010564696985769118,1.6981086547459394,0.0009823646875085881,0.0014292026136899722,0.003178295845690012,0.012174710266189548,0.04,0.04,0.039999141774405146,0.03999887895767432,-0.002722071405358732,0.002003071057153842,8.582255948547113e-07,1.121042325677446e-06,2.4833364232737676,0.04,1,1,2.268217867788411e-07,5.290138372470039e-12,5,5,0.0006735306775178709,0.03366807534734013,0.019175819260446758,2.718382793128721e-06,1.6415388124377657e-06,22,0,22,0,0.0,2.91829690765314e-06,0.007464765598928735,0.0014674569868940632,-0.930282287513376,0.005997308612034671,-97.11131644285113,-0.26456175966491985,-0.05046995770063891,-0.04069048999918753,-0.2258458598630143,-0.009779467701451383,-21.086205325498696,-19.190607536255598,0.026753773946004956,0.022622378747104297,1.1447853044661516,0.004131395198900659,86.98728214451576,-0.3324115283123159,-1.682173851278833,-1.6736533934342523,-0.5096038905103393,-0.008520457844580553,11.838754299395077,15.00098678119504,0.0013523435941338072,0.0005834376787790016,0.06834613455966648,0.0007689059153548057,4.078763765304253,0.8758062537344734,1.6317203031571423,1.6231456296118056,0.28014985926686986,0.008574673545336697,5.552379003900569,1.1256224016600198,0.8194017603638332,0.8072270500976436,-0.5601400361902834,0.012174710266189548,-12.186009880709207,0.0004920353962434634
10,0.18333333333333332,approach,sequence,0.0,0.04122712170371201,-0.4790337363133622,0.3027492030553148,0.04156788569843736,-0.4844638675950208,0.3007878398623298,-0.00034076399472535157,0.00543013128165859,0.001961363192984955,0.005783544882763899,0.0005977253186677249,-0.009789367629554431,-0.0026677953202780894,0.010163962121832324,-0.07334292126578879,0.13505786918517226,-0.11710060766001007,0.0208365262757376,0.012234254688446411,0.013637131804519477,0.010462992256321968,1.664809389717515,0.0010787571022213198,0.0015986019823871775,0.003525571283618972,0.012234254688446411,0.04,0.04,0.03999900001757589,0.03999877897388609,-0.003064539060511201,0.002256665315058383,9.999824241088695e-07,1.2210261139122824e-06,2.495524251423301,0.04,1,1,2.2231958568727946e-07,8.969710097715212e-09,4,4,0.0006668126958708562,0.03333237800401418,0.01898345010090252,2.670269824261592e-06,1.6190948513841461e-06,22,0,22,0,0.0,3.266867891275926e-06,0.007845742075845577,0.0022087849988477477,-0.9070328881841767,0.00563695707699783,-97.35612641169809,-0.2507654391392321,-0.05508171163983801,-0.04541238864389391,-0.2212656711581127,-0.009669322995944099,-21.153525874551434,-19.09515083366022,0.029794115677904683,0.025922494586597865,1.1148722065111425,0.0038716210913068184,84.96880019102288,-0.328824839373215,-1.6926368435351549,-1.6842347896932273,-0.5066822458817087,-0.008402053841927604,11.983452165045492,15.017848887372924,0.0016440070850180502,0.0008455874843149735,0.07656281132736485,0.0007984196007030767,4.452936637066253,0.875860948128702,1.6375778962951162,1.629034400835187,0.279600132551297,0.008543495459929273,5.572505890481807,1.1256251802660495,0.8227845989082536,0.8105503442198072,-0.5623327424817238,0.012234254688446411,-12.18592590583512,0.0004839418178399918
11,0.19999999999999998,approach,sequence,0.0,0.04002063710214022,-0.47712452423092366,0.3007745374809856,0.040342045682719006,-0.4822541908115971,0.29881902046033637,-0.00032140858057878863,0.005129666580673431,0.0019555170206492223,0.005499166257042637,0.0006293033109744119,-0.009789056911688578,-0.0032825940700069423,0.010343939370758417,-0.07355040094310136,0.1325806070054225,-0.11812916411960694,0.020628391596149397,0.012287169192737979,0.013517273966842679,0.010362610628831925,1.6352283525788525,0.0011704098731720304,0.0017710009718998178,0.0038693778102214618,0.012287169192737979,0.04,0.04,0.03999893225653582,0.039998751807721965,-0.003387096240629872,0.0024937564028327435,1.067743464179538e-06,1.2481922780360755e-06,2.5076345614352307,0.04,1,1,2.1799016924347897e-07,3.756907573901585e-09,4,4,0.0006602880723494541,0.03300634807061435,0.01876466447075953,2.622594933130233e-06,1.596543120242813e-06,22,0,22,0,0.0,3.619478304342876e-06,0.008251388605895,0.00298514536414157,-0.8872720722172494,0.005266243241753429,-97.2143164040279,-0.2381143767476295,-0.05962419807986066,-0.05004829385206436,-0.21767280919345627,-0.009575904227796306,-21.184152916278833,-19.000744855889725,0.03280840161186788,0.02911697711046498,1.087595448693555,0.003691424501402897,83.01820191887842,-0.3266724921323179,-1.7029994541639868,-1.6947287594033433,-0.5029932059960807,-0.00827069476064346,12.11390524212311,15.0342999104448,0.001960131380306137,0.0011310394696364013,0.08428228521184776,0.0008290919106697359,4.800971820122557,0.8758704451324817,1.6434056090383131,1.6348964167533635,0.2788746847981825,0.008509192284949618,5.584973921991605,1.1256665570633295,0.8261589394669098,0.8138717702741718,-0.5644448284464277,0.012287169192737979,-12.1856739754528,0.000475414908944663
12,0.21666666666666665,approach,sequence,0.0,0.03881353409191889,-0.47521715748489507,0.2987984670321253,0.039114686630691724,-0.4800874789692653,0.29684491692382053,-0.0003011525387728309,0.004870321484370221,0.00195355010830478,0.00525614709063446,0.0006602230848378353,-0.00979367916908603,-0.003819587684478345,0.010532867428585677,-0.07364154312163695,0.1300027105399082,-0.1184462121909502,0.02044095253540957,0.012336510332169981,0.013391545316765886,0.010263371559726675,1.6073970035839056,0.0012580123246826048,0.0019465487623762457,0.004210060352478288,0.012336510332169981,0.04,0.04,0.03999884617149469,0.0399987024489943,-0.0036901728779112995,0.0027172315042589914,1.1538285053097619e-06,1.2975510057036677e-06,2.519668277224118,0.04,1,1,2.1392560651464828e-07,1.315876370541457e-10,4,4,0.0006541033657070544,0.03269731154665552,0.018534066320370135,2.575855975946396e-06,1.574488556942851e-06,22,0,22,0,0.0,3.9753385773951895e-06,0.008729074171048793,0.0038011904292769303,-0.8687253516668945,0.004927883741771863,-96.76646381630383,-0.2264836558382056,-0.06409801578135846,-0.05461129614758297,-0.2146607606896454,-0.009486719633775488,-21.167311364284956,-18.90757213369681,0.03575261871728017,0.03219915805846528,1.061869689968065,0.003553460658814893,81.10891952502952,-0.3258154945668379,-1.7132628257237135,-1.705126128808451,-0.4988596302141878,-0.008136696915262531,12.22065737041612,15.050339135367945,0.0022969720320783127,0.0014382829530239403,0.09148528279270199,0.0008586890790543724,5.123877414598883,0.8758275078248932,1.649203958529133,1.64073100747783,0.27803492601986934,0.008472951051302857,5.590605431711538,1.125722406229725,0.8295280237737234,0.8171915134415534,-0.5664459392890429,0.012336510332169981,-12.185357808134768,0.0004671751842887685
13,0.2333333333333333,approach,sequence,0.0,0.037605914434024675,-0.4733113801816833,0.2968211790833353,0.03788681092289292,-0.477956560105454,0.2948713718514832,-0.0002808964888682472,0.004645179923770726,0.0019498072318520632,0.005045626581807627,0.0006904934603706587,-0.00979281018628313,-0.004291858002390077,0.010714287548692402,-0.07367254246792812,0.12785513182867692,-0.11841270434023943,0.020270677089406258,0.012383343593946994,0.013267594623678528,0.010165269015583789,1.5803362744665925,0.0013421061010460652,0.002125120221521119,0.004547904970635059,0.012383343593946994,0.04,0.04,0.039998748806612285,0.039998639092105895,-0.003975132627108663,0.0029278645726071254,1.2511933877162873e-06,1.3609078941059782e-06,2.531626210513258,0.04,1,1,2.1013381710091473e-07,1.9379341532939766e-12,5,5,0.0006482805212265979,0.03240636414937151,0.01830196593084632,2.530352659444883e-06,1.5530642016689032e-06,22,0,22,0,0.0,4.3338124792334965e-06,0.009285191172128397,0.0046584753849891365,-0.8500879126154814,0.00462671578713926,-96.14904544035997,-0.21559396489923305,-0.06850370497857523,-0.05910793184105691,-0.2118697913125972,-0.009395773137518326,-21.116236741608816,-18.81585936308008,0.03862232891605911,0.03518167488640374,1.037257582063298,0.0034406540296553698,79.2255736579221,-0.3259575909895026,-1.7234280947392973,-1.7154229100295533,-0.494565659704351,-0.008005184709743984,12.309927844677077,15.065986279826454,0.002652738511406101,0.0017658505024553046,0.09819695926464744,0.0008868880089507964,5.422555734309956,0.8757277306557512,1.6549735488830717,1.646538002277117,0.27710251036430433,0.008435546605954691,5.59054331356856,1.1257691402307168,0.8328935891426712,0.8205102455487242,-0.568328730035301,0.012383343593946994,-12.18503822807611,0.0004600216376403482
14,0.24999999999999997,approach,sequence,0.0,0.036397871163465025,-0.47140700159990034,0.2948428025585802,0.036658517436048345,-0.47584907672441407,0.2928998774810123,-0.0002606462725833203,0.0044420751245137224,0.0019429250775678808,0.004855401708229437,0.0007201730576570364,-0.009784314722059477,-0.004721939273923113,0.010887983023494408,-0.07369760921067461,0.12644900286239658,-0.11828966222825366,0.020111741300580317,0.01242791296997503,0.013147373065715066,0.010068444881766725,1.5537042201005598,0.0014230294628498892,0.002306586605246026,0.0048831006589780636,0.01242791296997503,0.04,0.04,0.03999875169993562,0.03999867501784387,-0.004244640773392984,0.0031246099159367375,1.248300064378427e-06,1.3249821561311936e-06,2.5435092975097495,0.04,1,1,2.0657599775513633e-07,1.1392384187319297e-12,5,5,0.0006427690063391924,0.03213097834684712,0.01807362959151071,2.486161364022943e-06,1.5322112666457789e-06,22,0,22,0,0.0,4.6943873176267704e-06,0.009914773511908313,0.00556890840698936,-0.8307926188709143,0.004345865104918953,-95.51596168756039,-0.205259797277925,-0.07284183470338777,-0.06354002520335073,-0.20909002815851946,-0.009301809500037048,-21.048782598337482,-18.725777293636376,0.04142382131530954,0.03807634396516959,1.0136780700036967,0.0033474773501399532,77.36469531269933,-0.32689294223386567,-1.733496539621064,-1.725618876588637,-0.49028065769641394,-0.007877663032426874,12.390755783448185,15.081259319792824,0.0030263831104316154,0.0021125813818677398,0.10444222709638265,0.0009138017285638756,5.698147223520822,0.8755688126999136,1.6607151105670008,1.6523174501305595,0.276092565872242,0.008397660436441301,5.585952245397948,1.125790439542869,0.8362567115371505,0.8238287985671755,-0.5700948618117406,0.01242791296997503,-12.184728709044748,0.00045451247249158125
15,0.26666666666666666,approach,sequence,0.0,0.035189469612573826,-0.4695039108020284,0.2928634059063503,0.03542933858603944,-0.4737517090794693,0.2909298100944656,-0.00023986897346561092,0.004247798277440873,0.0019335958118846808,0.004673341427073253,0.0007493846569492406,-0.009770030134752855,-0.005134251867893213,0.011062350945482375,-0.07375073100053448,0.12584205869668685,-0.1182040431928022,0.019959385238295713,0.012470463207699733,0.013030121223846305,0.009973118307987416,1.5272350391639642,0.0015009184866344434,0.0024909591210040653,0.005215757079616325,0.012470463207699733,0.04,0.04,0.03999862304512339,0.03999857577913264,-0.004496277318469666,0.0033119274533094586,1.3769548766126571e-06,1.424220867358994e-06,2.5553187381349307,0.04,1,1,2.0319808620106287e-07,8.453466194935704e-12,5,5,0.000637492095952668,0.03186731698960191,0.01785078134041429,2.4432759876659926e-06,1.5119444645065806e-06,22,0,22,0,0.0,5.056649931417805e-06,0.010618612931320923,0.006548881426849301,-0.8105940833678578,0.004069731504471622,-94.97991750045867,-0.19544640220687542,-0.07711302868965095,-0.06790721965629032,-0.20624797128825673,-0.009205809033360629,-20.977585643479074,-18.637319046665148,0.04415764244162785,0.040892369630022574,0.9909069076480725,0.0032652728116052757,75.5249916650013,-0.32857136205955856,-1.7434696579290514,-1.7357157677255688,-0.4860752205137658,-0.007753890203482605,12.469723563239313,15.09614816006431,0.0034165621290866174,0.0024774091765516963,0.11022959116406655,0.0009391529525349211,5.951616805140113,0.8753514472741172,1.6664295166164003,1.658069603703649,0.2750215874854951,0.008359912912751177,5.5777690668378455,1.1257810538041966,0.8396185604647037,0.827148097257004,-0.5717454111973658,0.012470463207699733,-12.18444245917749,0.00045073815483661836
16,0.2833333333333333,approach,sequence,0.0,0.03398074253832697,-0.4676020756769599,0.2908830013979132,0.0341986358718826,-0.47165399689498994,0.288960048393064,-0.00021789333355563129,0.004051921218030052,0.0019229530048491816,0.00449035536687116,0.0007782808436446254,-0.009752590961614469,-0.005548106885424649,0.011247232617326132,-0.07384216284941028,0.125862731068761,-0.11818570208409707,0.019810719633900947,0.012511246112143826,0.012915595968624622,0.009879511943381214,1.50081978129941,0.0015757577427489627,0.002678412997959501,0.005545935740181341,0.012511246112143826,0.04,0.04,0.0399986156828998,0.03999859871653981,-0.004734691248349329,0.003486311075042399,1.3843171002003718e-06,1.4012834601909163e-06,2.5670559868429534,0.04,1,1,1.9994861185254407e-07,4.904897348207458e-09,5,5,0.0006323742750184325,0.0316116038241335,0.01763340214686382,2.401579134919551e-06,1.492389295881673e-06,22,0,22,0,0.0,5.420267348423402e-06,0.011401133819038662,0.00761300366210497,-0.7896068133904484,0.0037881301569336924,-94.58780403188382,-0.18615674047697273,-0.08131797700948616,-0.0722087996283928,-0.2033493912854854,-0.009109177381093361,-20.908287985826405,-18.550324739597983,0.046820686553653235,0.04363557046824548,0.9686657330364952,0.003185116085407752,73.70806823473035,-0.33098013961260353,-1.7533491698724326,-1.7457159820041197,-0.48196087381337044,-0.007633187868312907,12.549779881693212,15.110624108785677,0.003821681399847728,0.002859206815383981,0.11556038708475583,0.000962474584463747,6.183938399531983,0.8750805284606603,1.6721177728479404,1.663794948107981,0.27390778226473966,0.008322824739959378,5.566653724920343,1.1257469098399024,0.8429803678880031,0.8304691217758593,-0.5732807852670171,0.012511246112143826,-12.184193648977498,0.00044834681720213806
17,0.3,approach,sequence,0.0,0.0327716968648556,-0.4657015251744477,0.28890155840179627,0.03296589953326297,-0.46955035102584713,0.28698973776217146,-0.0001942026684073686,0.003848825851399451,0.001911820639624806,0.004301887175288614,0.0008070184684322815,-0.00973392863753419,-0.005973986359986024,0.011449417389470001,-0.07396418031717783,0.12621875214856804,-0.11821863785355213,0.01966480248212331,0.012550466562613494,0.01280399756615048,0.009787778811015224,1.4745176393132058,0.0016474558623371062,0.002869236621117334,0.005873682448216729,0.012550466562613494,0.04,0.04,0.039998593545483636,0.03999860510700545,-0.004958903708591418,0.0036508029339845354,1.4064545163644526e-06,1.394892994548147e-06,2.57872267581719,0.04,1,1,1.9679090701554301e-07,9.67877008798138e-12,5,5,0.0006273609917990487,0.03136111069595244,0.01742096667932813,2.3612126877166846e-06,1.4732036446370565e-06,22,0,22,0,0.0,5.784971202316006e-06,0.012267394443308153,0.008770449045529843,-0.7681872809362928,0.00349694539777831,-94.33013041762675,-0.1773710179400616,-0.08545741249965286,-0.07644449421501429,-0.20042600609830982,-0.009012918284638571,-20.841789313625497,-18.464577103885546,0.04940911327836766,0.04630828979482739,0.9467387356563917,0.003100823483540273,71.91810351961581,-0.3340790057416569,-1.7631369486834478,-1.7556218957536587,-0.47792685573136373,-0.007515052929789157,12.63129610984106,15.124656474316609,0.004240068589202716,0.0032566774283704653,0.12043925981395817,0.0009833911608322504,6.396200390778595,0.874763332414159,1.6777809779986694,1.669494197103037,0.2727684837192758,0.008286780895632395,5.553058230826991,1.1256998534387934,0.8463433297738325,0.833792863211219,-0.5747028902801836,0.012550466562613494,-12.183990510110561,0.0004467926644315702
18,0.31666666666666665,approach,sequence,0.0,0.03156232602589212,-0.4638023213410789,0.28691902291076915,0.03173088769462634,-0.46744003602571516,0.2850184385962798,-0.0001685616687342184,0.0036377146846362507,0.001900584314489362,0.0041077490063863055,0.0008357312848930196,-0.00971500837849508,-0.006413486244708466,0.011671017110168387,-0.0741007103181976,0.12661890000791876,-0.11827794995350027,0.019522192030604457,0.012588250911941712,0.012695630669350415,0.009697965855939072,1.448491572785544,0.001715918345776878,0.003063753572953474,0.00619905231539347,0.012588250911941712,0.04,0.04,0.03999856048911735,0.03999859960494363,-0.005169953413281293,0.0038059762046596503,1.4395108826475989e-06,1.4003950563681866e-06,2.5903205113625076,0.04,1,1,1.937077726031592e-07,3.9110400631832406e-12,5,5,0.0006224271404801677,0.031114582688521263,0.01721301878572823,2.3219218731203267e-06,1.4547298796873106e-06,22,0,22,0,0.0,6.150545177930348e-06,0.013221496143126647,0.01002413123433872,-0.746763659492061,0.0031973649087879263,-94.1634623287571,-0.16904030828985941,-0.089532066655346,-0.08061456731250381,-0.1975052078344478,-0.00891749934284218,-20.77704834100456,-18.379882459396054,0.05191991025573532,0.04891017840457913,0.925018970302014,0.003009731851156189,70.16052103930373,-0.33779284040966157,-1.772834914539387,-1.7654356503566477,-0.47396104948736156,-0.007399264182739174,12.713532581580694,15.138223260237792,0.004670098444107805,0.00366835139879093,0.12487886375449653,0.0010017470453168751,6.589596503946825,0.8744071133081979,1.6834202666890459,1.6751682432787771,0.27161789597063657,0.00825202341026876,5.537316952596029,1.1256521360925902,0.8497085601874017,0.83712030927546,-0.5760150886019803,0.012588250911941712,-12.183835626005703,0.0004455457939738332
19,0.3333333333333333,approach,sequence,0.0,0.030352622090806063,-0.46190453078722543,0.2849353376022734,0.030493616130791136,-0.46532557566319444,0.2830459913745865,-0.00014099403998507273,0.0034210448759690038,0.0018893462276868833,0.003910633776100716,0.0008645152675367416,-0.009696141500541555,-0.006862212205925722,0.011910184843464199,-0.07423629383011235,0.12686762175124322,-0.11834683330159579,0.01938415250038511,0.01262464516115569,0.012590756508092526,0.009610011730165402,1.4229338075734443,0.0017810955753785565,0.0032622566536778773,0.006522121523733222,0.01262464516115569,0.04,0.04,0.03999851865609563,0.03999858431899494,-0.005368845629479717,0.003952506199938902,1.4813439043678822e-06,1.415681005062508e-06,2.6018511674557256,0.04,1,1,1.906986742471859e-07,9.559408614073176e-13,5,5,0.0006175737595578133,0.03087207195726069,0.017009275912904576,2.2837297634016053e-06,1.4368407151831162e-06,22,0,22,0,0.0,6.516814896432814e-06,0.014265505173385545,0.011372529217236116,-0.7256733382894578,0.0028929759561494295,-94.0419800460686,-0.16110937786244806,-0.09354262845787811,-0.08471958457176786,-0.1946002659946802,-0.008823043886110257,-20.71305951114647,-18.29613580822855,0.05435195467315598,0.05143926105028578,0.9035277095057883,0.0029126936228702008,68.44057091980972,-0.3420367385871621,-1.7824449262695523,-1.7751591602011305,-0.47005743119011695,-0.007285766068421795,12.795713598823568,15.151316873927176,0.005110308063619172,0.004092644326814432,0.12890211203502636,0.0010176637368047399,6.765369291018596,0.874016677166506,1.6890367508761623,1.6808180844035328,0.27046609125914467,0.008218666472629588,5.519710790478712,1.1256112579850122,0.8530770530229914,0.8404524078618357,-0.5772223071193419,0.01262464516115569,-12.183725999681428,0.00044428658435912913
20,0.35,approach,sequence,0.0,0.02914258361415708,-0.46000820459172764,0.28295045628458765,0.029254262777170078,-0.46321077811579675,0.28107234971741624,-0.00011167916301299888,0.0032025735240691078,0.0018781065671714114,0.0037143281613465566,0.0008934208437199032,-0.009677367605582474,-0.007313343544951295,0.012162838418068828,-0.07436120121726349,0.12688785284386106,-0.11841849943021732,0.01925197291058581,0.012659655052834506,0.01248943231123441,0.009523784967370386,1.397999093577211,0.0018430010447343325,0.003464970627312358,0.006842987738909652,0.012659655052834506,0.04,0.04,0.03999847158180735,0.03999856269415682,-0.0055565690380306385,0.004091029375018035,1.528418192647818e-06,1.437305843184078e-06,2.613316221700258,0.04,1,1,1.8777252869386954e-07,8.584276031102724e-13,5,5,0.0006128173115927284,0.0306344020715261,0.01680955103579218,2.2466037050149976e-06,1.4195195178613255e-06,22,0,22,0,0.0,6.883639766184052e-06,0.015399979332434033,0.012811786189464639,-0.7051120232599719,0.002588193142969394,-93.93062277150956,-0.1535347506978915,-0.0974897150851994,-0.08876018422604509,-0.19171363677158493,-0.008729530859154302,-20.649394839795377,-18.213309438022453,0.05670553376303733,0.05389341816545873,0.882351247200321,0.0028121155975786016,66.76228236080019,-0.3467376064842921,-1.7919687112369227,-1.7847941865744803,-0.4662140997603725,-0.007174524662442394,12.877378494714321,15.163939626220806,0.005559386806462734,0.004527984495129459,0.13253737401791765,0.001031402311333275,6.924729044069839,0.8735942932134844,1.6946314804426308,1.6864447501348114,0.26931946715629823,0.008186730307819357,5.5004917263327116,1.1255796777042626,0.8564497240297088,0.8437900689768743,-0.578330304082789,0.012659655052834506,-12.183655985602854,0.0004428997382443581
21,0.36666666666666664,approach,sequence,0.0,0.027932218511147883,-0.45811336955089516,0.28096435042500945,0.028013075556692697,-0.4610993801850346,0.2790974878980288,-8.08570455448146e-05,0.0029860106341394466,0.0018668625269806505,0.003522495289372674,0.0009224619902253848,-0.009658677396805407,-0.007760123809729834,0.01242419038494284,-0.07447123322864284,0.12668387584572893,-0.11849170916324647,0.01912659782079556,0.012693297901793299,0.012391592086794703,0.009439127358778165,1.3737899403653673,0.0019017092995572103,0.0036720404670614053,0.007161764369256245,0.012693297901793299,0.04,0.04,0.03999842194207527,0.03999853736427747,-0.0057340529751910094,0.004222160305555054,1.5780579247295923e-06,1.4626357225308584e-06,2.624717128609002,0.04,1,1,1.8493991437553102e-07,3.1065711892130584e-12,5,5,0.0006081774648497443,0.03040255691408267,0.01661365202122056,2.2105105068033727e-06,1.4027443621874208e-06,22,0,22,0,0.0,7.250906417282028e-06,0.016624316669889866,0.014337093941388759,-0.6851676220399208,0.002287222728501107,-93.80621525540425,-0.14628757293133388,-0.10137386341213042,-0.09273695755734737,-0.18884298146937067,-0.00863690585478305,-20.586036907303026,-18.131416995645026,0.05898202041327548,0.05627146442157625,0.8615880056286251,0.002710555991699226,65.12837162489745,-0.3518394023698501,-1.8014078385957009,-1.7943423812032309,-0.4624296863477094,-0.007065457392469998,12.958325521102779,15.176098068742004,0.006016169535411197,0.004972917814998277,0.13581417382832758,0.0010432517204129205,7.068819655233827,0.8731406611739998,1.700205426926103,1.6920492497627782,0.2681818342794359,0.008156177163324951,5.4798854907426175,1.125556760948112,0.8598274300083276,0.8471341321065343,-0.5793447729962634,0.012693297901793299,-12.183620634189765,0.00044139059941852507
22,0.3833333333333333,approach,sequence,0.0,0.026721543659206433,-0.4562200276892007,0.2789770097401665,0.026770362179764067,-0.4589957659614837,0.27712140155559506,-4.8818520557634276e-05,0.0027757382722830015,0.0018556081845714223,0.003339219660162312,0.000951579764755169,-0.00963998087584833,-0.008192220626227171,0.012686497315027303,-0.07456280261571781,0.12621685341305255,-0.11856518054602416,0.019007386981716265,0.012724784220131458,0.012297104857369045,0.009355884951025795,1.3522312325441808,0.0019573629605599157,0.003883482088978527,0.007478554152284849,0.012724784220131458,0.04,0.04,0.0399984832546028,0.03999864832875929,-0.00584520905038559,0.004311693748844013,1.5167453972023126e-06,1.3516712407124487e-06,2.636055219338497,0.04,1,1,1.822087145690683e-07,1.900731923683688e-12,5,5,0.0006036699670665558,0.030177324296944683,0.016421342343495793,2.1754148114874785e-06,1.3864908244039224e-06,22,0,22,0,0.0,7.6185234120173445e-06,0.017936937953188088,0.015919219903706178,-0.6693601922962606,0.00201771804948191,-90.49153632158406,-0.13557945612343336,-0.1051955355442825,-0.09665083131517045,-0.18607930865542233,-0.008544704229112049,-20.46882027410362,-18.053963307246264,0.061183695300323505,0.05859363436332078,0.8422927751833791,0.0025900609370027236,61.443876327175786,-0.35309283778674294,-1.8107637235467267,-1.8038055541183649,-0.4586377173556318,-0.0069581694283618045,13.07449147078296,15.189327137660548,0.006479637466725103,0.005428033593865031,0.13808385483706656,0.0010516038728600723,7.05002025752486,0.8727044940561264,1.7057594842732002,1.6976325499325642,0.26653874691456325,0.00812693434063605,5.432557947259738,1.1256955370155932,0.8632109672536975,0.850486183033566,-0.5796076264565839,0.012724784220131458,-12.175830126811661,0.0004421917218383545
23,0.39999999999999997,approach,sequence,0.0,0.025510586754636962,-0.4543281505604913,0.2769884463629663,0.025527985290551624,-0.456923349274546,0.27514453144075024,-1.7398535914661672e-05,0.0025951987140546695,0.0018439149222160833,0.003183611363664562,0.0009813494288653634,-0.009620595119669263,-0.008562886665668314,0.012916730437971471,-0.07454261335274659,0.12434500121626502,-0.11861220689068919,0.018895488885567507,0.01275172038362804,0.01220655473483631,0.009273884772368124,1.3323907529896968,0.002010423149954325,0.004098760929611385,0.007793478967044307,0.01275172038362804,0.04,0.04,0.03999840819585704,0.039998622735835716,-0.00595392829160918,0.004393093185599997,1.5918041429627272e-06,1.3772641642845196e-06,2.6473314325257693,0.04,1,1,1.7956706298233404e-07,1.823053395342698e-12,5,5,0.0005992780039052561,0.029957863903809723,0.01623205420072993,2.141229778758729e-06,1.370685705627805e-06,22,0,22,0,0.0,7.9864169832858e-06,0.01931273957527871,0.017487211355652954,-0.6579627940689188,0.001825528219625755,-86.95403682783905,-0.12554561820248442,-0.10895527069852494,-0.10050343709279165,-0.18343645177038198,-0.008451833605733289,-20.339520453118155,-17.974877190226493,0.0633349429264715,0.060885478629142474,0.8220496434472171,0.002449464297329028,58.25886908168857,-0.35515121545966366,-1.8200376083190948,-1.8131852231782692,-0.4548950175411646,-0.006852385140825534,13.183357169905321,15.201679666253277,0.006951266100180234,0.00589424688779622,0.13987930165435938,0.0010570192123840142,7.049656626279605,0.8722916377239212,1.7112944437778776,1.7031953860656945,0.2649721082124056,0.008099057712183111,5.391612177347724,1.1259562150063545,0.8665992595307419,0.8538475391471139,-0.5798531003608188,0.01275172038362804,-12.176498412846058,0.00043698241525895465
24,0.41666666666666663,approach,sequence,0.0,0.024299430916276232,-0.45243754636605066,0.27499879380154557,0.024290068201626,-0.4549161629579094,0.27316717338090357,9.362714650233694e-06,0.0024786165918587177,0.0018316204206419995,0.0030819573707589988,0.0010091755048315843,-0.00959873976507858,-0.008647399558776941,0.01295884869139186,-0.07427502533553752,0.120431178998196,-0.11864148359080007,0.018688695361201272,0.012608382732564372,0.012119402488430473,0.009192483825251063,0.8998977073779773,0.0020617891061336414,0.004314741741134583,0.008104957223064329,0.01275172038362804,0.04,0.04,0.03999865957279158,0.039998546483892276,-0.0038517804440490327,0.002851426061385414,1.3404272084238666e-06,1.453516107724484e-06,2.6585457789004137,0.04,1,1,1.7703891260091588e-07,1.555173231875016e-12,5,5,0.0005950443892701046,0.029746317223719294,0.016141636158694128,2.107924116309204e-06,1.3552271528483266e-06,22,0,22,0,0.0,8.354527601191585e-06,0.02070209027546527,0.01904619182303312,-0.21834917456158764,0.0016558984524321502,-37.24242065041793,-0.062406320442840786,-0.11265355542884395,-0.10429332214744695,-0.1733172205618424,-0.008360233281396998,-19.45427350079416,-17.93458381054775,0.06548326525922445,0.06308196022254293,0.4075634104105095,0.0024013050366815114,22.345582114524717,-0.2964385989903192,-1.8292300921443458,-1.8224802375446465,-0.4428551458555029,-0.006749854599699345,13.9818305007675,15.224873522012714,0.007435548212035815,0.006362612093994209,0.07411283162823305,0.001072936118041606,3.7634093962085995,0.8715534931645854,1.716810711131183,1.70873714165671,0.245542505905081,0.008073569474472908,4.470742148073441,1.1268966110137688,0.869989175305808,0.8573807925732436,-0.5514419416719087,0.012608382732564372,-12.19305126377958,0.0004959368381664987
25,0.4333333333333333,approach,sequence,0.0,0.023088226736878454,-0.45054777926819894,0.27300837556617735,0.023056624224359862,-0.45297645654243524,0.2711881097980079,3.160251251859217e-05,0.0024286772742362905,0.00182026576816946,0.0030352659665931845,0.0010380830217270902,-0.009580116823512876,-0.008446092507136635,0.012813771238447411,-0.07400663863596821,0.11638238492844843,-0.11874381497374076,0.018388214005829694,0.012305436283545634,0.012031438296759539,0.009110808357149391,0.7896712562582269,0.002112376872243528,0.004528304595108707,0.008411427456494824,0.01275172038362804,0.04,0.04,0.03999889808389455,0.03999867066883432,-0.0029642821007760762,0.0022009242270070455,1.1019161054517945e-06,1.3293311656795148e-06,2.6696984823889554,0.04,1,1,1.7370575731716016e-07,1.964462201580661e-12,5,5,0.0005894162490416432,0.029465030649243502,0.016004625499143277,2.0748983458347066e-06,1.3386581746745786e-06,22,0,22,0,0.0,8.722807206896742e-06,0.022148120918235235,0.020540464820495655,-0.031958756087491186,0.0016076560977395793,-15.475909774928468,-0.035361797261305755,-0.11628989742167185,-0.10801988244182471,-0.16712458725705343,-0.00827001497984714,-19.028990263440164,-17.85544355458041,0.067589375004821,0.0652310567925452,0.2299693980378078,0.0023583182122757923,6.873266029789164,-0.2782336155992406,-1.8383409005014952,-1.831693092277981,-0.43578175850847933,-0.006647808223514184,14.367390718229217,15.232760146775284,0.007927473022831508,0.006840833137665947,0.04512808785129214,0.001086639885165561,2.281772425153253,0.8705328544233858,1.7223082139870152,1.7142590437755407,0.23681919042872246,0.008049170211474443,4.053887427238351,1.126917308142195,0.8733854180723869,0.8610799817888413,-0.5419567924225162,0.012305436283545634,-12.203424318003954,0.0005093984361937611
26,0.44999999999999996,approach,sequence,0.0,0.02187713318820283,-0.44865837300846584,0.2710175474967455,0.021826663526599822,-0.45108049377087217,0.26920711652170815,5.046966160300592e-05,0.0024221207624063323,0.0018104309750373582,0.0030243803480708036,0.0010664748774498233,-0.009564331017802713,-0.008270518484791285,0.012689179346577501,-0.07379764186560236,0.11375776629378387,-0.11885959657798484,0.018168074769522757,0.01210746997775014,0.011945390491407712,0.00902867666969831,0.7754825780783401,0.002162783211378041,0.004739790917551665,0.008714228702653537,0.01275172038362804,0.04,0.04,0.039999050349605256,0.03999880343271811,-0.0028688408912231965,0.0021270134211706375,9.49650394745094e-07,1.1965672818900486e-06,2.680788472184824,0.04,1,1,1.6958040162535276e-07,2.77037342559281e-12,5,5,0.0005823751396228256,0.029113083427156967,0.015704757451513784,2.041937745488052e-06,1.3208626952122845e-06,22,0,22,0,0.0,9.091216984050067e-06,0.02359826160517618,0.021994866679594927,0.003977011731167185,0.0016033949255812516,-11.142470552335922,-0.030058868605593737,-0.11986444938913865,-0.1116826640621044,-0.16348489443010167,-0.008181785327034244,-18.904237755269037,-17.776376999511236,0.06970381128932489,0.06735204851691924,0.19421425590129657,0.0023517627724056467,3.9408465076573407,-0.2850541310012641,-1.8473695771711935,-1.8408244623345293,-0.43167119842487867,-0.006545114836664201,14.49062896491796,15.241649821996937,0.008432347089514037,0.007329842202278118,0.03997877719298651,0.0011025048872359182,2.013923533920389,0.8697566536413757,1.7277867081942573,1.7197623208809092,0.2345826532155103,0.008024387313348091,3.964725309217556,1.1268995126902563,0.876784739240355,0.8646772692626049,-0.5421656361422748,0.01210746997775014,-12.19540254533581,0.000508993979568332
27,0.4666666666666666,approach,sequence,0.0,0.020666249240516157,-0.4467690076409866,0.26902655312874624,0.020598657052575464,-0.4492037046781689,0.26722478798715443,6.759218794069252e-05,0.0024346970371822985,0.0018017651415918046,0.003029632979783229,0.0010941306149231588,-0.009549895038827378,-0.008150435501657246,0.012602667016223458,-0.07368038844146149,0.11260734556219676,-0.11893971207322274,0.01801281897450505,0.011999304406393407,0.011860331410836642,0.00894662854383288,0.7688866745037688,0.0022132770943744285,0.0049498353678220555,0.00901444235222862,0.01275172038362804,0.04,0.04,0.03999905690472478,0.03999879937583634,-0.002881500099457261,0.0021365006947874454,9.430952752215171e-07,1.2006241636580706e-06,2.6918156211146544,0.04,1,1,1.6629496863294628e-07,2.0851452097665024e-12,5,5,0.0005767061099606043,0.02882974455545267,0.01550977065970749,2.0104280885841284e-06,1.3043984568381237e-06,22,0,22,0,0.0,9.45972556332692e-06,0.0250441125264432,0.02343460664450479,0.020817871944519714,0.0016095058819384084,-9.122809031870489,-0.027787031332168203,-0.12337730678649783,-0.11528222098791131,-0.1602406002246339,-0.008095085798586518,-18.81735415742685,-17.699205452689377,0.07183525693474757,0.06946551970004143,0.17830595952649714,0.00236973723470614,2.5984416366837024,-0.295486713139961,-1.8563162057150264,-1.8498741721277245,-0.42793173630378795,-0.0064420335873018875,14.579158787506458,15.25054518474346,0.008951017427690994,0.007830488971786067,0.03804666273867559,0.0011205284559049275,1.9004597102568326,0.8689748568107808,1.733246279377354,1.7252471305114712,0.233149567383897,0.007999148865882821,3.919009429801008,1.1268481924519484,0.8801870399223124,0.868187735515919,-0.542541638053087,0.011999304406393407,-12.189918925692155,0.0005087357611597877
28,0.4833333333333333,approach,sequence,0.0,0.019455616688147853,-0.4448795369372507,0.2670355058458145,0.019371377349242335,-0.4473306692003938,0.26524195191064726,8.423933890551807e-05,0.002451132263143141,0.0017935539351672247,0.0030384175743294883,0.001121535687631943,-0.009535599370525658,-0.008073937426661109,0.01254487796765837,-0.07363678219998775,0.11238212866650388,-0.11897016459043064,0.01789273847757436,0.011941491476494481,0.01177647434361671,0.008865232597060846,0.7642617744615405,0.0022639173872799198,0.005158916667283029,0.009312654660188192,0.01275172038362804,0.04,0.04,0.039999061202683824,0.039998802299162264,-0.002932749152469487,0.002174253227838688,9.387973161772978e-07,1.1977008377364595e-06,2.702780492032664,0.04,1,1,1.6367125739518647e-07,1.6183941568560117e-12,5,5,0.0005721385451010734,0.02860148162664502,0.015405235044558707,1.9801595518089834e-06,1.2891009071816118e-06,22,0,22,0,0.0,9.828307575913384e-06,0.026489211688068993,0.02487167737470045,0.03140699939641586,0.0016175343133685433,-7.905011213851267,-0.0265864961358114,-0.12682869279913397,-0.11881972221502518,-0.1571718872052593,-0.008008970584108793,-18.738493437569332,-17.62331529559988,0.07398091494627373,0.07158811634699576,0.16931912288716447,0.002392798599277976,1.7571619641594225,-0.3073142442090392,-1.8651814383120873,-1.8588422042689785,-0.4243086296245088,-0.006339234043108766,14.65388777329099,15.25914417961675,0.009482989691628668,0.008344041511393346,0.03720595590089691,0.0011389481802353222,1.8360962956202442,0.8681702238874468,1.7386873652677532,1.7307135162521048,0.23198282691152217,0.00797384901564846,3.8879278121185052,1.1267774338507905,0.8835929705604777,0.8716514790839832,-0.5426781407785699,0.011941491476494481,-12.18676601104562,0.0005088341979153799
29,0.49999999999999994,approach,sequence,0.0,0.018245244663088495,-0.4429899288225625,0.2650444305750479,0.01814429101517942,-0.44545486236115067,0.26325925811679185,0.00010095364790907446,0.0024649335385881765,0.0017851724582560458,0.0030451485504649706,0.0011489452588578169,-0.009520446954027829,-0.008029586368188485,0.012507327558535754,-0.0736251800437749,0.11254841035458929,-0.11896162763132434,0.017791161150625685,0.011910752262264235,0.011694232353760934,0.008784834813754028,0.7604624946709777,0.0023146698631210027,0.005367372126591958,0.00960917401269862,0.01275172038362804,0.04,0.04,0.039999060876347525,0.03999880622116291,-0.0030033779597645953,0.0022262466384627665,9.391236524755597e-07,1.1937788370885993e-06,2.713683934035376,0.04,1,1,1.614132389447315e-07,1.3698725551839096e-12,5,5,0.0005681782096221775,0.028403579908957383,0.015351181779279077,1.950837518184825e-06,1.2745846405057206e-06,22,0,22,0,0.0,1.019694248812384e-05,0.027933369059709258,0.026310666287724885,0.03875044569812833,0.0016227027719843724,-7.094390699595294,-0.02589894330785984,-0.1302189823621116,-0.12229616761797092,-0.15419955761835408,-0.00792281474414068,-18.66117015761847,-17.54839189132274,0.07614127504007046,0.0737274876283431,0.16369025477678217,0.002413787411727361,1.1610913868331068,-0.31991204983290944,-1.8739662731258413,-1.8677288205817912,-0.42075664835272686,-0.0062374525440500594,14.71975253148048,15.267376372314974,0.010028171105885676,0.008871070694755897,0.03690063823318829,0.001157100411129779,1.795816520453485,0.867346549294607,1.744110623267672,1.7361617760173724,0.23096155119640527,0.00794884725029954,3.8641986336074297,1.1267029130296935,0.8870026608632623,0.8750919086009981,-0.5426679954767304,0.011910752262264235,-12.184912238972629,0.0005089023810174835
30,0.5166666666666666,approach,sequence,0.0,0.0170351291694825,-0.4411002028861133,0.2630533111970984,0.016917308162229073,-0.44357519569611703,0.26127697890847407,0.00011782100725342762,0.00247499281000374,0.0017763322886243382,0.0030487419698836107,0.0011764205033219569,-0.00950406030226593,-0.00800684343418447,0.012482814955341058,-0.07361897117702083,0.11277999990201848,-0.11893675249906699,0.017699760986307846,0.011894552116477386,0.011613717566512399,0.008705563430691843,0.7570901659996098,0.0023654822292857296,0.005575419042514309,0.009904170029137084,0.01275172038362804,0.04,0.04,0.03999905590365278,0.03999880865904395,-0.0030850033249671194,0.0022863553209189363,9.440963472176489e-07,1.1913409560526667e-06,2.724526926301754,0.04,1,1,1.5935931547158382e-07,1.24254548877464e-12,5,5,0.0005645517079446024,0.028222367968171166,0.015324228143337226,1.9223138209433617e-06,1.2606345171020063e-06,22,0,22,0,0.0,1.056561366251898e-05,0.02937629365890123,0.027751955041930662,0.04409392570333297,0.0016243386169705679,-6.516018200522154,-0.025479106267591662,-0.13354858728571575,-0.1257121356939096,-0.15127485393333276,-0.007836451591806154,-18.584822045112674,-17.474295073679926,0.07831682211812767,0.07588545804732794,0.1598750099593952,0.0024313640707997325,0.7118939707314098,-0.33299957744371667,-1.8826718365565331,-1.8765346786846049,-0.4172710088012989,-0.006137157871928256,14.779533216509662,15.275217920615262,0.010586477923721915,0.00941165035719092,0.03689220077507508,0.0011748275665309955,1.7696257608577923,0.866506550159257,1.749516802282496,1.74159239305362,0.23003870092123843,0.007924409228876161,3.844811721712631,1.1266322501549952,0.8904161367443353,0.8785215846278579,-0.5425893583011969,0.011894552116477386,-12.183741578865693,0.0005087439582470484
31,0.5333333333333333,approach,sequence,0.0,0.015825264368262,-0.43921038932353057,0.26106212264212775,0.01569051325900119,-0.4416927981999955,0.25929507214368913,0.00013475110926080766,0.0024824088764649477,0.001767050498438616,0.003050078549059211,0.001203934986475078,-0.009486612457407726,-0.007997036548706097,0.012465868157895917,-0.07360769419367287,0.11294384976729077,-0.11891440588709612,0.017614593453633632,0.011886282175040841,0.011534906230175177,0.008627407649037133,0.7539814967171083,0.0024163168717700498,0.005783183511812574,0.010197746586697644,0.01275172038362804,0.04,0.04,0.03999904669705518,0.03999880850734875,-0.0031733485720393394,0.0023514592802839807,9.533029448199892e-07,1.1914926512507362e-06,2.7353104541258175,0.04,1,1,1.5743086005159947e-07,3.2513834029388642e-12,5,5,0.0005611254049704031,0.0280511632570406,0.015311840929073783,1.8945223116961232e-06,1.2471393317097634e-06,22,0,22,0,0.0,1.093430760150785e-05,0.03081792166796155,0.029194374276909695,0.04811123677563603,0.0016235473910518536,-6.079925137741185,-0.025211061042872452,-0.1368179013400901,-0.12906786199096806,-0.14837132237204928,-0.007750039349122023,-18.510472662004418,-17.400984329546475,0.08050780357840989,0.07806131384465599,0.1571378714813782,0.002446489733753901,0.36169886394390005,-0.34643687790229005,-1.8912992442055703,-1.8852607486964144,-0.4138526194738504,-0.006038495509155917,14.835247661410904,15.282658087990786,0.011157798668708594,0.009965619606487662,0.03706338372960113,0.0011921790622209313,1.7525982961104098,0.865650341933287,1.7549066560200277,1.7470059502540654,0.22919104349085379,0.007900705765962357,3.828299031196366,1.1265667176543133,0.8938334255569317,0.8819471433818908,-0.5424857849347567,0.011886282175040841,-12.182923032811459,0.0005083455129767135
32,0.55,approach,sequence,0.0,0.01461564692378207,-0.4373205105004787,0.25907084574722083,0.014464008053083602,-0.43980910284537833,0.25731335034155545,0.00015163887069846727,0.0024885923448996206,0.001757495405665388,0.00305038953367183,0.0012314475013845418,-0.009468527156380819,-0.007994056896943214,0.012452887822965107,-0.07359031235505538,0.11302172127703125,-0.11890330812802108,0.017533798537084644,0.01188247117938901,0.011457722583095279,0.008550297098623094,0.75106270517251,0.002467156697331247,0.005990731642195326,0.010489976562315722,0.01275172038362804,0.04,0.04,0.039999033779629566,0.039998805476196775,-0.003266025078685272,0.0024198136926913754,9.662203704352557e-07,1.1945238032259886e-06,2.7460354528331274,0.04,1,1,1.5559134974936576e-07,1.546145293201203e-12,5,5,0.0005578375206982151,0.02788687646944366,0.015307445231514727,1.8674279069730961e-06,1.2340389791696734e-06,22,0,22,0,0.0,1.1303013337971027e-05,0.032258382869645504,0.030636718098595653,0.051224541633692486,0.0016216647710498508,-5.7368585814942605,-0.025038934127379942,-0.14002727989592806,-0.1323634312794866,-0.14547924342327861,-0.007663848616441454,-18.438939873532945,-17.32846111287612,0.0827142946934159,0.08025382754585755,0.1551119920344133,0.0024604671475583484,0.08194553603294708,-0.3601505688388709,-1.8998495413041934,-1.8939081429400026,-0.41049844997428303,-0.00594139836419072,14.888247398862404,15.289689947482026,0.011741997124778558,0.0105327529217507,0.03735191679296097,0.0012092442030278584,1.7418967704510635,0.8647766537953377,1.7602809038364726,1.7524030733663567,0.22840504700494513,0.00787783047011592,3.813849629172637,1.1265046118774995,0.8972545886134056,0.8853721174340166,-0.5423783591542393,0.01188247117938901,-12.182284941525268,0.0005077769330870292
33,0.5666666666666668,approach,sequence,0.0,0.013406276458649865,-0.43543057729250634,0.2570794704567572,0.013237856015121912,-0.4379250961108845,0.25533162439602497,0.00016842044352795293,0.002494518818378144,0.00174784606073225,0.00305056641184192,0.0012589319200244505,-0.009450210721196586,-0.00799423866451119,0.012441834433854238,-0.07356912227770143,0.1130404040696309,-0.11890355673182862,0.017456433200750212,0.011881283106071061,0.011382086286932444,0.008474152033236981,0.7482954797085548,0.0025179994708619457,0.006198095549426229,0.010780917115661558,0.01275172038362804,0.04,0.04,0.03999901767219417,0.03999879970835715,-0.003361609584707265,0.002490373343781843,9.823278058276874e-07,1.2002916428485721e-06,2.756702797181073,0.04,1,1,1.5382342981522817e-07,2.1565344582505386e-12,5,5,0.0005546592283830283,0.027728066191323137,0.01530760359040162,1.8410064435844568e-06,1.2212986982208702e-06,22,0,22,0,0.0,1.1671721944333603e-05,0.033697912478540454,0.032078287158494354,0.05371212937594524,0.0016196253200461003,-5.458644240535875,-0.024934121010155432,-0.14317703862134046,-0.13559893249934135,-0.14259823162778015,-0.007578106121999106,-18.370382130649546,-17.25673564854425,0.08493628811784791,0.08246210312583627,0.15359971918677467,0.0024741849920116438,-0.14670722931424507,-0.3740989893975947,-1.9083236933374303,-1.902477970836803,-0.40720166028747834,-0.005845722500627426,14.939279034165338,15.296308530912064,0.012338921736485965,0.011112836571896698,0.03772209233800228,0.0012260851645892676,1.7357038573028198,0.8638840161518253,1.7656402232181025,1.7577844008224417,0.22767191703484624,0.00785582239566085,3.8009614031343517,1.1264437186134755,0.9006797210244182,0.8887984379183471,-0.5422760851401933,0.011881283106071061,-12.181739660249377,0.0005071165814835264
34,0.5833333333333335,approach,sequence,0.0,0.012197154592212914,-0.43354059200535805,0.25508799363628776,0.012012081959930998,-0.43604123954116913,0.2533497728671968,0.00018507263228191573,0.0025006475358110847,0.0017382207690909701,0.0030510492325881945,0.0012863798890405688,-0.009431922015789174,-0.007995724994619278,0.012431715260591999,-0.0735464433114548,0.11303139418292085,-0.11891109172969094,0.017381944379191057,0.011881729338182656,0.011307931327273722,0.008398904867942925,0.7456555825812506,0.0025688502914050825,0.006405290803769429,0.011070616188648075,0.01275172038362804,0.04,0.04,0.039999014695558145,0.03999880753617631,-0.0034594411327297527,0.002562224415889969,9.853044418556278e-07,1.192463823691814e-06,2.7673133110250294,0.04,1,1,1.5211774728931167e-07,1.3341811698735184e-12,5,5,0.000551575465896212,0.027573979357311467,0.015310502159797235,1.815232754697236e-06,1.2088938850409756e-06,22,0,22,0,0.0,1.204042613706858e-05,0.03513677788131015,0.033518889013631,0.055757698047793694,0.0016178888676791486,-5.228227910051345,-0.024879605751187302,-0.14626745933087637,-0.13877452633835072,-0.13973085952075529,-0.007492932992525653,-18.30447175806023,-17.18581386099215,0.0871737572802157,0.08468571729169538,0.152480009060864,0.0024880399885203186,-0.3379320576539726,-0.3882549799953573,-1.9167225982053733,-1.9109712630551965,-0.403954389764263,-0.005751335150176784,14.988660535258532,15.302510837778224,0.01294841367598051,0.01170568642369487,0.038151540284490464,0.0012427272522856393,1.7327890909468415,0.862971344979412,1.7709852566246467,1.7631505697068999,0.22698550449538102,0.007834686917746803,3.7892948184794477,1.1263824299986878,0.9041089400781444,0.8922272107399617,-0.5421820288339196,0.011881729338182656,-12.181242678060471,0.0005064189175134296
35,0.6000000000000002,approach,sequence,0.0,0.010988283899028697,-0.43165055255518714,0.25309641573824865,0.010786688853491912,-0.4341576440030538,0.2513677479701343,0.000201595045536785,0.0025070914478666495,0.001728667768114367,0.003051956805537814,0.0013137935117626958,-0.00941376466939449,-0.00799774730637853,0.01242211659174775,-0.07352358638634521,0.11301573228692074,-0.11892149382375039,0.017309958870632417,0.011883262334737688,0.011235207828378545,0.008324503698166952,0.7431249659370911,0.002619716238164046,0.006612326080298558,0.011359115503158615,0.01275172038362804,0.04,0.04,0.03999900614316152,0.03999880988973916,-0.0035586561083378702,0.002635245480118789,9.938568384798563e-07,1.1901102608402603e-06,2.777867780918739,0.04,1,1,1.5046821726350286e-07,2.1708823642364612e-12,5,5,0.0005485767353133066,0.027424141151995683,0.015315163447833458,1.7900821202539282e-06,1.1968058332786988e-06,22,0,22,0,0.0,1.2409119958084823e-05,0.03657524080338473,0.0349586516109001,0.05748150108094077,0.001616589192484627,-5.0344966152556765,-0.02486322034511387,-0.14929879622491815,-0.1418904426668054,-0.13687899778138168,-0.007408353558112757,-18.24071340753426,-17.115695688306914,0.08942668423068587,0.08692457830876361,0.15166813229586878,0.0025021059219222513,-0.5013665394682221,-0.40259791721992494,-1.9250471019035402,-1.9193889561583142,-0.40074993538202,-0.005658145745226051,15.03648545136457,15.308295824656676,0.013570310942871375,0.012311140223527545,0.03862500637717961,0.0012591707193438297,1.7323007448000354,0.862038044777216,1.7763166212100663,1.7685022094530407,0.22634127195141443,0.007814411757025574,3.7786088093707804,1.126319926510063,0.9075423741877952,0.8956591118530575,-0.542096611712172,0.011883262334737688,-12.180771174196934,0.0005057122518414732
36,0.6166666666666669,approach,sequence,0.0,0.009779667243017695,-0.42976045555715287,0.2511047382751953,0.009561672581119503,-0.4322742612027346,0.24938555052505995,0.00021799466189819164,0.002513805645581735,0.0017191877501353536,0.0030532518757204045,0.0013411780778083333,-0.00939574001406975,-0.0080000662815287,0.012412886431335684,-0.0735009763423445,0.11300296801915133,-0.11893184670445978,0.01724020681567534,0.011885567113056994,0.011163877408741692,0.008250908277778857,0.7406891855904258,0.002670603769426053,0.0068192075208208195,0.01164645228341987,0.01275172038362804,0.04,0.04,0.03999899308534924,0.039998807924897475,-0.00365886522704558,0.0027091119992941385,1.0069146507626914e-06,1.1920751025254472e-06,2.7883669664632587,0.04,1,1,1.4887029748705776e-07,1.253998994787562e-12,5,5,0.0005456561142094126,0.027278205551927094,0.015321044322604505,1.7655300693956116e-06,1.1850187285580588e-06,22,0,22,0,0.0,1.2777798518057546e-05,0.03801354578203558,0.036397842264106424,0.058962670036595555,0.001615703517929154,-4.869652979900735,-0.02487524288916181,-0.15227128018642194,-0.14494694633053837,-0.1340426946720815,-0.007324333855883575,-18.178672238290233,-17.046377536468984,0.09169506482082489,0.08917874794824246,0.15109974030158596,0.0025163168725824275,-0.6437150465828267,-0.41711045692944604,-1.933298010181319,-1.9277319092735048,-0.3975835196234472,-0.0055661009078142865,15.082774881654586,15.313664033173133,0.014204449409149531,0.012929044680328398,0.039131433694353686,0.0012754047288211327,1.7336439096415148,0.8610838850041013,1.781634916254895,1.7738399387683033,0.22573573100973762,0.007794977486591748,3.7687294135153024,1.1262559511601795,0.910980156175662,0.899094589062605,-0.5420191447218078,0.011885567113056994,-12.180313416150511,0.0005050063572662623
37,0.6333333333333336,approach,sequence,0.0,0.008571307487115362,-0.42787029788760383,0.2491129625135794,0.008337029602888502,-0.4303910079004689,0.24740320103335456,0.00023427788422685988,0.0025207100128650795,0.0017097614802248362,0.003054856693080169,0.0013685381424018953,-0.009377807168438182,-0.008002636028031036,0.012403964984341086,-0.07347857869386007,0.11299519813594117,-0.11894096950232358,0.01717249157860022,0.01188845451819276,0.011093908002836423,0.008178084783750261,0.738336648059906,0.002721518047644056,0.007025940270559838,0.011932660476396541,0.01275172038362804,0.04,0.04,0.03999897640435875,0.03999880251027506,-0.003759797744907675,0.0027836016728897384,1.0235956412474323e-06,1.1974897249425465e-06,2.798811605980318,0.04,1,1,1.4732042144765423e-07,2.584430666489307e-12,5,5,0.0005428082929500143,0.027135907175258326,0.015327831381933943,1.7415539216764704e-06,1.173519121627465e-06,22,0,22,0,0.0,1.3146457789662778e-05,0.039451920491943404,0.037836754914910765,0.06025474235472542,0.0016151655770326387,-4.727919537517721,-0.024907737961909877,-0.15518512107951846,-0.14794430190986005,-0.1312205316561392,-0.007240819169658408,-18.118062161712828,-16.977854920646642,0.09397890553580318,0.09144832141679461,0.15072480034868052,0.0025305841190085693,-0.7696275400743389,-0.4317773714684654,-1.9414760949650693,-1.9360009277969388,-0.3944520339194061,-0.005475167168130568,15.127554720604167,15.318617039429048,0.014850662500442572,0.013559245937245593,0.03966254214521443,0.0012914165631969787,1.736398622521044,0.8601088350635915,1.7869407272599411,1.7791643639804267,0.2251661180564433,0.0077763632795144755,3.7595307138171847,1.1261905260596201,0.9144224204445389,0.9025339659263462,-0.5419485893427977,0.01188845451819276,-12.179863301452542,0.000504302310176152
38,0.6500000000000004,approach,sequence,0.0,0.007363207434116192,-0.42598007712612723,0.24712108909018468,0.0071127590539927475,-0.4285078204785318,0.2454207202266719,0.00025044838012344434,0.0025277433524045767,0.001700368863512769,0.003056708216159287,0.0013958764961123859,-0.009359923537588017,-0.00800544715997831,0.01239531460081179,-0.07345623293374529,0.11299124531622629,-0.11894884840095876,0.017106671630899774,0.011891805922484955,0.011025270413640608,0.008106002082489239,0.736058204593059,0.002772463184580044,0.007232528847240034,0.01221777167024487,0.01275172038362804,0.04,0.04,0.039998956816548345,0.039998794337620984,-0.0038612594917126703,0.0028585538612110745,1.043183451655827e-06,1.2056623790168697e-06,2.8092024187259423,0.04,1,1,1.4581577345135832e-07,1.4485741443829369e-12,5,5,0.0005400292093051233,0.02699704300898521,0.015335336504851749,1.7181330066307558e-06,1.1622952885849965e-06,22,0,22,0,0.0,1.3515094441017317e-05,0.040890578698716075,0.03927566109862679,0.06139562752164748,0.0016149176000892843,-4.604886859138219,-0.024954371495650805,-0.15804050879531173,-0.15088275145186644,-0.12841042694973723,-0.007157757343445287,-18.058735601698913,-16.910123986170113,0.0962782198668711,0.09373337411412051,0.15050470249190173,0.002544845752750588,-0.8823793687162151,-0.44658512350150437,-1.9495820970475586,-1.9441967809589877,-0.3913534012418326,-0.005385316088570846,15.170875735056143,15.323156948257676,0.015508780634506478,0.014201584979154483,0.04021204763786711,0.0013071956553519955,1.7402628997586547,0.8591129418036172,1.7922346275411865,1.7844760782318003,0.22463019760486877,0.007758549309386131,3.750921034093153,1.1261237550282015,0.9178693024311979,0.905977496508713,-0.5418838760598139,0.011891805922484955,-12.17941767003731,0.0005035986989046538
39,0.6666666666666671,approach,sequence,0.0,0.006155369864476473,-0.42408979143417497,0.2451291181044102,0.005888862220847023,-0.42662466557321244,0.24343812100380008,0.0002665076436294501,0.0025348741390374685,0.001690997100610131,0.0030587717173966643,0.0014231945667458321,-0.00934206185401361,-0.008008476772065311,0.012386900446348178,-0.07343380998874348,0.11298929431916238,-0.11895595337231002,0.017042645149836628,0.011895544414959436,0.010957936344191423,0.008034629871415566,0.7338466947278611,0.0028234427132033217,0.007438977188012504,0.012501815756075481,0.01275172038362804,0.04,0.04,0.039998934154582486,0.03999878320907951,-0.003963097079357201,0.00293386141719551,1.0658454175152543e-06,1.216790920494093e-06,2.8195401055388993,0.04,1,1,1.4435412362691907e-07,2.757653765105818e-12,5,5,0.0005373157798295507,0.02686145897777271,0.015343443591174233,1.6952482555096935e-06,1.1513367724194461e-06,22,0,22,0,0.0,1.3883705701509486e-05,0.04232973150797832,0.04071480363981135,0.06241369296723613,0.001614927868166971,-4.497146768882203,-0.02501024335563569,-0.16083761359748688,-0.15376250612153822,-0.12561028471558944,-0.0070751074759486665,-18.000633699922446,-16.843181997142835,0.09859301801561596,0.09603394830268307,0.15040989167484398,0.0025590697129328904,-0.9843538966874803,-0.46152160465767267,-1.9576167269189741,-1.952320210342307,-0.38828600336837066,-0.005296516576667187,15.212805244241281,15.327286052547102,0.01617862943095558,0.014855895953616789,0.040775124688258,0.0013227334773387913,1.7450136086614592,0.8580962651915882,1.7975171785531974,1.7897756612946274,0.22412613250260557,0.007741517258569974,3.74283243438731,1.1260557301380185,0.9213209400998872,0.9094253956849278,-0.5418240200263621,0.011895544414959436,-12.178974970519903,0.0005028944205086473
40,0.6833333333333338,approach,sequence,0.0,0.004947797591492224,-0.42219943927661047,0.24313704934909303,0.004665341478011678,-0.4247415321543034,0.24145540811157004,0.0002824561134805465,0.002542092877692914,0.001681641237522985,0.0030610349404404736,0.001450493107011511,-0.009324211186323246,-0.008011686292372611,0.01237868982356512,-0.0734112445701207,0.11298800513454332,-0.11896277353380225,0.016980336626310426,0.011899618029248327,0.010891878541381817,0.00796393812925622,0.7316965162518966,0.002874459962210663,0.007645288685071923,0.012784821366513988,0.01275172038362804,0.04,0.04,0.03999890876174783,0.039998769451453184,-0.0040652020269139645,0.0030094360842475524,1.0912382521696684e-06,1.2305485468169786e-06,2.82982534862847,0.04,1,1,1.4293366985762035e-07,2.896198487629009e-12,5,5,0.0005346656335647922,0.026729036625958102,0.015352078064613472,1.672882432176034e-06,1.1406342457080924e-06,22,0,22,0,0.0,1.4252289253725459e-05,0.04376958147251237,0.042154401318306695,0.06333085467024284,0.0016151801542056768,-4.402052888617504,-0.025071617558021314,-0.1635765865615546,-0.15658374697471258,-0.12281831854778164,-0.00699283958684202,-17.94373784325262,-16.777027205414925,0.10092331275385541,0.09835006320042715,0.15041800263271227,0.0025732495534282612,-1.0773517972357354,-0.47657584734490477,-1.9655806650482304,-1.9603719317898516,-0.3852483393187546,-0.005208733258378784,15.253412522465624,15.33100663755287,0.01686003042943289,0.015522006797374045,0.04134805545848862,0.0013380236320588452,1.7504812783036279,0.8570588539004382,1.8027889297856008,1.7950636797817592,0.2236523895371762,0.0077252500038416105,3.735213033481159,1.125986507597041,0.9247774737495412,0.9128778557202929,-0.5417681643205275,0.011899618029248327,-12.178534515196361,0.0005021892894022731
41,0.7000000000000005,approach,sequence,0.0,0.0037404935023316608,-0.420309019188477,0.24114488250701435,0.003442199547534004,-0.42285842039322963,0.23947258106466926,0.00029829395479765656,0.0025494012047526105,0.0016723014423450921,0.0030634976579609727,0.0014777726628793157,-0.009306371151896708,-0.008015032404761323,0.01237065481328223,-0.07338851582866042,0.11298670566442515,-0.11896962281404688,0.016919686845996543,0.011903990827079602,0.010827070519902303,0.007893897226909807,0.7296031979620509,0.0029255182565100127,0.007851466265293294,0.013066816147280596,0.01275172038362804,0.04,0.04,0.03999888087368753,0.03999875328531451,-0.004167491201633756,0.0030852112845608046,1.1191263124682438e-06,1.2467146854877598e-06,2.840058811693628,0.04,1,1,1.415529014513101e-07,3.3688609457842142e-12,5,5,0.000532076876872713,0.026599681361850796,0.015361191192210355,1.6510191801094475e-06,1.1301790094890277e-06,22,0,22,0,0.0,1.4620843146398879e-05,0.04521032661741818,0.04359465854237773,0.06416452192624772,0.0016156680750404537,-4.317538388191622,-0.02513564937650371,-0.16625755990684574,-0.15934662925768042,-0.12003310161550745,-0.006910930649165314,-17.888038963143572,-16.71165856953637,0.10326911601890537,0.1006817261943896,0.15051193074253622,0.0025873898245157706,-1.1627810183036331,-0.4917377539172107,-1.9734745622751402,-1.9683526343067896,-0.38223889778379294,-0.005121927968350537,15.292758794583278,15.334320910929236,0.017552800330106966,0.016199739909143255,0.04192792439281006,0.0013530604209637115,1.7565336806757514,0.8560007437148283,1.8080504187485327,1.8003406875684358,0.2232076671884573,0.007709731180096879,3.728021828595047,1.1259161159147055,0.9282390469125033,0.9163350560854236,-0.5417155760254375,0.011903990827079602,-12.178096108469617,0.0005014837603646329
42,0.7166666666666672,approach,sequence,0.0,0.0025334605802889727,-0.4184185296430516,0.23915261726269013,0.002219439192809141,-0.4209753336619106,0.23748963724723013,0.00031402138747983147,0.0025568040188589936,0.0016629800154600027,0.0030661635237650992,0.001505033754518722,-0.009288545653486809,-0.008018476090380516,0.012362773385092578,-0.07336562128349178,0.11298520387914235,-0.11897662904634787,0.016860646297821764,0.011908637674187927,0.01076348671812569,0.007824478195073592,0.727563065500819,0.002976620981906098,0.00805751248837817,0.013347826918910958,0.01275172038362804,0.04,0.04,0.03999885080759197,0.03999873501839611,-0.004269902348805606,0.0031611334894299336,1.1491924080328508e-06,1.2649816038892703e-06,2.850241140359878,0.04,1,1,1.4021049814345772e-07,2.687994075413641e-12,5,5,0.0005295479168941329,0.0264733136287301,0.015370751198261479,1.6296431523145934e-06,1.1199629674546783e-06,22,0,22,0,0.0,1.4989365724297158e-05,0.04665216563443347,0.045035774432947547,0.0649287849822491,0.001616391201485927,-4.241973535477456,-0.025200140536715973,-0.16888064736081052,-0.1620512866682656,-0.11725348139101129,-0.006829360692544917,-17.833524623168728,-16.64707551718949,0.10563043425659743,0.10302893887007093,0.15067827597126307,0.0026014953865265006,-1.2417696696924736,-0.5069978454388626,-1.9812990404702138,-1.9762629785765413,-0.3792561540653348,-0.00503606189367245,15.330893831785033,15.33723099037676,0.018256749959472254,0.01688891228221002,0.04251238486271034,0.0013678376772622326,1.763065346848336,0.8549219628098129,1.813302171160101,1.8056072262749385,0.22279084018898357,0.007694944885162425,3.7212254258583926,1.1258445709871072,0.9317058072836851,0.9197971696094972,-0.5416656290355112,0.011908637674187927,-12.177659843760921,0.0005007784833305877
43,0.733333333333334,approach,sequence,0.0,0.00132670191401172,-0.41652796900406824,0.23716025334219476,0.0009970631993547398,-0.4190922747172843,0.2355065739235081,0.00032963871465698023,0.0025643057132160307,0.00165367941868666,0.0030690358572067764,0.0015322768819825078,-0.009270738804287854,-0.008021986376548974,0.012355028767506935,-0.07334255960726409,0.11298353667757888,-0.11898379942332171,0.01680317127047679,0.011913539769267123,0.01070110347187421,0.007755652924246403,0.7255730649222185,0.0030277715795262107,0.008263429634503286,0.013627879773418904,0.01275172038362804,0.04,0.04,0.039998819007316416,0.039998715089157984,-0.00437238952009771,0.0032371577184243973,1.1809926835845697e-06,1.2849108420170952e-06,2.860372962365561,0.04,1,1,1.3890526552137471e-07,2.239264392885361e-12,5,5,0.0005270773482542666,0.026349863239529005,0.01538073536222484,1.6087399922892672e-06,1.1099785168773713e-06,22,0,22,0,0.0,1.535785557175234e-05,0.04809528309663575,0.04647794056024705,0.06563480776130792,0.0016173425363886981,-4.1740599347066905,-0.025263332555483037,-0.17144594491630272,-0.16469783434209492,-0.11447847469828634,-0.006748110574207794,-17.780177335633198,-16.58327775471068,0.10800728206997745,0.10539170592641003,0.15090657967709734,0.0026155761435674163,-1.3152312670225683,-0.5223470570797579,-1.9890546933944602,-1.9841035962651299,-0.3762986094002739,-0.004951097129330284,15.36785703008809,15.339738891361087,0.018971686403152384,0.017589336458706233,0.04309955172461745,0.0013823499444461512,1.7699913884697125,0.8538225344781643,1.8185447012434401,1.8108638257078291,0.22240091766419484,0.007680875535611031,3.7147960213096667,1.1257718864201527,0.935177904971722,0.9232643652024549,-0.5416178030847518,0.011913539769267123,-12.177225913972961,0.0005000740232538048
44,0.7500000000000007,approach,sequence,0.0,0.00012022070088458874,-0.41463733552395504,0.23516779051286862,-0.00022492557932663436,-0.417209244525613,0.2335233890537538,0.0003451462802112231,0.002571909001657935,0.0016444014591148193,0.003072116213018594,0.0015595024727791341,-0.009252953282327343,-0.008025540189663545,0.012347408138692157,-0.07331932672088246,0.11298181150027786,-0.11899109218525772,0.01674722219159781,0.011918684072965147,0.01063989770318392,0.007687394279472182,0.7236305435334627,0.003078973516409854,0.008469219770148155,0.013907000143278867,0.01275172038362804,0.04,0.04,0.03999878582743766,0.03999869384744606,-0.004474916628196665,0.003313248669762544,1.2141725623388e-06,1.306152553941231e-06,2.8704548886667474,0.04,1,1,1.376361000500059e-07,3.3403100559296624e-12,5,5,0.0005246638925064424,0.026229266350859134,0.015391129771944012,1.5882957999288326e-06,1.1002184324478812e-06,22,0,22,0,0.0,1.5726311467183918e-05,0.04953986861302198,0.04792134773698164,0.06629187901562475,0.0016185208760403427,-4.112744629130731,-0.025323801423488,-0.1739535310139102,-0.16728637019402431,-0.11170717599705966,-0.006667160819885887,-17.727977210190716,-16.52026524594715,0.1103996644247142,0.10777003089345696,0.1511881406078859,0.002629633531257239,-1.3839153296851805,-0.5377766138143607,-1.9967420876739324,-1.9918750902647318,-0.37336482814291466,-0.004866997409200602,15.403680325678579,15.341846551487082,0.019697409718638835,0.018300819560812944,0.04368781711927718,0.0013965901578258909,1.7772420696791116,0.8527024817185116,1.823778512195937,1.8161110042878628,0.2220370138543068,0.007667507908074134,3.7087101865872683,1.125698079297182,0.9386554949743989,0.9267368109014338,-0.5415716457692659,0.011918684072965147,-12.176794625418324,0.0004993707432161473
45,0.7666666666666674,approach,sequence,0.0,-0.0010859797512234011,-0.41274662735905693,0.23317522856790376,-0.001446524157995828,-0.4153262425968019,0.23154008136121673,0.0003605444067724269,0.00257961523774497,0.001635147206687032,0.003075404596406353,0.0015867108370278557,-0.00923519022078148,-0.00802911999096355,0.0123399010337867,-0.07329591472015162,0.11298011572866473,-0.11899846155222438,0.01669276220294502,0.011924060006683224,0.010579848335699272,0.007619676075771409,0.7217331677247892,0.0031302302596832934,0.008674884787377934,0.014185212846661284,0.01275172038362804,0.04,0.04,0.039998812109994154,0.03999873279563381,-0.004578341245278247,0.003388410365513769,1.1878900058465147e-06,1.267204366189878e-06,2.880487513717754,0.04,1,1,1.3640196995020603e-07,3.6908991710081656e-12,5,5,0.0005223063659390071,0.026111463849532984,0.015401924260636357,1.5682980456434436e-06,1.0906759723246454e-06,22,0,22,0,0.0,1.6094732346476582e-05,0.05098610094428929,0.04936618169545573,0.06690741944500993,0.0016199192488335623,-4.057165234616349,-0.025380351697239817,-0.17640346732098763,-0.16981697553956535,-0.10893872057288449,-0.006586491781422288,-17.67690504823713,-16.458038148213365,0.11280759118798789,0.11016391940316685,0.15151591648435492,0.0026436717848210417,-1.448436838356315,-0.5532779166428966,-2.0043617637497038,-1.9995780355539468,-0.37045345366981586,-0.004783728195757009,15.438390881113264,15.343555809644442,0.02043371525060002,0.019023163661120026,0.04427583734854084,0.0014105515894799955,1.7847602062008292,0.8515618251332144,1.829004096575055,1.8213492694170925,0.2216983275003689,0.007654827157962396,3.7029480481733117,1.1256231698691277,0.9421387351620701,0.9302146751553869,-0.5415267170729876,0.011924060006683224,-12.176366456624919,0.0004986677627277208
46,0.7833333333333341,approach,sequence,0.0,-0.002291896021259447,-0.41085584258352376,0.231182567311625,-0.0026677293993904805,-0.41344326759341526,0.22955665008135948,0.0003758333781310333,0.0025874250098915086,0.0016259172302655334,0.0030789000876293147,0.0016139021702639546,-0.009217449746141488,-0.00803271349280656,0.012332499588296894,-0.07327231448367914,0.112978500203198,-0.11900587679143537,0.016639758177916894,0.011929661049225104,0.010520935325341508,0.007552473050663533,0.7198790210851715,0.003181545261143782,0.008880426447182883,0.014462542149626565,0.01275172038362804,0.04,0.04,0.039998763763969075,0.03999869596307456,-0.004680680815915022,0.0034648137848880115,1.2362360309256526e-06,1.3040369254424533e-06,2.8904714162650307,0.04,1,1,1.3520190383191848e-07,3.3241436650616028e-12,5,5,0.000520003661202339,0.02599640043893751,0.015413111959911907,1.5487343480916216e-06,1.0813446252475868e-06,22,0,22,0,0.0,1.6463117273491192e-05,0.05243415444863642,0.05081262337034085,0.06748755160689027,0.0016215310782955739,-4.006604988205396,-0.02543197734773483,-0.17879579909977178,-0.17228971526408965,-0.10617226486592334,-0.0065060838356821304,-17.626944120692997,-16.3965968206747,0.11523107103862071,0.11257337771551973,0.15188399570438743,0.002657693323100979,-1.509304569595031,-0.5688424952543334,-2.0119142368003673,-2.007212980308408,-0.36756320709217605,-0.004701256491959516,15.472012963100497,15.344868411679176,0.021180392363813822,0.019756165363952118,0.04486244571765087,0.0014242269998617045,1.7924979569646524,0.8504005835120317,1.834221936723779,1.8265791178324688,0.22138412344549996,0.0076428188913102435,3.6974924114147143,1.1255471825741798,0.9456277871152988,0.9336981260660737,-0.5414828317143348,0.011929661049225104,-12.175941277176662,0.0004979674995765401
47,0.8000000000000008,approach,sequence,0.0,-0.003497524570889406,-0.4089649791965699,0.22918980655022025,-0.003888538010374246,-0.41156031778778257,0.22757309469068232,0.00039101343948483996,0.0025953385912126925,0.0016167118595379337,0.003082601360809771,0.0016410765057066608,-0.00919973154846863,-0.00803630949785454,0.012325196266460772,-0.07324851665902594,0.11297698833796166,-0.11901332344062932,0.01658817849901001,0.011935481309987672,0.010463139867758996,0.0074857607876714916,0.7180661953416256,0.0032329219504906113,0.00908584638495723,0.014739011791276731,0.01275172038362804,0.04,0.04,0.0399987798550929,0.03999872478986926,-0.004783935373754648,0.0035401220371409957,1.220144907103371e-06,1.2752101307411667e-06,2.9004071599225374,0.04,1,1,1.3403499640872048e-07,3.836180679009205e-12,5,5,0.0005177547612696971,0.025884025333881917,0.015424690036185185,1.5295932924458861e-06,1.0722182735211993e-06,22,0,22,0,0.0,1.6831465416322027e-05,0.05388419862126109,0.05226084873388841,0.06803734771042097,0.0016233498873726854,-3.9604630643643475,-0.02547781591428092,-0.18113055566098826,-0.17470463795055258,-0.10340698842453361,-0.006425917710435686,-17.578080490420575,-16.335941822370117,0.11767011176456794,0.11499841189270328,0.15228739772234612,0.0026716998718646634,-1.56694228846834,-0.584461954527666,-2.019399997588039,-2.014780446985441,-0.36469288135159417,-0.004619550602597666,15.504568953640955,15.345785999755673,0.02193722427089252,0.02049961555782516,0.045446618452325824,0.0014376087130673586,1.8004154729774342,0.8492187722176421,1.8394325051381892,1.8318010359645203,0.22109372821287815,0.00763146917366897,3.692328713551433,1.1254701406701413,0.9491228161022589,0.9371873347922712,-0.5414395570666259,0.011935481309987672,-12.17551981994643,0.0004972674333496054
48,0.8166666666666675,approach,sequence,0.0,-0.004702861739372835,-0.4070740351237697,0.2271969460875149,-0.005108946552694943,-0.4096773913718613,0.22558941472905786,0.0004060848133221086,0.002603356248091604,0.0016075313584570372,0.003086507038467784,0.0016682337959486363,-0.009182035260826577,-0.0080398995839734,0.012317985259342676,-0.07322451253924182,0.11297558495527493,-0.11902079769746776,0.016537994747802306,0.011941517611126828,0.01040644444048143,0.007419515661016618,0.7162931950961415,0.0032843637344650745,0.009291146139279607,0.015014645037073436,0.01275172038362804,0.04,0.04,0.039998721803123395,0.03999867833969314,-0.004886072797466692,0.0036166342963690206,1.2781968766056861e-06,1.3216603068633148e-06,2.9102952936508157,0.04,1,1,1.3290038756445874e-07,4.1756762150311235e-12,5,5,0.000515558701923377,0.025774290385525478,0.015436655974371494,1.5108642344208776e-06,1.0632911639605932e-06,22,0,22,0,0.0,1.7199776028182516e-05,0.055336395514766004,0.05371102751058348,0.0685609947936208,0.0016253680041825244,-3.9182312540542057,-0.025517129606649744,-0.18340775084417346,-0.17706177616521251,-0.10064209620292408,-0.006345974678960947,-17.53030281492238,-16.276073894868823,0.1201247225203871,0.11743902835097277,0.15272193147166485,0.002685694169414332,-1.6217045030319923,-0.6001279525153214,-2.0268195132490554,-2.0222809333276737,-0.36184132580068423,-0.004538579921381736,15.536079709530895,15.346310110883802,0.02270398823571108,0.02125329924081052,0.04602745210465224,0.0014506889949005598,1.808478692439401,0.8480164025763957,1.8446362647942531,1.8370155002517594,0.2208265138772664,0.007620764542493719,3.6874440060601046,1.1253920702405225,0.9526239907666427,0.9406824731555159,-0.5413967960911518,0.011941517611126828,-12.17510187389371,0.0004965699540955722
49,0.8333333333333343,approach,sequence,0.0,-0.005907903737306877,-0.4051830082139151,0.22520398572428116,-0.006328951442907025,-0.4077944864886334,0.22360560972313073,0.00042104770560014767,0.002611478274718304,0.0015983760011504256,0.0030906157623959768,0.0016953738415175328,-0.0091643606155484,-0.008043475026211278,0.012310860589398332,-0.07320029341272488,0.1129742929936739,-0.1190283003556275,0.016489179606475474,0.011947766874676469,0.010350832433331198,0.007353714790510946,0.7145584502927681,0.0033358739971716743,0.009496327149102913,0.01528946469718136,0.01275172038362804,0.04,0.04,0.03999873201749847,0.03999870141676217,-0.004989149469793399,0.003691967489029945,1.2679825015307622e-06,1.2985832378298312e-06,2.9201363523872876,0.04,1,1,1.3179727541777864e-07,5.629787887074301e-12,5,5,0.0005134145993595792,0.025667151464256712,0.015449010636706673,1.492536740191738e-06,1.054557724195199e-06,22,0,22,0,0.0,1.7568048432019356e-05,0.05679090412838412,0.05516332456935239,0.0690620622133799,0.0016275795590317277,-3.8794766088750237,-0.02554927774463823,-0.18562738332962334,-0.1793611467498703,-0.09787682169081256,-0.006266236579753032,-17.483601569628377,-16.2169939698067,0.122594909661129,0.1198952323508254,0.15318397649618504,0.0026996773103036,-1.6738913251481904,-0.61583216786846,-2.0341732280395664,-2.029714913202149,-0.35900744191604445,-0.004458314837417543,15.566564772492711,15.346442173855905,0.0234804545648737,0.022016995128356958,0.04660412433123941,0.0014634594365167432,1.8166587152187574,0.8467934815257829,1.849833669470634,1.8422229774904695,0.22058189905976178,0.007610691980164619,3.6828272114826177,1.1253129943189437,0.9561314837922226,0.9441837169175461,-0.5413541776134771,0.011947766874676469,-12.174688116360585,0.0004958724131263002
50,0.850000000000001,approach,sequence,0.0,-0.007112646640043894,-0.4032918962347032,0.22321092525846836,-0.007548548954244791,-0.4059116012814642,0.2216216791751453,0.00043590231420089724,0.0026197050467610117,0.0015892460833230593,0.003094926246763967,0.0017224963720832648,-0.009146707472153005,-0.00804702869004334,0.012303817378007537,-0.073175850680266,0.11297311243015362,-0.11903583287912578,0.016441708162964565,0.01195422760337883,0.010296288552456323,0.0072883359885014265,0.7128607119942667,0.003387456101284407,0.009701390772069706,0.015563493166564104,0.01275172038362804,0.04,0.04,0.03999873251450427,0.039998714322098554,-0.005092026266581798,0.003767459363469874,1.2674854957331338e-06,1.2856779014469577e-06,2.929930857378776,0.04,1,1,1.3072489586471372e-07,5.1804142611098694e-12,5,5,0.0005113216128127457,0.025562566585893412,0.015461754273675687,1.4746017588330421e-06,1.0460128899425138e-06,22,0,22,0,0.0,1.7936282008129616e-05,0.0582478748875085,0.05661789815996875,0.06954349285968782,0.001629976727539749,-3.8438282741965963,-0.025573704486737917,-0.18778943713947072,-0.18160275128057524,-0.09511042730761864,-0.00618668585889548,-17.437968678668312,-16.158703140759297,0.12508068171335712,0.12236702945740238,0.15367048235736855,0.0027136522559547405,-1.7237568524762992,-0.6315662880296044,-2.0414615640280678,-2.037082837383398,-0.356190172136924,-0.0043787266446697615,15.596042376131663,15.346183508057472,0.02426638732129123,0.02279047560802052,0.04717589689725077,0.0014759117132707097,1.824930390407765,0.8455500110012892,1.855025164011801,1.847423925119793,0.22035933615034947,0.007601238892007922,3.6784682854090534,1.1252329375064916,0.9596454711912218,0.947691243587843,-0.5413115976696316,0.01195422760337883,-12.174278440062835,0.0004951761006108616
51,0.8666666666666677,approach,sequence,0.0,-0.008317086380325692,-0.40140069686741686,0.22121776448592498,-0.0087677352085037,-0.40402873381797966,0.21963762257813277,0.00045064882817800675,0.0026280369505627954,0.0015801419077922096,0.0030994372115954877,0.0017496009874636087,-0.009129075781261852,-0.008050554108262952,0.012296851210184858,-0.07315117525553448,0.11297204780907233,-0.11904339582075207,0.016395557202990664,0.011960899340943687,0.010242798311734393,0.007223357742215164,0.7111987691421591,0.003439113388144332,0.009906338292239454,0.015836752453280614,0.01275172038362804,0.04,0.04,0.03999872537175531,0.03999871958286093,-0.0051947166994931555,0.003843020173004294,1.2746282446879365e-06,1.2804171390726204e-06,2.939679316782074,0.04,1,1,1.2968253316373913e-07,3.799771889190642e-12,5,5,0.0005092789670970894,0.025460497045200866,0.015474889461563723,1.457050107731265e-06,1.037651693563686e-06,22,0,22,0,0.0,1.8304476184196298e-05,0.05970745444443557,0.05807490120948084,0.07000782986943371,0.0016325532349547311,-3.8109660831394194,-0.025589922628916996,-0.18989388190439516,-0.18378657643745563,-0.09234220189774074,-0.006107305466939522,-17.393397012737296,-16.10120267044018,0.12758204482674076,0.12485442432017424,0.154178771802063,0.002727620506566525,-1.7715189685825976,-0.6473219901317504,-2.048684921770283,-2.044385134241758,-0.35338849901783803,-0.004299787528525112,15.624529587983488,15.345535326362953,0.025061543219097395,0.02357350634741705,0.047742079239947194,0.001488036871680344,1.8332718069228235,0.844285988478931,1.860211184613837,1.8526187915345043,0.2201583106857803,0.007592393079332682,3.67435835582819,1.125151922487091,0.9631661330494067,0.951205233708463,-0.54126887766463,0.011960899340943687,-12.173872991134886,0.0004944808197109799
52,0.8833333333333344,approach,sequence,0.0,-0.009521218740651163,-0.3995094077021097,0.21922450320049133,-0.009986506171008498,-0.40214588206660795,0.21765343943444815,0.00046528743035733483,0.0026364743644982647,0.0015710637660431848,0.003104147358692698,0.0017766871867516793,-0.009111465545079276,-0.008054045299846189,0.012289957991413513,-0.07312625775028794,0.11297110508230235,-0.11905098862107721,0.01635070493158768,0.011967782143291639,0.010190348342431398,0.007158759167081197,0.7095715136757221,0.003490849177455877,0.010111170925429678,0.016109264202140407,0.01275172038362804,0.04,0.04,0.03999871225521526,0.039998718917220205,-0.005297236337438657,0.003918613605914888,1.2877447847434165e-06,1.281082779795717e-06,2.949382226030015,0.04,1,1,1.2866951153755477e-07,4.13933183644457e-12,5,5,0.0005072859381799475,0.02536090669032664,0.01548841949584323,1.4398735446860341e-06,1.029469441950676e-06,22,0,22,0,0.0,1.8672630427271865e-05,0.061169782899980776,0.05953448075277994,0.0704572120682794,0.001635302147200833,-3.780612507519322,-0.0255975014454159,-0.1919406732740745,-0.18591259442230199,-0.0895714593314373,-0.006028078851772506,-17.349880218480052,-16.04449397443512,0.13009900520961562,0.1273574211238809,0.1547065370036057,0.0027415840857347162,-1.817364621082163,-0.6630909280273032,-2.055843680937364,-2.0516222104134254,-0.35060144091539436,-0.004221470523938731,15.652042385564528,15.344498735043999,0.02586567184884382,0.02436584611055666,0.04830203086298528,0.0014998257382871603,1.84166369081791,0.8430014064118383,1.8653921590626807,1.8578080163526665,0.21997833629370944,0.0075841427100142855,3.6704894311792486,1.1250699714118184,0.9666936532043062,0.9547258710610146,-0.5412258589288041,0.011967782143291639,-12.173471860056452,0.0004937863966455718
53,0.9000000000000011,approach,sequence,0.0,-0.010725039345036363,-0.39761802623277465,0.21723114119375156,-0.01120485764084073,-0.4002630438772664,0.21566912926813647,0.000479818295804367,0.002645017644491765,0.0015620119256150866,0.003109055353708763,0.0018037543634143215,-0.009093876789169026,-0.008057496735354932,0.012283133903869108,-0.0731010881899339,0.11297029136049241,-0.11905860997870055,0.016307130902058112,0.011974876589392558,0.010138926225860422,0.0070945199865364295,0.7079779249257018,0.0035426667666843565,0.010315889823827498,0.01638104971717471,0.01275172038362804,0.04,0.04,0.03999869447225699,0.039998713640334776,-0.005399597418410343,0.00399421474114434,1.3055277430090717e-06,1.2863596652243348e-06,2.9590400682683056,0.04,1,1,1.2768519205965187e-07,6.396455740252895e-12,5,5,0.0005053418487710113,0.025263761704725787,0.015502348289278656,1.423064140663203e-06,1.0214616159278101e-06,22,0,22,0,0.0,1.9040744237330137e-05,0.06263499404025016,0.060996777734453445,0.07089345228781621,0.0016382163057967192,-3.752525564675409,-0.025596057843350558,-0.19392975325310616,-0.1879807633364486,-0.08679753593693841,-0.005948989916657571,-17.307412592093556,-15.98857861546551,0.1326315687806477,0.1298760236679504,0.1552517670274387,0.002755545112697294,-1.8614550241832148,-0.6788647234121801,-2.0629382009239006,-2.0587944514348755,-0.34782804998246036,-0.0041437494890250726,15.67859577890249,15.343074736470658,0.02667851536800719,0.025167246536784635,0.04885514880341131,0.0015112688312225557,1.850088929881366,0.8416962523974334,1.8705685069699605,1.8629920306744472,0.21981895135713217,0.007576476295513279,3.6668542706879634,1.1249871057098542,0.9702282193502932,0.9582533427609007,-0.5411823979953504,0.011974876589392558,-12.173075089438953,0.0004930926614974372
