VatsinShah86/newton/mujoco_test_control_debug.csv
frame,sim_time,phase,scripted_mode,gripper_cmd,ee_target_x,ee_target_y,ee_target_z,ee_pos_x,ee_pos_y,ee_pos_z,ee_err_x,ee_err_y,ee_err_z,ee_pos_err_norm,ee_rot_err_x,ee_rot_err_y,ee_rot_err_z,ee_rot_err_norm,ee_vel_x,ee_vel_y,ee_vel_z,arm_joint_err_l2,arm_joint_err_max_abs,arm_target_delta_l2,arm_target_delta_max_abs,arm_qvel_l2,ee_pos_error_time_integral,ee_rot_error_time_integral,arm_joint_error_l2_time_integral,arm_joint_error_max_running,finger_left_target,finger_right_target,finger_left_qpos,finger_right_qpos,finger_left_qvel,finger_right_qvel,finger_left_err,finger_right_err,arm_ctrl_l2,finger_ctrl,ik_success,ik_status,ik_cost,ik_optimality,ik_nfev,ik_njev,ik_weighted_residual_norm,ik_seed_delta_norm,ik_seed_delta_max_abs,ik_pos_err_norm,ik_rot_err_norm,ncon_total,ncon_finger_rope_total,ncon_rope_ground_total,ncon_finger_ground_total,finger_rope_normal_force_sum,rope_ground_normal_force_sum,panda_joint1_target,panda_joint1_qpos,panda_joint1_qvel,panda_joint1_err,panda_joint1_actuator_force,panda_joint1_qfrc_bias,panda_joint2_target,panda_joint2_qpos,panda_joint2_qvel,panda_joint2_err,panda_joint2_actuator_force,panda_joint2_qfrc_bias,panda_joint3_target,panda_joint3_qpos,panda_joint3_qvel,panda_joint3_err,panda_joint3_actuator_force,panda_joint3_qfrc_bias,panda_joint4_target,panda_joint4_qpos,panda_joint4_qvel,panda_joint4_err,panda_joint4_actuator_force,panda_joint4_qfrc_bias,panda_joint5_target,panda_joint5_qpos,panda_joint5_qvel,panda_joint5_err,panda_joint5_actuator_force,panda_joint5_qfrc_bias,panda_joint6_target,panda_joint6_qpos,panda_joint6_qvel,panda_joint6_err,panda_joint6_actuator_force,panda_joint6_qfrc_bias,panda_joint7_target,panda_joint7_qpos,panda_joint7_qvel,panda_joint7_err,panda_joint7_actuator_force,panda_joint7_qfrc_bias
0,0.016666666666666666,approach,sequence,0.0,0.05328767511570371,-0.49812848216155026,0.32249520387170527,0.053772850359811095,-0.49986934926025217,0.32279329008431357,-0.0004851752441073845,0.0017408670987019148,-0.00029808621260829504,0.001831630056257169,0.00011988115317868245,-0.0017684431092979485,-0.00024301483085892544,0.0017890832092801717,0.0,0.0,0.0,0.008712797076396318,0.005644871669174378,0.015090116286813891,0.01183793773541808,1.6309170977925218,3.052716760428615e-05,2.981805348800286e-05,0.00014521328460660529,0.005644871669174378,0.04,0.04,0.03999942670140453,0.039999286468946765,0.0002533048806090198,-0.00019491458239461108,5.732985954715053e-07,7.135310532355166e-07,2.3694343694402464,0.04,1,1,4.557650195708269e-08,4.5133870963049514e-12,4,4,0.00030191555758881555,0.015090116286813891,0.01183793773541808,1.5094509873679199e-06,8.440615075858386e-07,0,0,0,0,0.0,0.0,0.001677947201141287,9.232979859356914e-05,-1.040871109152027,0.001585617402547718,-113.5953971154399,-0.03496781969803332,-0.00545762111058791,-0.001727761815791756,-0.041208904389323384,-0.003729859294796154,-14.016514362061159,-20.31856816630282,0.0016976722375041265,0.00021443722434808568,1.0687767262108678,0.0014832350131560408,97.6848850159593,-0.03656239230453337,-1.582627937735418,-1.5769830660662436,-0.35323981700581797,-0.005644871669174378,8.720092581973404,15.184859922246169,9.33566201109639e-06,-0.00012315167233372973,-0.021911889341516978,0.0001324873343448261,0.13483694722843587,0.8832818330339511,1.577169487601527,1.5734543422551082,0.11705312377297353,0.0037151453464188133,3.1118500030565883,1.2039566167915448,0.7886754502643,0.7852692236300693,-0.5417897347825926,0.0034062266342306247,-20.53705644034858,0.0001937059793697812
1,0.03333333333333333,approach,sequence,0.0,0.052076943701861625,-0.49624929645480065,0.32049450636256405,0.05262407190200888,-0.4997029264558548,0.3198437912451315,-0.0005471282001472538,0.003453630001054142,0.0006507151174325321,0.0035567315917331803,0.00023825709445921299,-0.005113802144653233,-0.0006123348163233546,0.005155840643871948,-0.06892670746813295,0.009985368263842886,-0.17696993035092312,0.014383821144485207,0.007676323584734135,0.014904896071855267,0.011674787418829435,1.6947589202245188,8.980602746650582e-05,0.00011574873088586866,0.0003849436370146921,0.007676323584734135,0.04,0.04,0.039999448335529465,0.03999921173074531,0.00010954657143805722,-6.427716503478871e-05,5.516644705355622e-07,7.882692546895553e-07,2.382587309074024,0.04,1,1,1.1013124809985426e-07,3.230210875039238e-11,4,4,0.00046932131445280486,0.023457765874547603,0.017319659088003814,2.2733580986547585e-06,1.288903205115192e-06,22,0,22,0,0.0,0.2452021267703131,0.003284340243295413,-0.0002474531758432846,-1.058614977180678,0.003531793419138698,-102.04653748898764,-0.09891320070789507,-0.010820168551705147,-0.003971068775892364,-0.08659475934234574,-0.006849099775812783,-23.02451628039865,-20.31223874245031,0.003482119587893537,0.000918774451441346,1.087051476909637,0.002563345136452191,98.83648880848557,-0.10294894762896824,-1.5943027251542474,-1.5866264015695133,-0.4824227998929588,-0.007676323584734135,12.920209547146442,15.205185997405938,3.7815811757099375e-05,-0.00023625742374939622,-0.016539223273745456,0.0002740732355064956,0.5928890446327427,0.8812360997905031,1.5834813518396216,1.5775062505141424,0.18479110393705825,0.005975101325479182,4.293599856528999,1.1965397715471866,0.7920656063592985,0.7852658310565589,-0.5433318563410492,0.0067997753027395635,-13.80225706787428,0.0003822544463491957
2,0.05,approach,sequence,0.0,0.0508674259852516,-0.49435667366031183,0.31850577665468827,0.05134701594673839,-0.49947106492932275,0.31683583932816084,-0.0004795899614867885,0.0051143912690109206,0.0016699373265274264,0.005401453069149412,0.00033454875522477106,-0.008018533130841578,0.00020371365727660763,0.008028094150804879,-0.07662335731622921,0.013911691591922404,-0.18047711501824049,0.01804035712403436,0.009005599144570208,0.014722570202389275,0.011494744764515286,1.737363612678913,0.00017983024528566268,0.00024955030006595,0.0006856162557485981,0.009005599144570208,0.04,0.04,0.039999571735000426,0.039999261450016164,-6.590491821971813e-05,9.201570157414227e-05,4.282649995746013e-07,7.385499838363785e-07,2.3955921204271338,0.04,1,1,1.6266389489639312e-07,2.645465786107648e-10,4,4,0.0005703751307628921,0.028509462123817494,0.01917106834924942,2.6439865068082443e-06,1.5258387207514935e-06,22,0,22,0,0.0,0.1596682771263513,0.004423063622476437,-0.0011566564019605883,-1.0774785326546827,0.005579720024437025,-89.65283991855196,-0.17634902470281397,-0.01608450525680441,-0.007078906112234202,-0.1438857976791701,-0.009005599144570208,-26.35722949178171,-20.255165423073123,0.005755190570878551,0.0022913011302557428,1.1108426631089372,0.0034638894406228086,98.5306836930827,-0.1844047613018972,-1.6057974699187627,-1.5975405690243822,-0.5238908170167705,-0.00825690089438047,14.498401390896106,15.225846909507155,9.278421109858138e-05,-0.00031112557498110183,-0.007706433202686602,0.0004039097860796832,1.0143327061803322,0.8793730276731332,1.5897117402940097,1.5824169755676074,0.22594171896976284,0.007294764726402336,4.9346090754361285,1.1930714291852569,0.7954754994328115,0.7865497660907507,-0.5265236478393832,0.008925733342060815,-12.108005215906132,0.00045411376585900026
3,0.06666666666666667,approach,sequence,0.0,0.049659905117257284,-0.492450293270887,0.3165290098085036,0.05006456008837177,-0.4988118511014939,0.31421423589719766,-0.0004046549711144848,0.006361557830606879,0.0023147739113059673,0.006781691672309062,0.0004365710204791445,-0.009819270267856868,0.001329099805123324,0.0099184257390535,-0.07694735150199736,0.03955282966973117,-0.15729620585779092,0.020099632734645417,0.010191540189878799,0.014593563366645718,0.011314963439773562,1.7442377863140206,0.00029285843982414705,0.00041485739571684165,0.001020610134659355,0.010191540189878799,0.04,0.04,0.03999969105610735,0.0399992909473468,-0.000285199030723433,0.00029684591520935866,3.0894389264901623e-07,7.090526532027575e-07,2.40844700895232,0.04,1,1,1.9915270965120593e-07,1.1925723240407915e-09,4,4,0.000631114426473054,0.03154619525316807,0.019571864334154032,2.808946889103101e-06,1.642991866332753e-06,22,0,22,0,0.0,0.14001483412869176,0.004944110149029975,-0.0017258907532393423,-1.0475859508028267,0.006670000902269317,-86.1739652869802,-0.24082935297110866,-0.02124986406625353,-0.011058323876374732,-0.1925427303572865,-0.010191540189878799,-26.276729178626084,-20.172279230258304,0.008661096564726668,0.004097473209325487,1.1413104225964366,0.004563623355401181,97.55494965315076,-0.25468521541983175,-1.6171124333585363,-1.6087292980449532,-0.5287017128703775,-0.008383135313583034,14.44033739297447,15.244388200175559,0.00018433981562792414,-0.00036317964678948415,0.0042348347065213985,0.0005475194624174083,1.4521173623192656,0.8772123716836963,1.5958617715485002,1.5878360723944318,0.2504785107482807,0.008025699154068366,5.240557201680986,1.1912289006796515,0.7988983223138107,0.7889071465921904,-0.5128196834967795,0.009991175721620338,-12.199675987462342,0.00047996949201618844
4,0.08333333333333333,approach,sequence,0.0,0.048454427412880634,-0.4905339769803299,0.31456062077713903,0.048814497702569536,-0.4974999304440348,0.3120042501586463,-0.00036007028968890187,0.006965953463704877,0.0025563706184927315,0.007428942657680939,0.0004969311634778167,-0.010599842639521738,0.001832222223372133,0.010768502348965585,-0.07500374314813402,0.07871523944754655,-0.1325991443130814,0.021073340085109495,0.010636712425384338,0.014415653437726194,0.011150808338796336,1.749639300512146,0.00041667415078549603,0.000594332434866268,0.00137183246941118,0.010636712425384338,0.04,0.04,0.03999965670209874,0.0399992725203629,-0.0005349221975818543,0.0005300634871173977,3.4329790125908755e-07,7.274796370998482e-07,2.4211682628533415,0.04,1,1,2.205060973809174e-07,3.1713137624943392e-09,4,4,0.0006640874902916293,0.033194919695407506,0.01953394365237937,2.8660047327000613e-06,1.6912966515570726e-06,22,0,22,0,0.0,0.1379121485269373,0.005427430567760655,-0.0017557368841200863,-1.017406070666225,0.007183167451880741,-87.63484926275098,-0.2866083831115772,-0.02632039366448105,-0.015683681239096713,-0.22417845477442325,-0.010636712425384338,-24.789617687498307,-20.082017039005002,0.011618031030733592,0.0065114503851874846,1.1722403417586444,0.005106580645546107,96.27646440345288,-0.30792003327938133,-1.6282632416973326,-1.6198333860838778,-0.5229498913540296,-0.008429855613454773,13.694519091937764,15.262096835103058,0.0003061762692168675,-0.00033547069236720885,0.01732888103500591,0.0006416469615840763,1.8326491232196185,0.8754507141077934,1.6019429880283846,1.5935416703503555,0.264796496218282,0.008401317678029097,5.385895138696924,1.189686481244781,0.8023315669834334,0.7917857320057295,-0.507764815088715,0.010545834977703894,-12.244419401580217,0.0005008842028979901
5,0.09999999999999999,approach,sequence,0.0,0.04725020505465637,-0.48861308858356256,0.3125959232739296,0.04759442737662867,-0.495677014514232,0.31006519222013235,-0.00034422232197229424,0.007063925930669457,0.0025307310537972527,0.007511467115522912,0.0005195980692045588,-0.010720345357439478,0.0016935231035660994,0.010865717060489263,-0.0732042195564521,0.10937495578816625,-0.1163434763108373,0.021369946183441842,0.010851593923706826,0.014258800483251765,0.011009039108696106,1.7370858863837384,0.0005418652693775446,0.0007754277192077558,0.0017279982391352107,0.010851593923706826,0.04,0.04,0.03999952192638988,0.03999918412812026,-0.0007960277216089724,0.0007694787691546085,4.78073610123142e-07,8.158718797432463e-07,2.4337766485103796,0.04,1,1,2.3012578744707018e-07,5.5719300869747974e-09,4,4,0.0006784184364344327,0.03391163603123711,0.01943889472215088,2.867568940746845e-06,1.7025307881254927e-06,22,0,22,0,0.0,0.14008013544871872,0.005884230098669046,-0.001381754729884392,-0.9849742395677814,0.007265984828553438,-90.16721717271423,-0.30794446639604056,-0.03130359909057058,-0.02066550872006941,-0.23886641721403237,-0.01063809037050117,-23.201202593688492,-19.98767178817076,0.014605982318806056,0.00941417059949628,1.179310772607491,0.005191811719309776,94.57023784992205,-0.33783039481713584,-1.6392722808060287,-1.6307864754428378,-0.5171463969605792,-0.00848580536319088,12.916866945702168,15.27993436768228,0.00045773782358019216,-0.00022998798976412357,0.028645625271131687,0.0006877258133443158,2.253594993115258,0.8744930647274817,1.607970374289813,1.5993961548761644,0.2725465898197108,0.008574219413648665,5.4478881675609045,1.1886025301872296,0.8057656954092823,0.7949141014855755,-0.5068722216119824,0.010851593923706826,-12.265560545674361,0.00051357085573734
6,0.11666666666666665,approach,sequence,0.0,0.04604642670871837,-0.48669169820791053,0.3106314445343647,0.04638937273803237,-0.4935595845903472,0.30823963559824497,-0.00034294602931399937,0.006867886382436683,0.0023918089361197326,0.007280537434007443,0.0005273314206206213,-0.010542050787965345,0.0011556442790011665,0.01061830621816882,-0.07230327831577787,0.12704579543308836,-0.10953339731324285,0.021311485392947988,0.011034434219841516,0.014122347997729294,0.010885246168673257,1.722742034182038,0.0006632075599443353,0.0009523994895105695,0.0020831896623510105,0.011034434219841516,0.04,0.04,0.039999569809131406,0.03999928267318337,-0.001059312614021829,0.0010081808145816454,4.301908685944156e-07,7.173268166335567e-07,2.4462884865283616,0.04,1,1,2.3210640492072136e-07,8.168769204403156e-09,4,4,0.00068133164453256,0.03405748789083994,0.019371051531864136,2.8415616470886114e-06,1.6947612793524753e-06,22,0,22,0,0.0,0.14216605079973715,0.0063031063812722,-0.000768502255896699,-0.961995371826486,0.007071608637168898,-92.68919032177185,-0.3090920476715728,-0.03620605320794807,-0.02576116939919864,-0.2414635729908838,-0.01044488380874943,-22.09858687490828,-19.890537457390185,0.01762946921956068,0.012594565225977215,1.1764009161428535,0.005034903993583466,92.73187191365832,-0.3481258504186932,-1.650157526974702,-1.6416232314823815,-0.5140162316326121,-0.008534295492320432,12.403245929839613,15.29806682396072,0.0006390140545641773,-7.167507665658462e-05,0.03890080907591971,0.0007106891312207619,2.6844366917348963,0.8741822824318016,1.6139554565666254,1.6053167131516264,0.2763765836113117,0.00863874341499904,5.484888762714945,1.1880269789386189,0.8091930954635604,0.7981586612437189,-0.5080071584550814,0.011034434219841516,-12.275379004906426,0.0005163143699498177
7,0.13333333333333333,approach,sequence,0.0,0.044842521715422946,-0.4847720297465585,0.30866536066900985,0.04518591432359592,-0.49130523692507583,0.30641954976580066,-0.0003433926081729752,0.006533207178517353,0.002245810903209189,0.0069169632884490415,0.0005353804160724242,-0.010308887712770788,0.0004283407398145827,0.010331663653730472,-0.07220750486618688,0.135260859916283,-0.10920514994665842,0.02110170660242612,0.011155821026365143,0.013994103978512602,0.01077262998477213,1.708720832179386,0.000778490281418486,0.0011245938837394108,0.002434884772391446,0.011155821026365143,0.04,0.04,0.03999928823609179,0.03999904593413513,-0.0013098007697639655,0.0012456178365364723,7.117639082079852e-07,9.5406586487351e-07,2.4587136922401482,0.04,1,1,2.300126448219089e-07,2.5559945905600163e-12,5,5,0.0006782516418290617,0.03390368397485334,0.019306925477092562,2.8024591769435303e-06,1.6776170072085042e-06,22,0,22,0,0.0,0.14343277198559445,0.0067049205890631946,-3.835547041094249e-05,-0.9467789909717867,0.006743276059474137,-94.74057006762116,-0.2984119530388251,-0.041032281488994043,-0.030818294376889373,-0.2376123086045285,-0.01021398711210467,-21.554481588836097,-19.792315268257106,0.02066478864860721,0.015901445172467964,1.1680103614387713,0.004763343476139246,90.8406025303577,-0.3468764380021182,-1.660930156959474,-1.6523860045065597,-0.5126903243589701,-0.0085441524529144,12.191925950983205,15.316236742900854,0.0008489472975062122,0.00012143383515342217,0.048395293546998994,0.0007275134623527901,3.114718970393148,0.8742320113783182,1.6199049979209776,1.6112556559822033,0.2779664576963385,0.008649341938774313,5.51740278054649,1.187784328434355,0.8126102839225532,0.801454462896188,-0.5100684132707097,0.011155821026365143,-12.279662545892279,0.0005123188742950022
8,0.15,approach,sequence,0.0,0.04363813732302665,-0.4828549578265007,0.30669703816274263,0.04397680996336862,-0.4890090043964651,0.3045562813745349,-0.0003386726403419721,0.006154046569964433,0.0021407567882077427,0.0065245557679327664,0.00055080271885304,-0.010134910061557423,-0.0003525303802141534,0.01015598657245704,-0.07254626161363811,0.1377739517166432,-0.11179610347594626,0.02084795787936674,0.011245806800531333,0.013870459564608136,0.010666147719223584,1.6956355401756933,0.0008872328775506988,0.0012938603266136948,0.0027823507370475582,0.011245806800531333,0.04,0.04,0.03999962890485665,0.03999942797243325,-0.001558758704046041,0.0014639014954762387,3.710951433505416e-07,5.720275667517316e-07,2.4710573499661885,0.04,1,1,2.2611638596657744e-07,4.508935237034826e-12,5,5,0.0006724825439616666,0.03361542682640161,0.019210300172137984,2.757461787723202e-06,1.6566863938582e-06,22,0,22,0,0.0,0.1441250058560969,0.007102805060876474,0.0007289965011423199,-0.9367911871748307,0.006373808559734155,-96.21310745294033,-0.2832937212123457,-0.045785212475705724,-0.035768536552560196,-0.23162167795382935,-0.010016675923145528,-21.40493569764226,-19.69422946337159,0.023698385568191416,0.019248701560471912,1.1570307474623034,0.0044496840077195045,88.93153440837268,-0.34142721336912046,-1.6715963046786977,-1.6630937954949032,-0.5116547507403123,-0.008502509183794471,12.196939729270525,15.334151393319154,0.0010864963280058496,0.00034004247417527205,0.05737080250949392,0.0007464538538305776,3.535631113118394,0.874409663109349,1.6258223092885087,1.6171874727819762,0.2783625216857027,0.008634836506532517,5.549260863685504,1.1876976968047845,0.8160162438041523,0.8047704370036209,-0.5125092370408799,0.011245806800531333,-12.281280637884265,0.0005051143533840799
9,0.16666666666666666,approach,sequence,0.0,0.04243308894729301,-0.4809405932220276,0.3047264883477716,0.042760285764889584,-0.48672124510408704,0.302643328924319,-0.0003271968175965756,0.005780651882059451,0.0020831594234526074,0.006153255002234362,0.0005752031406990422,-0.010043102365268595,-0.0011118785404828813,0.010120821985447625,-0.07299145190874212,0.137265557542684,-0.11477714701295327,0.02059799174749434,0.011319229959357413,0.013750445828076217,0.010562858290543264,1.6834945268903736,0.0009897871275879383,0.001462540693037822,0.0031256505995057972,0.011319229959357413,0.04,0.04,0.039999208586344176,0.039999041095422634,-0.0017849068315726924,0.0016836768649224456,7.914136558248575e-07,9.589045773666927e-07,2.4833217639719787,0.04,1,1,2.2162304481212293e-07,2.686034296848042e-12,5,5,0.000665767293897985,0.03327986405674738,0.019065367474337735,2.710083707696773e-06,1.6343027458879604e-06,22,0,22,0,0.0,0.1444924593471681,0.00749934410154419,0.0014844039893661873,-0.9299215646548369,0.006014940112178003,-97.13648724324008,-0.26811258544752026,-0.05046674478428351,-0.0405990112813535,-0.22588787753185124,-0.009867733502930007,-21.446315390046777,-19.59680958976024,0.026728398525612443,0.022596725008185735,1.1451279284050289,0.004131673517426708,87.01465084837572,-0.3362254750741033,-1.682159162969241,-1.6737436067417206,-0.509924848762056,-0.008415556227520327,12.30986953032334,15.351643192506963,0.001350961750517436,0.000580871023772176,0.06598408400091989,0.0007700907267452601,3.9417538076058527,0.8745833838159637,1.631708792504236,1.6230997695795066,0.27816214588442373,0.008609022924729315,5.5783028821510925,1.1876742395416793,0.8194111211372597,0.8080918911779023,-0.5150776348291891,0.011319229959357413,-12.281601746635033,0.0004967467471702555
10,0.18333333333333332,approach,sequence,0.0,0.04122731543697369,-0.4790287132558915,0.3027539708606755,0.04153766520272482,-0.4844647834723174,0.3006941106322616,-0.0003103497657511306,0.005436070216425892,0.0020598602284139234,0.005821529054777267,0.0006055008807819085,-0.010012516592106226,-0.0018139229766857149,0.010193499712521627,-0.073357233729886,0.13538769790617744,-0.11695309752344452,0.020364334166465586,0.011382615679047414,0.013634039132982324,0.010461353380508465,1.6498694266378275,0.001086812611834226,0.0016324323549131825,0.0034650561689468905,0.011382615679047414,0.04,0.04,0.03999955801969496,0.03999942269492965,-0.0020003078451821714,0.0018713355862394086,4.419803050423332e-07,5.773050703525295e-07,2.4955079699018885,0.04,1,1,2.170889388144388e-07,2.8428086887006887e-12,5,5,0.0006589217537984898,0.03293778790614184,0.01887690960802879,2.662115106177024e-06,1.6116247221519893e-06,22,0,22,0,0.0,0.14468653110278784,0.007889557924857862,0.0022384253100160264,-0.9067227516011602,0.005651132614841836,-97.41423831811653,-0.25392057306307214,-0.055078168461387335,-0.04532267995443529,-0.22114550676503716,-0.009755488506952043,-21.521123412432217,-19.500413845963582,0.029760857251152767,0.025893971475995183,1.1152078529937066,0.0038668857751575844,84.99589761919489,-0.3323354352994555,-1.6926205163497494,-1.6843218273950196,-0.507094992904063,-0.00829868895472985,12.46228821619843,15.36872857450232,0.0016420529812611708,0.0008440359518924687,0.07398004934124702,0.0007980170293687021,4.307648939184416,0.8747143407230895,1.6375650566382625,1.6289872110251644,0.2774551788237886,0.008577845613098045,5.591493179988447,1.187693181212385,0.8227953852723342,0.8114127695932868,-0.5174256761669366,0.011382615679047414,-12.281567977514442,0.0004881345864278519
11,0.19999999999999998,approach,sequence,0.0,0.04002083869332792,-0.4771190090337084,0.30077977642982073,0.04031126847167049,-0.48225067611814065,0.2987258381140896,-0.0002904297783425727,0.005131667084432245,0.002053938315731141,0.00553507173633928,0.0006368682001472573,-0.010012341035051768,-0.0024393576771299186,0.010324874816844657,-0.07358380386325955,0.13284644125060585,-0.1180963510903199,0.020149816306189075,0.011439378450020299,0.01351423244827227,0.010361118465809227,1.6198621123490553,0.0011790638074398807,0.0018045136018605935,0.0038008864407167086,0.011439378450020299,0.04,0.04,0.03999890787726739,0.03999879872920791,-0.002188241025771173,0.002062889898268047,1.0921227326099459e-06,1.2012707920894261e-06,2.50761680749174,0.04,1,1,2.1274258396322303e-07,9.970273184413138e-09,4,4,0.0006522922411974912,0.03260651221594571,0.018659807420539076,2.6145199516171543e-06,1.589408430913184e-06,22,0,22,0,0.0,0.14478929840042987,0.008305172913578338,0.003027528900452712,-0.8869407591760914,0.005277644013125625,-97.29158820308798,-0.24097704740074127,-0.05962036366743423,-0.04995831859936759,-0.21746061281556847,-0.009662045068066637,-21.560754103327184,-19.405072224858515,0.03276652965709671,0.029083982863382884,1.087804968501986,0.003682546793713829,83.04441075951075,-0.3299897705090594,-1.7029816348155586,-1.6948142979748397,-0.5034487022754305,-0.008167336840718908,12.60111940880688,15.385398699930562,0.0019574902171985934,0.0011298692102771684,0.08150834897210207,0.000827621006921425,4.648406137853032,0.8747949793485502,1.6433915404585597,1.6348477954872378,0.2765933058735105,0.008543744971321932,5.5978098543819215,1.1877563282197485,0.8261711738801802,0.8147317954301599,-0.5196850214152249,0.011439378450020299,-12.281282193035395,0.0004791998886323409
12,0.21666666666666665,approach,sequence,0.0,0.038813737790670357,-0.4752111733246059,0.2988041574589975,0.039083227030613475,-0.48008098428119017,0.2967514299689631,-0.0002694892399431187,0.004869810956584286,0.002052727490034434,0.005291632390071758,0.0006679897038741429,-0.010018770413446185,-0.0029844771368705246,0.010475164658482911,-0.07368248646342099,0.13018151021702895,-0.1184644887075903,0.019957325125250315,0.011492401255734475,0.01338858031032712,0.010261976587408794,1.5916817601624993,0.0012672576806077433,0.0019790996795019753,0.004133508526137547,0.011492401255734475,0.04,0.04,0.03999931537007209,0.039999233852579134,-0.0023807396971432175,0.0022277841036359865,6.846299279092416e-07,7.661474208664476e-07,2.5196491531298864,0.04,1,1,2.0867084845380114e-07,4.832173194312736e-09,4,4,0.0006460198889412014,0.032293093039728125,0.018429313428127703,2.567884414920261e-06,1.5673010116457535e-06,22,0,22,0,0.0,0.1448439524702762,0.008793566382792162,0.003855963833717359,-0.868457645142432,0.004937602549074802,-96.84906314965981,-0.2291481946298766,-0.06409391915895041,-0.054520174358638936,-0.21442099114236748,-0.009573744800311472,-21.549950840792462,-19.310950921918455,0.03570142386672353,0.032159708242945555,1.0619932790213873,0.0035417156237779746,81.13571810411769,-0.3290415444465907,-1.7132436114029674,-1.7052109572684837,-0.4993122325619431,-0.00803265413448373,12.714091360585371,15.401648061239026,0.0022935224904647986,0.0014369608969604013,0.08854941001530439,0.0008565615935043974,4.9651468726211325,0.8748174098501378,1.649188721611827,1.6406809574325258,0.27563765824351005,0.008507764179301214,5.597834614239673,1.187837466723245,0.8295417615581575,0.818049360302423,-0.5218201182941912,0.011492401255734475,-12.280931392953335,0.0004704854650630433
13,0.2333333333333333,approach,sequence,0.0,0.03760611707908578,-0.47330493756987796,0.2968273121275796,0.03785470881585593,-0.4779488550891484,0.2947775195262814,-0.00024859173677015123,0.004643917519270457,0.002049792601298228,0.005082264995620991,0.0006987454502006155,-0.010019774666114006,-0.0034616554391555766,0.010623897022435387,-0.07371109288545258,0.12792775152250524,-0.11843462656090153,0.019783076382063794,0.01154274764201102,0.01326468475713476,0.010163924720908657,1.5643200184126562,0.0013519620972014266,0.0021561646298758983,0.00446322646583861,0.01154274764201102,0.04,0.04,0.03999922719501439,0.0399991682977198,-0.002555398298683533,0.002390924188491057,7.728049856089991e-07,8.317022801990204e-07,2.5316057766922437,0.04,1,1,2.0487909582364366e-07,4.217875816764526e-10,4,4,0.0006401235752940891,0.031998472432749926,0.018196578855392387,2.5224372388249097e-06,1.545744054436642e-06,22,0,22,0,0.0,0.14487313292242793,0.009361151428575984,0.0047241954745520145,-0.8499452479824319,0.004636955954023969,-96.22001917129376,-0.2181152679927516,-0.06849935797982461,-0.059015636087560906,-0.21164079907381375,-0.009483721892263701,-21.500936406308142,-19.21827562210432,0.038561107016559674,0.035134197909809615,1.0373187001783792,0.003426909106750059,79.25378443147588,-0.3291546045112806,-1.723407536123876,-1.7155071440366734,-0.4949884621764591,-0.007900392087202723,12.806889401266744,15.417493790554088,0.002648351458500496,0.0017639420730551176,0.09512750461511221,0.0008844093854453784,5.258597774237628,0.8747774266289764,1.6549571734451258,1.6464865969922784,0.2746060193431783,0.008470576452847434,5.592607905270597,1.1879094411608007,0.8329089152698405,0.8213661676278294,-0.5238291669854505,0.01154274764201102,-12.28058836378682,0.00046285754387151434
14,0.24999999999999997,approach,sequence,0.0,0.036398073883947925,-0.4714000998743257,0.2948493776007855,0.03662590740946079,-0.47584195956744735,0.29280597680309545,-0.00022783352551286606,0.004441859693121664,0.0020434007976900537,0.004894641199181698,0.0007290899154796977,-0.010012458162454566,-0.0038932701356211062,0.010767471518823556,-0.07372808438370848,0.12641373130206413,-0.1182925633911569,0.01962088277852692,0.01159063055392362,0.013144590639769109,0.010067107253613372,1.5374249101906547,0.0014335394505211214,0.0023356224885229576,0.004790241178814058,0.01159063055392362,0.04,0.04,0.039999556124384085,0.03999952004405318,-0.002726512199352492,0.00253869148803765,4.4387561591585634e-07,4.79955946819377e-07,2.54348757262017,0.04,1,1,2.013275336782041e-07,5.115328574904044e-09,4,4,0.0006345510754513054,0.03172003787920187,0.017967499340816095,2.4782071988558695e-06,1.5249663970885624e-06,22,0,22,0,0.0,0.14488875850520366,0.01000223278330659,0.005643549814941902,-0.8308100902467497,0.004358682968364688,-95.561600547646,-0.20765664760230723,-0.07283723035029543,-0.06344691869196777,-0.20888406397469036,-0.009390311658327669,-21.432637506663752,-19.127236563690115,0.04135258727866662,0.038019717339055646,1.0137106756936243,0.0033328699396109746,77.39484821812921,-0.33008548328177534,-1.7334746433774895,-1.7257022902049253,-0.4906656821535121,-0.007772353172564195,12.889197352127667,15.432954844629002,0.003020973713321347,0.002109748404895732,0.10126612454750594,0.0009112253084256152,5.529798705676781,0.8746727052446676,1.6606976018725934,1.6522647834424502,0.2735098866807608,0.008432818430143207,5.583310869293655,1.1879519471128743,0.8362736982786056,0.824683067724682,-0.5257116742901552,0.01159063055392362,-12.280276772887191,0.0004568653677437147
15,0.26666666666666666,approach,sequence,0.0,0.035189678258841145,-0.4694965394949948,0.2928704289163916,0.03539637113612549,-0.47374650338187135,0.2908362282021745,-0.00020669287728434377,0.00424996388687654,0.002034200714217116,0.00471623658556229,0.0007590608727984889,-0.009998569774689978,-0.004304584496347589,0.010912241686938282,-0.07377217640011813,0.12572737113455967,-0.11818491605525838,0.01946561230086984,0.011636328623042314,0.01302748720101702,0.009971747353177296,1.5107057697279112,0.0015121433936138263,0.0025174931833052624,0.005114668050495222,0.011636328623042314,0.04,0.04,0.03999852686956917,0.0399985083170094,-0.0028680901161569406,0.0026989638143362048,1.473130430827696e-06,1.4916829906008733e-06,2.5552957049351903,0.04,1,1,1.9796085448293952e-07,1.4236139372786489e-12,5,5,0.0006292230995170783,0.0314538236096183,0.01774410052574149,2.4354327680241475e-06,1.5045302567841164e-06,22,0,22,0,0.0,0.14489714206596063,0.01071717945977082,0.006630872995534322,-0.8107518386712902,0.004086306464236499,-94.996579574793,-0.19772480661437436,-0.07710814164975902,-0.06781368972807254,-0.20606090478244093,-0.009294451921686472,-21.359333182863452,-19.03785329656324,0.0440768290946669,0.04082583176991048,0.9909528377104819,0.0032509973247564147,75.55711839634787,-0.3317702587625354,-1.7434463907306668,-1.7357980570389178,-0.4864265998085064,-0.007648333691748999,12.968563984712091,15.44802311538266,0.0034100789517438135,0.0024734089073880105,0.10697117307142354,0.000936670044355803,5.779604663513428,0.874503521933556,1.6664108597780862,1.6580157517536336,0.27236319475267057,0.008395108024452647,5.5709211038479225,1.18795676845731,0.8396372727412424,0.8280009441182001,-0.5274745273552885,0.011636328623042314,-12.280002843347347,0.0004527586593324577
16,0.2833333333333333,approach,sequence,0.0,0.033980966495145114,-0.4675942175221125,0.290890482709094,0.03416542116200512,-0.4716512509514696,0.2888670415592221,-0.00018445466686000528,0.004057033429357093,0.0020234411498719074,0.00453738447324473,0.0007887297772347841,-0.009980988171608028,-0.004716237103580262,0.011067299217083784,-0.07385699844722218,0.1257151458241057,-0.11815119857714218,0.019314004055873774,0.011680064659897904,0.012913096080426291,0.009878080823987112,1.4840232995643565,0.001587766468167905,0.0027019481702566586,0.005436568118093118,0.011680064659897904,0.04,0.04,0.03999900406362355,0.0399990085337569,-0.003023650965653295,0.0028280579969235347,9.959363764522333e-07,9.914662430984822e-07,2.567031605637279,0.04,1,1,1.94725578715828e-07,4.511848473514282e-12,5,5,0.0006240602193952567,0.031195857957369153,0.01752641451573611,2.393839522827474e-06,1.4848034716078198e-06,22,0,22,0,0.0,0.14490164535202668,0.011510315246056557,0.007701622067365497,-0.7898497599901619,0.0038086931786910604,-94.580225350891,-0.18832217529325346,-0.08131276843172712,-0.07211508893756034,-0.2031717122977078,-0.009197679494166777,-21.2878567704646,-18.94997453381307,0.04673082927423195,0.04355887983059473,0.9687565518137302,0.0031719494436372245,73.74178327230774,-0.3341956152260134,-1.7533244715546539,-1.7457969063284593,-0.4822868476186992,-0.007527565226194577,13.048656167648005,15.462670750282243,0.003814087970471358,0.0028539171659297544,0.11223907076032369,0.0009601708045416037,6.00889544480019,0.874275220498381,1.672097940011832,1.6637399521605254,0.27118297296332555,0.008357987851306703,5.5561253695750565,1.1879299537966475,0.8430008715640156,0.8313208069041177,-0.5291087711586351,0.011680064659897904,-12.27980853728991,0.0004500605960313514
17,0.3,approach,sequence,0.0,0.03277194701241958,-0.46569316035194364,0.2889095098354434,0.032932486059724764,-0.46954983509996606,0.2868974258499546,-0.00016053904730518181,0.003856674748022426,0.0020120839854887995,0.004352952430523907,0.0008181990992183301,-0.009961939568785405,-0.005140121901074986,0.011239686067502277,-0.07397610613682132,0.12608495109021178,-0.11817694255605082,0.019164890240974026,0.011722081952109775,0.012801585061882132,0.009786277790504005,1.457417295434391,0.0016603156753433035,0.0028892762713816967,0.005755982955442685,0.011722081952109775,0.04,0.04,0.039999372479107474,0.03999939718684041,-0.0031696723155269367,0.002951705207120977,6.275208925266007e-07,6.028131595905983e-07,2.5786969021473767,0.04,1,1,1.9158195745009423e-07,4.926743928019165e-10,5,5,0.0006190023545190991,0.03094313647384436,0.017313843016698582,2.3534277003982616e-06,1.4656785135327739e-06,22,0,22,0,0.0,0.14490406588902835,0.01238700855595168,0.008866030984627887,-0.7684444622084854,0.0035209775713237936,-94.30838166026842,-0.17943330723286588,-0.08545183687359906,-0.07635068253364045,-0.2002496526418757,-0.009101154339958603,-21.219644165477007,-18.863378478378102,0.04931045185483601,0.04622154430353797,0.9468858525272748,0.003088907551298044,71.95271733666655,-0.33732582655106447,-1.7631107493451579,-1.7557013102511092,-0.478234897168031,-0.007409439094048675,13.13019153953428,15.476866991743684,0.0042313110165203335,0.0032500680923217076,0.11706900921801289,0.0009812429241986258,6.218683915712221,0.8739961294494758,1.6777599372126597,1.6694380657852752,0.26998610971853265,0.008321871427384497,5.539365584046209,1.1878854283612128,0.8463657086101265,0.8346436266580167,-0.5306215894621693,0.011722081952109775,-12.279693835174385,0.0004483061657470956
18,0.31666666666666665,approach,sequence,0.0,0.03156261273127618,-0.46379343177684956,0.28692745485703774,0.0316972707569687,-0.4674410184744961,0.28492684882677266,-0.00013465802569252033,0.003647586697646532,0.002000606030265084,0.004162384651742839,0.0008475772406454783,-0.009942589940139768,-0.0055787770521937684,0.011432245417883248,-0.07411291816536367,0.12652899752819802,-0.11823462139091578,0.019018767879035135,0.01176255454724029,0.012693286954182786,0.00969640102654723,1.4310498752859568,0.001729688752872351,0.0030798136950130842,0.00607296242009327,0.01176255454724029,0.04,0.04,0.03999913516928325,0.039999178102988114,-0.003299242971106005,0.0030778417144416634,8.64830716748588e-07,8.218970118864521e-07,2.5902933101406895,0.04,1,1,1.8851040200045416e-07,5.041256168268898e-11,5,5,0.0006140201983655817,0.030694193731779208,0.017105840120595905,2.3141778584314165e-06,1.4471304428808795e-06,22,0,22,0,0.0,0.14490536747343682,0.013351635820775247,0.0101276687453191,-0.7469825856188379,0.0032239670754561477,-94.13738502893663,-0.17100939316574587,-0.08952607965186629,-0.0805206325607896,-0.1973260797688978,-0.009005447091076688,-21.15366599641567,-18.777854992697392,0.05181241730799651,0.04881372765919209,0.925213794004313,0.0029986896488044187,70.19537878903736,-0.3410857877444643,-1.772807150371705,-1.765513484636346,-0.4742559475032898,-0.007293665735359056,13.212475014981464,15.490589236263112,0.00466010294541731,0.0036604499954029424,0.12146900770550864,0.0009996529500143673,6.410123502857804,0.8736750405604123,1.6833979902165777,1.675110964474097,0.26878671300751217,0.008287025742480747,5.520944018422142,1.1878387047166923,0.8497329100497812,0.837970355502541,-0.5320177584449078,0.01176255454724029,-12.279660808424069,0.0004469514947611844
19,0.3333333333333333,approach,sequence,0.0,0.030352953964333133,-0.46189510303323156,0.2849442570230556,0.030459760364120552,-0.46532714597801067,0.2829551111192269,-0.0001068063997874194,0.0034320429447791123,0.001989145903828704,0.003968252488005538,0.0008769711001210057,-0.009923334906017137,-0.006028144559854562,0.0116438902778208,-0.07425062357088903,0.1268323497891255,-0.11830426245274639,0.018876939149091557,0.01180152223634201,0.012588484074873056,0.009608400964006725,1.4051203420295342,0.0017958262943391099,0.0032738785329767643,0.00638757807257813,0.01180152223634201,0.04,0.04,0.039999468749854585,0.0399995319805156,-0.0034305719858251722,0.003188855990478124,5.312501454163288e-07,4.6801948440367003e-07,2.601822523596588,0.04,1,1,1.8550923822658432e-07,4.009243311318596e-12,5,5,0.0006091128601935512,0.03044898559471352,0.01690206669936578,2.2760172845431335e-06,1.4291734357569278e-06,22,0,22,0,0.0,0.14490606773899198,0.014406513023624806,0.011485429261087955,-0.7258228264467272,0.002921083762536851,-94.019833072615,-0.16299368433348663,-0.09353619180999206,-0.08462546555676657,-0.194417448056034,-0.00891072625322549,-21.088751586659157,-18.693287355200265,0.054235356505360044,0.051333384738226066,0.9037533293678714,0.0029019717671339776,68.47517478953884,-0.34538838350581524,-1.7824155513357118,-1.7752353821023832,-0.47034197615540607,-0.007180169233328648,13.294661030144198,15.50382962583901,0.005098978990457655,0.004083471733930131,0.12545975819882074,0.0010155072565275237,6.584434654281772,0.8733178295249584,1.6890132213200548,1.6807596398858282,0.26759473439744125,0.008253581434226609,5.501102474730487,1.187799502293971,0.8531034782365828,0.8413019560002408,-0.5332987046708716,0.01180152223634201,-12.279713835225493,0.0004455822319480336
20,0.35,approach,sequence,0.0,0.029142967102512258,-0.4599982309576167,0.28295986590158445,0.029220125122353082,-0.463212132373301,0.2809821619802588,-7.715801984082421e-05,0.0032139014156842838,0.0019777039213256242,0.003774444127310663,0.0009064552561132558,-0.009904220332417418,-0.006481263626095297,0.011871058070591344,-0.0743781145060482,0.1269008162825802,-0.11837694833808365,0.01874084188453088,0.01183902811529769,0.012487244929170725,0.009522149696854276,1.3797979974346235,0.0018587336964609542,0.0034717295008199534,0.006699925437320311,0.01183902811529769,0.04,0.04,0.039998714773892344,0.03999879393007018,-0.0035393860982042133,0.0033108832734987754,1.2852261076570781e-06,1.206069929822473e-06,2.613286143880393,0.04,1,1,1.825872111396355e-07,2.7602296931455154e-12,5,5,0.0006042966343438221,0.030208327227551828,0.016702318930182924,2.2389160268484227e-06,1.4117830071681956e-06,22,0,22,0,0.0,0.14490644492572738,0.015552450386049127,0.012935440745627684,-0.7051879949341056,0.0026170096404214433,-93.9164281392919,-0.15533893871107463,-0.09748279778337299,-0.08866582521104788,-0.19152796659622476,-0.00881697257232511,-21.02427258783257,-18.60963613303064,0.056579307598578155,0.05377823422565264,0.8825846595314741,0.002801073372925518,66.7963629854423,-0.350155596256733,-1.791937701032566,-1.784868780198433,-0.4664898615241269,-0.007068920834133019,13.376195330416522,15.516589948447567,0.005546602491361161,0.004517527308591922,0.12906844737050283,0.001029075182769239,6.742807192158286,0.8729275371742784,1.6946066928594163,1.6863851252780215,0.2664161914929645,0.008221567581394806,5.480048431314572,1.1877717752809476,0.8564783386094672,0.8446393104941695,-0.534476117516577,0.01183902811529769,-12.279831557446187,0.0004441367188639869
21,0.36666666666666664,approach,sequence,0.0,0.027932658204518103,-0.4581028475483174,0.2809742490948493,0.027978624304056943,-0.46110000311670285,0.2790079846302793,-4.596609953884043e-05,0.0029971555683854234,0.001966264464569989,0.0035848640599109574,0.0009360673474376337,-0.009885212278129572,-0.006930837994894225,0.012109094069090883,-0.07449004909776832,0.12672775539588899,-0.11845064099877067,0.018611545518042418,0.011875052141160247,0.012389520176858201,0.009437486420192709,1.355196869795895,0.0019184814307928034,0.0036735477353048015,0.007010117862621018,0.011875052141160247,0.04,0.04,0.039999136367803875,0.03999923545110514,-0.003660098213411363,0.0034094637927395794,8.636321961255633e-07,7.645488948604395e-07,2.624685645938256,0.04,1,1,1.797558436756709e-07,8.915539742974725e-13,5,5,0.000599592934707658,0.02997328980587248,0.016506407254325728,2.2028437628355684e-06,1.394937734440538e-06,22,0,22,0,0.0,0.14490664862092337,0.016788917732186538,0.014472628102689409,-0.6851853605973763,0.002316289629497129,-93.80029473399455,-0.14801256810077124,-0.10136644101482144,-0.09264232144716122,-0.18865557873572625,-0.008724119567660213,-20.960113035541212,-18.526911416825016,0.058845567253557676,0.05614684425175589,0.861810234865088,0.002698723001801788,65.1618990562846,-0.3553262629398442,-1.8013751874527588,-1.7944153356185066,-0.46269798101408754,-0.006959851834252184,13.456831971653628,15.52887688156499,0.006001796085323749,0.004961115587983728,0.13232462777783258,0.0010406804973400212,6.886368283221818,0.8725051797901262,1.7001793875157332,1.6919884386058937,0.26525438951346947,0.008190948909839513,5.457972714202697,1.1877552811257752,0.8598583481168356,0.8479832959756753,-0.535548923361897,0.011875052141160247,-12.28002276053985,0.00044248470782635996
22,0.3833333333333333,approach,sequence,0.0,0.026722043012369613,-0.456208958282013,0.2789873937142249,0.026735571817793874,-0.45899518498042785,0.27703257424821703,-1.352880542426077e-05,0.0027862266984148287,0.00195481946600784,0.003403610052314892,0.0009655351952607825,-0.009866222480598926,-0.007366505638420727,0.01235070886916404,-0.07458314917578417,0.12628908817649998,-0.11852462292373689,0.018488614279848818,0.011908863187593433,0.012295177647618397,0.009354250361367722,1.3332224130051955,0.0019752082649980517,0.003879392883124202,0.0073182614339518315,0.011908863187593433,0.04,0.04,0.039999457210487,0.03999959270806235,-0.003740305168813839,0.003479245826381298,5.427895130027949e-07,4.072919376485462e-07,2.636022374553509,0.04,1,1,1.770239924726757e-07,5.369596414746456e-12,5,5,0.0005950193147666313,0.029744751452685507,0.016314102195619906,2.167765538337985e-06,1.3786126814342744e-06,22,0,22,0,0.0,0.14490675921907495,0.018114315965820228,0.016069343016899808,-0.6691098493234215,0.0020449729489204205,-90.5962240932835,-0.1373299422176456,-0.10518758755091909,-0.09655585342024195,-0.18588169263056764,-0.008631734130677138,-20.844944746079193,-18.44862848818945,0.061036429541129866,0.05845780510440244,0.8424964266492116,0.0025786244367274266,61.532654583318845,-0.3567662252204712,-1.8107294378141265,-1.8038768474036575,-0.45891409828094615,-0.006852590410469039,13.57064401433945,15.54223527703172,0.006463537117915481,0.0054149163798863234,0.1348232639126861,0.0010486207380291579,6.865118659138197,0.8720997745477155,1.705732206627702,1.6975705779708632,0.2636861820337565,0.008161628656838893,5.412739201249224,1.1879043143318286,0.8632442999476749,0.8513354367600815,-0.5358282512309944,0.011908863187593433,-12.27167588333441,0.0004435907778759414
23,0.39999999999999997,approach,sequence,0.0,0.02551114811925684,-0.45431653801953953,0.2769993094333119,0.025492705553496624,-0.4569197259499033,0.2750563345416032,1.844256576021691e-05,0.002603187930363793,0.001942974891708693,0.003248396367260922,0.0009951240638333635,-0.009846657821253563,-0.007743645708979439,0.01256626400396991,-0.07457197585783497,0.12452754183147174,-0.11857438239682883,0.018373088097919234,0.011938037960206427,0.012204695663610538,0.009272268118477589,1.313446948649351,0.0020293482044524006,0.0040888306165237,0.007624479568917152,0.011938037960206427,0.04,0.04,0.03999859237765902,0.03999876773940179,-0.003800473013632103,0.00356140511213585,1.407622340979242e-06,1.2322605982134638e-06,2.6472972969454003,0.04,1,1,1.743822826855096e-07,1.311277685146546e-12,5,5,0.0005905629224485899,0.029522069985198757,0.01612485852894663,2.133597439474249e-06,1.3627393318844773e-06,22,0,22,0,0.0,0.1449068198950835,0.019505182316801928,0.017655569180984834,-0.657841434898242,0.0018496131358170936,-87.05818169927757,-0.12716525380188654,-0.10894676857231661,-0.10040802797612963,-0.18323708888305348,-0.008538740596186978,-20.715917967728274,-18.368902126525064,0.06317473156112997,0.060738059899036766,0.8226793017337077,0.002436671662093208,58.30409114968674,-0.35883850243461046,-1.8200017059326041,-1.8132548747953434,-0.4551821922914534,-0.0067468311372607115,13.678656594562199,15.55479188002385,0.0069331256473797055,0.005880235012660085,0.13682485416973647,0.0010528906347196205,6.856200483780309,0.8717241033844285,1.7112659495808797,1.7031322678609466,0.2621639043101116,0.008133681719933117,5.373434256130167,1.188202270745733,0.8666352480503308,0.8546972100901243,-0.5360678012928692,0.011938037960206427,-12.272943580716628,0.00043894307188160897
24,0.41666666666666663,approach,sequence,0.0,0.02430005248375591,-0.45242540777107826,0.2750101202153074,0.02425404719146018,-0.4549078817950903,0.2730795993128542,4.6005292295731026e-05,0.002482474024012027,0.0019305209024532144,0.0031451080619944454,0.001023382831451114,-0.009824823161736225,-0.00784216395901369,0.012612454088683566,-0.07431950172218676,0.12071064928878217,-0.11860411372494162,0.018169400198579305,0.011800868092667782,0.012117576002629847,0.00919092968601265,0.8862907048750237,0.002081766672152308,0.004299038184668426,0.00792730290556014,0.011938037960206427,0.04,0.04,0.0399991513701632,0.03999911379059607,-0.002565459311323368,0.00240583107634027,8.48629836798509e-07,8.862094039302493e-07,2.6585104614462884,0.04,1,1,1.7185173240948868e-07,1.0226340545653521e-12,5,5,0.0005862622832990174,0.029307172495654225,0.01593776082327336,2.1002961638459405e-06,1.3472157299435384e-06,22,0,22,0,0.0,0.1449068538095579,0.02091166259928623,0.01923332625232889,-0.23598158063912889,0.0016783363469573404,-39.369179076655826,-0.06631675739790012,-0.11264448595416071,-0.10419759466951581,-0.173528144764191,-0.008446891284644903,-19.87348316254264,-18.32768773625272,0.06530816929234608,0.06292558906766382,0.42446099619691746,0.002382580224682254,23.81382905516827,-0.3029327624115502,-1.8291926356186168,-1.8225484080057976,-0.44390182893661545,-0.006644227612819131,14.410338714980753,15.578525695326903,0.007415054458061963,0.006347741992897763,0.07555629210278028,0.0010673124651642005,3.798032812491492,0.8710415382322735,1.7167810489414639,1.708673137646243,0.2459133708660947,0.008107911295220926,4.607649760077493,1.189207444019078,0.8700280383734447,0.8582271702807769,-0.5062744116078007,0.011800868092667782,-12.303171580391563,0.0005006976147250795
25,0.4333333333333333,approach,sequence,0.0,0.023088904285607878,-0.4505351432707991,0.27302014027543187,0.023020092681498495,-0.4529648528707829,0.27110127364697106,6.881160410938253e-05,0.0024297095999838425,0.0019188666284608025,0.0030968165775412462,0.0010529740188401152,-0.009805557743433379,-0.007634097085702722,0.012471453614478684,-0.07403727059770097,0.11658173545844197,-0.11869953995298776,0.017865263259095737,0.011485676940779954,0.012029890008641186,0.00910935323000106,0.7621089054253943,0.0021333802817779953,0.0045068957449097375,0.008225057293211735,0.011938037960206427,0.04,0.04,0.039999561337459105,0.03999943914573962,-0.001993527090320805,0.0018682919745324458,4.3866254089558465e-07,5.608542603813271e-07,2.6696620958526442,0.04,1,1,1.6858596508831004e-07,2.323934883240888e-12,5,5,0.0005806650757335248,0.029027433390538752,0.015753580842820192,2.067300119024831e-06,1.3306773463484094e-06,22,0,22,0,0.0,0.1449068733682863,0.022373594267942314,0.020747244035253454,-0.039747461329814104,0.0016263502326888599,-16.472539188058306,-0.03783525052820329,-0.11628028265426667,-0.10792391047324669,-0.16722084607194426,-0.008356372181019978,-19.433035217928875,-18.248480627282245,0.06740052646400514,0.06506271832903367,0.23754305634896014,0.002337808134971475,7.525264167558561,-0.2832509812683036,-1.8383019888486178,-1.8317596872555513,-0.43682548825809997,-0.0065423015930665684,14.794154935660117,15.586773547799936,0.00790465565020106,0.0068240800690822665,0.04579961709519925,0.0010805755811187931,2.281062358282151,0.8700250443238289,1.722277455021178,1.7141942511498995,0.2379038979508046,0.008083203871278366,4.228394213886986,1.1892870409020873,0.8734270864532016,0.8619414095124216,-0.4953061995248236,0.011485676940779954,-12.31442815001401,0.0005179193721295671
26,0.44999999999999996,approach,sequence,0.0,0.021877864687627365,-0.44864526040231706,0.2710297318159589,0.021789796421875667,-0.4510675852320557,0.26912102130523174,8.80682657516986e-05,0.0024223248297386424,0.001908710510727163,0.0030852211288595185,0.001082333927746989,-0.009789060073029598,-0.007444556570766658,0.012345791444046003,-0.07381777557736974,0.11383605832363308,-0.11881514050435915,0.01763748432779238,0.011272067379380246,0.011943859462436425,0.00902729218636189,0.7458591833416599,0.002184800633925654,0.004712658935643837,0.008519015365341609,0.011938037960206427,0.04,0.04,0.03999890002031596,0.03999875891847874,-0.0019188085550600606,0.0018184946764385956,1.099979684039687e-06,1.2410815212610116e-06,2.6807511474445307,0.04,1,1,1.644764274971714e-07,1.405761312851413e-12,5,5,0.0005735441177401637,0.028671493603238056,0.015569593779428459,2.0343141123117476e-06,1.3128206857227534e-06,22,0,22,0,0.0,0.14490688520480483,0.0238424536787588,0.022220186821367165,-0.0009017201948915143,0.001622266857391634,-11.79628425128277,-0.032081279801535675,-0.11985426703530291,-0.11158644580961773,-0.1635358706821541,-0.008267821225685187,-19.302656998447333,-18.168527950979758,0.06949856290573905,0.06716933389404331,0.19890166494669895,0.0023292290116957437,4.355922111966208,-0.2897023786240253,-1.8473292810349797,-1.840889511777292,-0.4326872214689301,-0.006439769257687633,14.918415049978648,15.595704778631896,0.008406790508876735,0.0073105036173752354,0.040279872617834805,0.0010962868915014995,1.997858347828183,0.8692495219123337,1.7277549092727673,1.7196966866398482,0.23573540473851523,0.00805822263291911,4.144134981400384,1.1892927377662863,0.8768295063141903,0.8655574389348101,-0.4955677291244813,0.011272067379380246,-12.301583233737347,0.0005181731558288726
27,0.4666666666666666,approach,sequence,0.0,0.020667037272026234,-0.4467554251038693,0.26903914910871723,0.02056156337883831,-0.4491909386177467,0.2671393638697348,0.00010547389318792469,0.002435513513877441,0.0018997852389824321,0.003090636629026355,0.0011110286145657653,-0.00977407748514286,-0.007312015328995665,0.012256938583489276,-0.07369398258224143,0.11259879685853846,-0.11889944612981651,0.01747532932379026,0.011152314126182894,0.011858791663098668,0.008945263771580558,0.738536127129818,0.0022363112444094267,0.004916941245368659,0.008810270854071447,0.011938037960206427,0.04,0.04,0.03999933727269377,0.03999918974111959,-0.0019347714357347465,0.0018204836756381903,6.627273062276284e-07,8.102588804140276e-07,2.6917774185172343,0.04,1,1,1.6116010007868723e-07,2.7958780487395113e-12,5,5,0.0005677325075749798,0.028381025546434124,0.015385033029268191,2.0027292030439026e-06,1.2962114005297723e-06,22,0,22,0,0.0,0.14490689285905406,0.025307866841405183,0.023678160424993048,0.017200479366624083,0.0016297064164121355,-9.626202006564554,-0.02961643717135932,-0.12336652634257608,-0.115185651323817,-0.16026551064459632,-0.008180875018759082,-19.213527758541204,-18.09051025602454,0.07161283786310063,0.06926621689315607,0.181719996589443,0.002346620969944563,2.916208125239109,-0.30005566301822684,-1.8562745448065603,-1.849937742431091,-0.4289321466252406,-0.006336802375469297,15.007360541017079,15.604646678720801,0.008922512366144383,0.00780810187595466,0.03816405165029556,0.0011144104901897227,1.8775170160788672,0.8684660754815132,1.7332134663404628,1.725180611277247,0.23432292700208823,0.008032855063215827,4.10009620546316,1.1892525737824222,0.8802350637863473,0.8690827496601644,-0.49607060803589165,0.011152314126182894,-12.292920932850393,0.0005181668712376138
28,0.4833333333333333,approach,sequence,0.0,0.019456467195373958,-0.4448654802388787,0.2670485139093877,0.019334095654917775,-0.44731859102153737,0.2651571183049681,0.00012237154045618287,0.002453110782658696,0.0018913956044196434,0.0031000168771037244,0.0011394070742146941,-0.009759424917950371,-0.007225946662940869,0.01219667694027957,-0.07364806343523204,0.11234085577256137,-0.11893473388600362,0.017349628804897873,0.011086815015602713,0.011774900006824589,0.008863849222522369,0.7335032987243936,0.002287978192361155,0.005120219194373318,0.009099431334153078,0.011938037960206427,0.04,0.04,0.03999915962076448,0.03999900906437981,-0.001967598326964121,0.0018560305660021011,8.403792355199391e-07,9.909356201917574e-07,2.7027414374211793,0.04,1,1,1.58505173036282e-07,3.094038022115936e-12,5,5,0.0005630367182276517,0.028146351604854295,0.015200651597991666,1.972380051662882e-06,1.2807597897686994e-06,22,0,22,0,0.0,0.14490689821637684,0.026773327066149356,0.025133872331131075,0.02856752421444053,0.0016394547350182809,-8.319099983392874,-0.02831168306993438,-0.126817267152218,-0.11872267079117144,-0.1571784446764081,-0.008094596361046563,-19.133480205646606,-18.013815906372198,0.07374061435972733,0.0713708840869874,0.17199335196524634,0.0023697302727399283,2.01762074297028,-0.3119029255939588,-1.8651383940290827,-1.858904354035357,-0.42529497392648935,-0.006234039993725737,15.082463841085882,15.613287660249208,0.009451327616434912,0.008318376084764498,0.037199646941320635,0.0011329515316704144,1.8082862810806652,0.8676572487470603,1.7386535412790851,1.7306460825674164,0.23316057093460033,0.008007458711668747,4.069424197794888,1.1891857933674315,0.8836444284777684,0.8725576134621656,-0.4962869419906668,0.011086815015602713,-12.28797743648579,0.0005185068980559076
29,0.49999999999999994,approach,sequence,0.0,0.018246164834912888,-0.44297538909828615,0.2650578548033336,0.018106808514724456,-0.4454433658081707,0.2631749685860681,0.00013935632018843153,0.002467976709884523,0.0018828862172655114,0.003107344482299528,0.0011676852029250308,-0.009744034986152922,-0.0071749479845788205,0.012156873986593507,-0.07363722841159916,0.11251351280200161,-0.11892898313399902,0.01724341356552737,0.0110511837609093,0.011692608617240322,0.008783416988899173,0.7294138195452976,0.0023397672670661474,0.005322833760816543,0.009386821560245201,0.011938037960206427,0.04,0.04,0.03999953607839525,0.03999938967850475,-0.002021814467515358,0.0018949770272992969,4.639216047500061e-07,6.103214952521419e-07,2.7136440382433604,0.04,1,1,1.5622386008244948e-07,2.168010537088954e-12,5,5,0.0005589702319130232,0.02794314284408339,0.01501745698262491,1.9429802907179444e-06,1.2660976637486229e-06,22,0,22,0,0.0,0.14490690227921993,0.02823857205871157,0.026592360811135734,0.036457880992538896,0.0016462112475758364,-7.449939909212404,-0.027562369070242974,-0.1302068572783288,-0.12219853869211068,-0.15419395035342015,-0.00800831858621813,-19.055199917162327,-17.938113253771135,0.07588245688768701,0.07349170205828158,0.1658867345810159,0.002390754829405428,1.3817198950094962,-0.32456909244580356,-1.8739218110179818,-1.8677895715856514,-0.42172754865521833,-0.006132239432330433,15.148588777933583,15.621555938263185,0.009993147613566403,0.008842023654739581,0.036797484751545595,0.0011511239588268222,1.763900646312372,0.8668285480871699,1.7440757819536832,1.736093406658943,0.23213507072552977,0.007982375294740107,4.04543174603441,1.18911262541104,0.88705773565801,0.8760065518971007,-0.49631269254586063,0.0110511837609093,-12.285172056770307,0.0005187597121677108
30,0.5166666666666666,approach,sequence,0.0,0.017036126003500504,-0.4410851715813645,0.2630671554877169,0.01687959451855787,-0.44356391182531185,0.2611932312453804,0.0001565314849426326,0.0024787402439473416,0.001873924242336511,0.003111309590632044,0.0011959394393663814,-0.009727434689745252,-0.007148022961459466,0.012130436473740054,-0.07363283976999507,0.11276723897152952,-0.11890424044126102,0.017148031594108114,0.011031944642389435,0.01161204526963732,0.008704112424851695,0.7258055395584062,0.0023916224269100146,0.005525007702045544,0.00967262208681367,0.011938037960206427,0.04,0.04,0.039999198531917995,0.03999905624588837,-0.002072813122594641,0.0019517406205327467,8.014680820053743e-07,9.43754111630557e-07,2.724486200463366,0.04,1,1,1.5415348213662267e-07,1.469529039516087e-12,5,5,0.0005552539637618495,0.02775744324949101,0.014836351857182128,1.9143817722863744e-06,1.2520117438594252e-06,22,0,22,0,0.0,0.14490690558040867,0.029703225224621304,0.028054142568109893,0.04220777595829764,0.0016490826565114108,-6.830750644700032,-0.027101854393576784,-0.1335357082012927,-0.1256138821142114,-0.15126142034816922,-0.007921826087081307,-18.97779433053404,-17.863248717968016,0.0780389284352201,0.07563084244709556,0.1617348115944437,0.0024080859881245448,0.9023594856712975,-0.33775045117649494,-1.8826259234428335,-1.8765940128295087,-0.41822491084193103,-0.0060319106133248646,15.208442078137523,15.629427935548762,0.01054789486622804,0.009379146147385853,0.036704483844414174,0.0011687487188421861,1.7340343356005263,0.8659839165096019,1.749480938229698,1.74152307510844,0.23120268016488477,0.007957863121258013,4.025379279997651,1.1890434294114183,0.8904750059806686,0.8794430613382792,-0.49624595095238355,0.011031944642389435,-12.283516706155297,0.0005187955560272389
31,0.5333333333333333,approach,sequence,0.0,0.015826344132517295,-0.4391948604762299,0.2610763888639146,0.015652544333452006,-0.44168137630834786,0.2592118919748895,0.00017379979906528842,0.0024865158321179526,0.0018644968890251246,0.0031127666155227147,0.0012241746556702743,-0.009709732665684732,-0.007135794039315278,0.012111856529788403,-0.0736230111063519,0.11295213101783941,-0.11888035622945603,0.017059298643787316,0.011021792827316745,0.011533193209529318,0.008625932317324336,0.7224862156145062,0.00244350187050206,0.0057268719775420175,0.00995694373087679,0.011938037960206427,0.04,0.04,0.03999931530465754,0.039999180742102916,-0.0021351691810913083,0.002005583263380706,6.846953424580193e-07,8.192578970847575e-07,2.735268916864405,0.04,1,1,1.5221324951989595e-07,1.202798372120843e-12,5,5,0.0005517485831787807,0.02758228542207839,0.0146578429306492,1.8865172180371568e-06,1.238389010062294e-06,22,0,22,0,0.0,0.14490690840386608,0.03116715652203338,0.029517969147319648,0.046534535760752185,0.0016491873747137321,-6.36458607171582,-0.02680355319943402,-0.13680421590627084,-0.1289689667768832,-0.14835214770231211,-0.007835249129387656,-18.902259995229656,-17.789175488164588,0.08021033192923345,0.07778764553518244,0.15874079493418586,0.0024226863940510074,0.5285225878456572,-0.3512950768696278,-1.8912518557601579,-1.8853186248508795,-0.4147889641344299,-0.005933230909278331,15.264053405566301,15.636893029132915,0.011115462480856741,0.009929557787341862,0.036796888076206166,0.001185904693514879,1.713668277743075,0.8651239381980118,1.7548697697349152,1.7469356789335497,0.23034193431939598,0.007934090801365423,4.007947117329877,1.188980457203603,0.8938962584825486,0.8828744656552319,-0.49613764882789235,0.011021792827316745,-12.282481089870771,0.0005185250198435788
32,0.55,approach,sequence,0.0,0.01461681522197123,-0.43730448087363927,0.2590855335771942,0.014425774098870225,-0.43979732748641337,0.25723076827274605,0.00019104112310100452,0.0024928466127741022,0.0018547653044481693,0.0031130267072609127,0.0012523770582502126,-0.009691335497839335,-0.007131494909055556,0.012097464679245712,-0.07360621407490689,0.11304292931606952,-0.11886742212860568,0.016975230899068213,0.011016825501937721,0.011455976700434967,0.008548806486434968,0.7193731674649151,0.0024953856489564087,0.00592849638886278,0.010239864245861261,0.011938037960206427,0.04,0.04,0.03999909332917715,0.039998965548188735,-0.002195409921925976,0.0020673650871227745,9.066708228505638e-07,1.0344518112659351e-06,2.7459931307922005,0.04,1,1,1.5036487556796845e-07,1.157806752793449e-12,5,5,0.0005483883214802599,0.02741438057301635,0.014482037395713299,1.8593515109175283e-06,1.2251671834269281e-06,22,0,22,0,0.0,0.14490691090210245,0.032630455244664645,0.030982478227141202,0.04988797747511438,0.0016479770175234429,-5.9982005955183695,-0.026606824718853103,-0.1400127376291917,-0.13226388158766836,-0.14545464552738127,-0.007748856041523339,-18.829517799994278,-17.71589411000623,0.08239677362791581,0.07996079896607,0.15650689216514532,0.002435974661845808,0.23002728149094764,-0.3651237485709078,-1.8998006622465928,-1.893964517577433,-0.4114176308945328,-0.005836144669159937,15.316839008972238,15.64394393614634,0.011695716240879629,0.010492994118022627,0.03700980305590804,0.0012027221228570022,1.6999102616202748,0.8642473245502004,1.760243002126652,1.7523318502461311,0.22954025520234525,0.007911151880520828,3.992408280280415,1.1889219344881923,0.8973215478071049,0.8863047223051672,-0.49601871061462366,0.011016825501937721,-12.281771349212022,0.0005180706791703127
33,0.5666666666666668,approach,sequence,0.0,0.013407538525660139,-0.435414045459024,0.2570945780741939,0.013199359521721184,-0.43791288632784614,0.25524966085983203,0.00020817900393895437,0.0024988408688221275,0.001844917214361863,0.003113079458225485,0.0012805381578819201,-0.00967266529475971,-0.0071309382884336085,0.012085136025369718,-0.07358487462894245,0.11306646951403376,-0.1188664447748411,0.016894802251484996,0.011014917258065138,0.01138031228032656,0.008472651950939492,0.7164213594311575,0.0025472703065935,0.006129915322618942,0.010521444283386012,0.011938037960206427,0.04,0.04,0.039999479816362773,0.039999361386045366,-0.002266718188971389,0.00212157078918371,5.201836372273339e-07,6.386139546343816e-07,2.756659722286486,0.04,1,1,1.4859009713184768e-07,1.3803071883174604e-12,5,5,0.0005451423614650538,0.027252187750812385,0.014446243224601862,1.832858908181693e-06,1.2123089295695758e-06,22,0,22,0,0.0,0.14490691315865933,0.0340933353552468,0.03244682979979724,0.05256625960171825,0.0016465055554495608,-5.701167591582788,-0.026481130136588916,-0.143161589437551,-0.13549870235559197,-0.14256769117561685,-0.00766288708195903,-18.75983069609765,-17.643416382684705,0.08459826065635527,0.0821493032617689,0.15482055064668976,0.002448957394586365,-0.013593070861588785,-0.3791920824540723,-1.9082733141975323,-1.9025328109198578,-0.4081045047170653,-0.005740503277674502,15.367611565561674,15.65057503625956,0.012288504635388303,0.011069209871600988,0.037306741768642376,0.0012192947637873156,1.6908913524955267,0.8633523762152728,1.7656013172959448,1.757712231669759,0.22878948766281995,0.007889085626185732,3.978314781962581,1.1888651741250413,0.9007509655297691,0.8897360482717039,-0.49589887448371284,0.011014917258065138,-12.281244547888718,0.0005174637334238209
34,0.5833333333333335,approach,sequence,0.0,0.012198515571314544,-0.433523557294772,0.2551035185580848,0.011973331974855117,-0.43602859880587375,0.25326843420774586,0.00022518359645942732,0.0025050415111017577,0.0018350843503389114,0.0031134346303264763,0.0013086589190511042,-0.0096540068394401,-0.007131976751297883,0.012073836532081331,-0.07356165281196404,0.11305725131834365,-0.11887359912516993,0.01681742848562788,0.011014938322046808,0.011306130537248322,0.008397397542700524,0.7136077097513341,0.002599160883765608,0.006331145931486964,0.010801734758146476,0.011938037960206427,0.04,0.04,0.03999906321756328,0.03999895118763568,-0.0023273734228942797,0.00218943540791929,9.367824367195743e-07,1.0488123643181968e-06,2.767269517265159,0.04,1,1,1.4687891843212807e-07,2.5653315393193874e-12,5,5,0.0005419943144206,0.027094887547902246,0.014448579846545684,1.8070141341229545e-06,1.1997882325080214e-06,22,0,22,0,0.0,0.1449069152210034,0.03555605381305527,0.03391074221190967,0.05476768402500721,0.001645311601145602,-5.455151948912771,-0.026408843899333387,-0.14625105213939316,-0.13867357233024136,-0.13969377952058812,-0.007577479809151799,-18.692921083236456,-17.57175003213932,0.08681477255630309,0.08435266910701603,0.1535530121956966,0.002462103449287059,-0.21693064066352008,-0.3934717844697429,-1.9166707117402328,-1.9110245489234174,-0.40484161567472465,-0.005646162816815403,15.416728562233402,15.656782670602311,0.012893667834087182,0.011658002191976108,0.03766503118594426,0.0012356656421110748,1.685323206313047,0.8624377932418144,1.7709453598566902,1.76307746264208,0.22808384269186388,0.007867897214610231,3.965355771988925,1.188808135472291,0.9041846281182496,0.8931696897962028,-0.4957882178496342,0.011014938322046808,-12.280811319897566,0.0005168532207075541
35,0.6000000000000002,approach,sequence,0.0,0.010989749008172931,-0.4316330143187356,0.2531123554177092,0.010747696263417044,-0.43414460853768083,0.25128703016119147,0.00024205274475588671,0.0025115942189452567,0.0018253252565177402,0.00311424265977535,0.0013367454566722459,-0.009635483506195067,-0.007133658641264817,0.012063105587873433,-0.07353814268628436,0.11303941609157486,-0.11888424279326348,0.016742683299835553,0.011016215926522022,0.011233379355041134,0.008322988935897335,0.7109089105144766,0.0026510649280951973,0.006532197691284854,0.011080779479810402,0.011938037960206427,0.04,0.04,0.03999945409012387,0.039999351931749035,-0.0024010745766641964,0.0022456829687002773,5.459098761304015e-07,6.480682509663049e-07,2.7778233020664476,0.04,1,1,1.4522502086954361e-07,2.2669670562494007e-12,5,5,0.0005389341719905013,0.026941979624191998,0.014452974843415123,1.7817919427975163e-06,1.1875854640583492e-06,22,0,22,0,0.0,0.14490691711783066,0.03701886540780363,0.03537430221458122,0.05662237661113466,0.001644563193222412,-5.2483076313180845,-0.026377333666403942,-0.1492813780852171,-0.14178870812657557,-0.1368350869331388,-0.007492669958641535,-18.628289363150657,-17.500896124795684,0.08904629542896961,0.08657078383212748,0.15261497661822337,0.002475511596842131,-0.3903549944168958,-0.4079414549487387,-1.9249937006761302,-1.9194406776458375,-0.4016219356016097,-0.005553023030292703,15.464293119966896,15.662565287906451,0.013511042632889268,0.012259201289445713,0.038069330843488236,0.001251841343443555,1.6823108198123684,0.8615028179088079,1.7762757475266293,1.7684281739944483,0.2274191329405934,0.007847573532181018,3.953312396169167,1.1887497228288346,0.9076226646396179,0.8966064487130959,-0.49568265884222795,0.011016215926522022,-12.280443415988884,0.0005161766729654318
36,0.6166666666666669,approach,sequence,0.0,0.009781241834549826,-0.42974241283572157,0.2511210903816764,0.009522447645143674,-0.4322608675081564,0.24930544521117023,0.0002587941894061519,0.0025184546724348333,0.0018156451705061694,0.0031154703906090342,0.001364804495577809,-0.00961710486948681,-0.007135707269446914,0.012052788707062521,-0.0735149170964022,0.11302446177146597,-0.11889509700127421,0.01667028326354782,0.011018399657701572,0.011162019386642753,0.008249384827594408,0.7083132773061435,0.002702989434605348,0.006733077503069229,0.011358617534202866,0.011938037960206427,0.04,0.04,0.0399989815416148,0.03999888584857442,-0.0024625542434417295,0.0023159261595183042,1.018458385203258e-06,1.1141514255838536e-06,2.788321835024968,0.04,1,1,1.4362340951915977e-07,1.831416264221659e-12,5,5,0.0005359541202736663,0.026793073376712297,0.014458760361383716,1.757167334676755e-06,1.1756839581806885e-06,22,0,22,0,0.0,0.14490691886795018,0.038482008424621156,0.03683776561225718,0.05821611521923778,0.0016442428123639788,-5.072343272104689,-0.026376572174019328,-0.15225279599135746,-0.1448443682391074,-0.1339919753139895,-0.007408427752250063,-18.565468666410425,-17.430851391778724,0.09129282903700542,0.0888037177586153,0.15193823181667132,0.0024891112783901187,-0.5411254500395444,-0.4225832456810453,-1.9332430855037246,-1.9277820600964914,-0.3984403265173315,-0.005461025407233144,15.510318633329007,15.667923144854608,0.014140463797250225,0.012872652243967315,0.03850826969002695,0.0012678115532829097,1.6812201382469674,0.8605471631405848,1.7815930794189672,1.7737649853153892,0.22679202701772813,0.007828094103577987,3.9420186375805315,1.1886895918596592,0.9110652090744796,0.9000468094167781,-0.49558783565808107,0.011018399657701572,-12.280105762688663,0.0005155477190032735
37,0.6333333333333336,approach,sequence,0.0,0.00857299704537406,-0.4278517493678401,0.2491297249755673,0.008297581426036814,-0.4303772797194431,0.24732370020518418,0.00027541561933724576,0.0025255303516030225,0.0018060247703831078,0.0031170310860625635,0.0013928407857470258,-0.009598828997624586,-0.007138036162812727,0.012042802159036792,-0.07349197314641166,0.11301526732279688,-0.11890470035916312,0.016599990475055823,0.01102123617210371,0.011092018593566613,0.00817655128798056,0.705803957557196,0.002754939952706391,0.006933790872386509,0.011635284042120463,0.011938037960206427,0.04,0.04,0.039999388154914495,0.03999930283111322,-0.0025376690958754927,0.002373017798121036,6.11845085506102e-07,6.971688867804526e-07,2.7987658529432453,0.04,1,1,1.420704059637492e-07,1.3783576113448072e-12,5,5,0.0005330486018436765,0.02664789103360061,0.014465587007557734,1.7331171028786105e-06,1.1640699004571647e-06,22,0,22,0,0.0,0.1449069204851492,0.039945700146987,0.038301425271342955,0.059606405488800564,0.0016442748756440445,-4.921132910764356,-0.026398065387335395,-0.15516551362254943,-0.1478408160132655,-0.13116321250026652,-0.00732469760928392,-18.504137478108873,-17.361611245152773,0.09355438759845289,0.09105158762301438,0.1514696385032385,0.0025027999754385077,-0.6742750492671803,-0.4373812363494417,-1.9414196367917052,-1.9360495011036511,-0.3952934907440941,-0.005370135688054001,15.554818173574859,15.67285768635264,0.014781764398818264,0.013498202585957339,0.038973377397868506,0.0012835618128609252,1.681611822650364,0.8595707671600665,1.7868979407597032,1.779088503768221,0.226199977605776,0.007809436991482288,3.9313597404179745,1.1886277545339832,0.9145123964243358,0.9034911602522321,-0.49549688736369635,0.01102123617210371,-12.279800535894537,0.0005148638717300449
38,0.6500000000000004,approach,sequence,0.0,0.007365017549383458,-0.42596102123446733,0.24713826002158518,0.0070730958985222156,-0.4284937686028853,0.24534181833785781,0.0002919216508612422,0.0025327473684179647,0.0017964416837273622,0.003118850782820954,0.0014208570848600888,-0.009580608082164408,-0.007140660415511457,0.01203311751996478,-0.07346913165087587,0.1130106669934694,-0.1189129120395821,0.01653166350736376,0.011024609273122321,0.011023347915463716,0.0081044575112037,0.7033751821680996,0.00280692079908674,0.007134342831052589,0.011910811767243191,0.011938037960206427,0.04,0.04,0.03999888038543038,0.03999880167528829,-0.0025994853012581355,0.002444595405553513,1.1196145696182325e-06,1.198324711709775e-06,2.8091560739068995,0.04,1,1,1.405628390899382e-07,2.6119839919580703e-12,5,5,0.0005302128611981007,0.026506194912834027,0.014473202686960507,1.7096204537714938e-06,1.152731121569951e-06,22,0,22,0,0.0,0.14490692198038208,0.041410148650671705,0.03976555421621779,0.060834038598927755,0.0016445944344539165,-4.789968537204089,-0.026435129484503262,-0.15801971884155422,-0.15077829464137665,-0.12834672770194303,-0.007241424200177565,-18.444124125546523,-17.29317156248396,0.09583098773528731,0.09331448829571712,0.1511675429642417,0.002516499439570191,-0.7933408856973188,-0.45232140848111174,-1.9495240943029088,-1.9442437674375586,-0.39217926094113686,-0.005280326865350293,15.597833625676685,15.67737101133794,0.015434773957786906,0.014135694297434737,0.03945799283973454,0.0012990796603521686,1.6831647622593806,0.8585736990966992,1.7921909048041194,1.784399323180553,0.22564079852541116,0.007791581623566302,3.9212458508445707,1.1885643662131367,0.9179643629391926,0.9069397536660703,-0.495415060539793,0.011024609273122321,-12.2795070579607,0.0005142316562493764
39,0.6666666666666671,approach,sequence,0.0,0.00615730620923004,-0.42407022645230597,0.24514669570913722,0.005848992075082169,-0.4266102923728645,0.2433598150271008,0.00030831413414787127,0.002540065920558554,0.001786880682036418,0.0031208869024578994,0.0014488546070502745,-0.009562409502914117,-0.007143530063986783,0.012023679842247798,-0.07344622940640282,0.11300857380124651,-0.1189201986454208,0.016465170760027896,0.011028398319489208,0.01095597974294551,0.008033073577372152,0.701014615042795,0.0028589355807943717,0.007334737495090052,0.012185231279910324,0.011938037960206427,0.04,0.04,0.039999307042832354,0.0399992390318609,-0.002675525207550238,0.0025019487878655323,6.92957167647279e-07,7.609681390990941e-07,2.8194931976914286,0.04,1,1,1.390984861286002e-07,1.7217418472575707e-12,5,5,0.0005274438095733046,0.02636783067437057,0.014481492232335746,1.6866579509328726e-06,1.1416570249861126e-06,22,0,22,0,0.0,0.14490692336311572,0.042875549847733015,0.04123039010264715,0.061929008062365884,0.0016451597450858613,-4.675214848225039,-0.026482358151948632,-0.1608155801716122,-0.15365701635691364,-0.12554036474104377,-0.007158563814698565,-18.385358254272433,-17.225529407676383,0.09812265129143385,0.09559247924924943,0.1510003313022037,0.00253017204218442,-0.9008767535208335,-0.4673910265454043,-1.957557167880281,-1.952365598019263,-0.3890960620272234,-0.005191569861018097,15.639428531347221,15.681465423850767,0.016099318750327083,0.014784962812946858,0.03995716976207407,0.0013143559373802252,1.685651300054726,0.8575560138832856,1.797472533184982,1.7896980240382516,0.22511279928777617,0.00777450914673028,3.911617501064484,1.1884995452720988,0.921421245898406,0.9103928475789168,-0.49533494922895693,0.011028398319489208,-12.279236661142477,0.0005135388530761766
40,0.6833333333333338,approach,sequence,0.0,0.004949865905588656,-0.42217936342553075,0.24315503185016984,0.0046252723599657436,-0.4247268365361895,0.24137769660884179,0.00032459354562291206,0.0025474731106587267,0.0017773352413280596,0.0031231235613494346,0.001476834107780232,-0.009544218976607788,-0.007146624608671875,0.012014466203399037,-0.0734231829069855,0.11300735020050245,-0.11892710509554094,0.01640044537023587,0.011032564226903463,0.010889886761762398,0.007962369741186581,0.6987202696166577,0.0029109876401501957,0.007534978598480036,0.01245857203608092,0.011938037960206427,0.04,0.04,0.03999895075035641,0.03999888989284078,-0.002740067238749548,0.0025716206013656215,1.0492496435934862e-06,1.1101071592176104e-06,2.8297779058592227,0.04,1,1,1.3767529309816945e-07,3.713010901844244e-12,5,5,0.0005247385884384137,0.026232655481884963,0.014490338143139159,1.664211962266983e-06,1.1308378378274239e-06,22,0,22,0,0.0,0.14490692464165617,0.044342100579977825,0.042696145470965945,0.06291488399994333,0.0016459551090118804,-4.574024376718768,-0.026535815447117594,-0.16355324691165402,-0.1564771622888993,-0.12274223312426748,-0.007076084622754719,-18.327819610640518,-17.15868292520889,0.10042939368405575,0.09788558910481256,0.15094363782753434,0.002543804579243192,-0.9988074518393546,-0.4825787867751471,-1.9655195376214676,-1.9604157069567167,-0.3860424236520186,-0.005103830664750841,15.67967317703733,15.685143255656541,0.016775219704685193,0.01544583599715445,0.04046690982677805,0.0013293837075307423,1.6888916621447372,0.8565177835894817,1.8027433757789388,1.794985173482118,0.22461444819845755,0.007758202296820782,3.902423038638517,1.188433385566154,0.924883185722056,0.9138506214951525,-0.4952616691830247,0.011032564226903463,-12.278973763319755,0.0005128884402700994
41,0.7000000000000005,approach,sequence,0.0,0.0037426995887941458,-0.4202884306675723,0.2411632681120532,0.003401939685122899,-0.42284340079309823,0.2393954631736561,0.0003407599036712467,0.0025549701255259127,0.001767804938397094,0.003125559782583128,0.0015047960388353064,-0.009526034823845064,-0.007149874167073482,0.012005434235736249,-0.07339996049057067,0.11300614458547464,-0.11893400611114158,0.01633741001875125,0.011037042390496632,0.010825042862110681,0.007892316493222973,0.6964834977565921,0.0029630803031932477,0.00773506916907564,0.012730862203060108,0.011938037960206427,0.04,0.04,0.03999935941918572,0.039999309141574374,-0.0028161590914656956,0.002629566262443181,6.405808142817548e-07,6.90858425626828e-07,2.840010861369705,0.04,1,1,1.3629182909646554e-07,3.623559088921179e-12,5,5,0.0005220954493126052,0.026100582001146774,0.014499703465542524,1.642266386517676e-06,1.1202650743546904e-06,22,0,22,0,0.0,0.14490692582380507,0.04580998605128847,0.04416301432715042,0.06381007881509526,0.0016469717241380522,-4.484184993677474,-0.026592343044434183,-0.16623284967262397,-0.15923888653637608,-0.1199508430433506,-0.006993963136247894,-18.271501000897274,-17.09263107744502,0.10275123593215374,0.10019383287278848,0.1509792146473343,0.0025574030593652625,-1.0886319136978386,-0.49787415092189036,-1.9734118541146906,-1.96839478233093,-0.3830168987656183,-0.0050170717837605405,15.71863125458458,15.688406726810893,0.017462294143502706,0.016118136517671744,0.04098426287498349,0.001344157625830962,1.692753070554815,0.8554590322499742,1.8080039705565483,1.8002613259330793,0.22414454712818485,0.007742644623468964,3.893628007953339,1.188365916253085,0.928350324960695,0.9173132825701984,-0.4951890305083454,0.011037042390496632,-12.278730060932958,0.0005121881274565872
42,0.7166666666666672,approach,sequence,0.0,0.0025358103060510104,-0.41839742663797375,0.2391714041560457,0.0021789969805875546,-0.4209599894871071,0.23741311201428428,0.00035681332546345576,0.002562562849133365,0.0017582921417614306,0.0031282000193029215,0.0015327410151471498,-0.009507861107024096,-0.007153255399247427,0.01199657370488917,-0.07337656227212067,0.11300467835946737,-0.11894106956230888,0.016276028586312826,0.011041825670202288,0.010761422506910189,0.007822884890299253,0.6943041684207195,0.0030152169701816297,0.007935012064157126,0.013002129346165322,0.011938037960206427,0.04,0.04,0.03999895618290368,0.03999891306427858,-0.002880213506448131,0.0027001562099579065,1.043817096320343e-06,1.0869357214213227e-06,2.8501927091245207,0.04,1,1,1.349466217828108e-07,2.6883329036780887e-12,5,5,0.00051951250568742,0.02597151599257035,0.014509527775297237,1.6208055124711755e-06,1.109930233031466e-06,22,0,22,0,0.0,0.1449069269166577,0.04727939389490109,0.045631184207857965,0.06462974215020181,0.0016482096870431215,-4.4039413566826795,-0.026649675969152704,-0.1688545005843636,-0.1619423210481265,-0.11716499514548841,-0.006912179536237101,-18.216392824700506,-17.027373318696178,0.10508819185547986,0.10251721837100729,0.15109259109842432,0.0025709734844725773,-1.1715534023600185,-0.5132674454467383,-1.9812347390049898,-1.9763034846148777,-0.3800179665936159,-0.004931254390112105,15.756355477700708,15.691257977896338,0.01816035342173898,0.016801681279522165,0.041506710800920055,0.0013586721422168165,1.6971226726203739,0.8543798018570217,1.813254843718253,1.805527023405267,0.2237019536549394,0.007727820312986022,3.8851982798546487,1.1882971677409886,0.9318228103454956,0.9207809846752933,-0.4951218451040238,0.011041825670202288,-12.278492813838284,0.0005115333969541377
43,0.733333333333334,approach,sequence,0.0,0.0013292012142135119,-0.41650634967696554,0.23717943969174443,0.0009564471848276491,-0.41907660630684906,0.23543064004445505,0.00037275402938586276,0.002570256629883527,0.001748799647289384,0.0031310485330385885,0.0015606695124595672,-0.009489702589299907,-0.007156709629695684,0.011987853739692736,-0.07335298774559433,0.11300299081548282,-0.11894831818975382,0.016216240226599624,0.011046868623995953,0.010699001800270105,0.007754046793875036,0.6921750082884237,0.0030674011123989395,0.008134809626485337,0.013272400016608649,0.011938037960206427,0.04,0.04,0.03999936122320267,0.039999328872961225,-0.0029563861799571977,0.002758275234596071,6.387767973320413e-07,6.711270387760315e-07,2.860324076185408,0.04,1,1,1.3363859439300225e-07,3.9720095643204e-12,5,5,0.0005169885770362866,0.025845398512427578,0.01451980687240817,1.5998150722321941e-06,1.0998259206996205e-06,22,0,22,0,0.0,0.14490692792691118,0.048750502947909356,0.047100837409799506,0.0653858640975284,0.00164966553810985,-4.331907105562578,-0.02670585434795775,-0.17141829396625805,-0.16458757880670496,-0.11438370162202677,-0.00683071515955308,-18.162478549788716,-16.96290944880404,0.1074402784713303,0.1048557542268605,0.1512725835261425,0.0025845242444697963,-1.248548470924618,-0.5287492865323364,-1.9889887857988648,-1.984142445403825,-0.3770441546669436,-0.004846340395039839,15.792886935428214,15.693699030025638,0.018869204455553255,0.017496282905985462,0.0420323789350141,0.0013729215495677932,1.7019163700966118,0.8532800982010369,1.8184965099619383,1.8107827961782754,0.22328576843871167,0.007713713783662923,3.8771116233915563,1.1882271434353306,0.9353007915477015,0.9242539229237056,-0.4950538913261422,0.011046868623995953,-12.278275048994828,0.0005108279359708843
44,0.7500000000000007,approach,sequence,0.0,0.00012287558236150835,-0.41461519800168556,0.23518737447920177,-0.00026570677503379245,-0.41719325297580945,0.23344804489107945,0.0003885823573953008,0.002578054974123889,0.0017393295881223125,0.003134107706222227,0.00158858207058911,-0.009471562630270604,-0.007160228305952365,0.011979272141808002,-0.0733292375916865,0.113001199862377,-0.11895570920253562,0.016158017285530693,0.011052174501978707,0.010637757910623108,0.007685775026420094,0.6900967723573483,0.0031196362408359764,0.008334464162182137,0.013541700304700827,0.011938037960206427,0.04,0.04,0.03999912080198309,0.03999909629184047,-0.0030229456440560003,0.0028264335529982914,8.79198016910665e-07,9.037081595275609e-07,2.8704055726220483,0.04,1,1,1.3236649727117015e-07,5.282362737343743e-12,5,5,0.0005145221030649124,0.025722151622791952,0.014530499378457296,1.5792812230961616e-06,1.0899446786494824e-06,22,0,22,0,0.0,0.1449069288608166,0.05022349166191213,0.048572154478064546,0.0660884314765463,0.0016513371838475857,-4.2669507391776165,-0.026759447475773253,-0.17392430669924464,-0.167174755770037,-0.1116060522678696,-0.006749550929207648,-18.10973853323901,-16.899239480982978,0.10980750814020504,0.10720944924966823,0.15150986388092919,0.0025980588905368113,-1.3204187236561893,-0.5443107753798957,-1.996674560825285,-1.991912267615346,-0.374094003253773,-0.004762293209938928,15.828258760650897,15.69573183628892,0.019588648149782135,0.0182017486309726,0.04255953806833404,0.001386899518809534,1.7070584084302567,0.8521599558120143,1.823729472915277,1.816029163035461,0.22289507997731323,0.00770030987981607,3.869343113462037,1.1881558712545566,0.9387844223021629,0.9277322478001842,-0.4949897680334886,0.011052174501978707,-12.278065318638482,0.0005101595332311533
45,0.7666666666666674,approach,sequence,0.0,-0.0010831632057985091,-0.4127239697221324,0.23319520831241952,-0.0014874618204470584,-0.41530992927191995,0.23146532507414774,0.00040429861464854927,0.0025859595497875754,0.0017298832382717788,0.0031373779149152484,0.0016164789430849484,-0.009453442736718758,-0.007163783632939273,0.011970813660291697,-0.07330530272479596,0.11299942223336967,-0.11896318901590264,0.01610131636552729,0.011057722325338304,0.010577669716807443,0.007618043370200667,0.6880647634958715,0.0031719258727512306,0.008533977723186998,0.013810055577459615,0.011938037960206427,0.04,0.04,0.039999132587547684,0.03999911750632487,-0.0030932684514568955,0.002890636270167911,8.674124523169735e-07,8.824936751292145e-07,2.880437791936736,0.04,1,1,1.3112940173648759e-07,4.16009701781869e-12,5,5,0.0005121121004945842,0.025601726234615384,0.014541611350609274,1.559191115404972e-06,1.0802798462328822e-06,22,0,22,0,0.0,0.1449069297241239,0.05169852835870725,0.05004531087487405,0.06674535712937384,0.0016532174838332012,-4.208153076598194,-0.026809137508760125,-0.17637259890658938,-0.1697039313895694,-0.10883119496201717,-0.006668667517019972,-18.05815246985469,-16.836363644767243,0.11218989742927823,0.1095783150403465,0.1517969841032698,0.0026115823889317352,-1.387823763060453,-0.5599430880550128,-2.0042926041954856,-1.9996135260478982,-0.37116616118228885,-0.00467907814758739,15.862498480101749,15.69735824007932,0.02031848074840052,0.018917881196854114,0.043086857476431165,0.0014005995515464047,1.7124916896344473,0.851019384721085,1.8289542255401285,1.8212666318211614,0.22252913920686973,0.007687593718967101,3.8618761394754983,1.1880833664854462,0.9422738591507934,0.9312161368254551,-0.49492586151508744,0.011057722325338304,-12.277871468271314,0.0005094746021247955
46,0.7833333333333341,approach,sequence,0.0,-0.0022889116507005397,-0.41083266286014114,0.23120294100068617,-0.0027088147518835016,-0.41342663385854816,0.2294824797470035,0.00041990310118296187,0.0025939709984070247,0.0017204612536826647,0.0031408583349751915,0.0016443603657524876,-0.009435343177956454,-0.007167360719781749,0.011962469710964263,-0.07328117588618659,0.1129977248023073,-0.11897071962865435,0.016046102830451967,0.011063503183487589,0.010518717068547524,0.00755082654217043,0.6860775151508429,0.0032242735116674837,0.008733352218369735,0.014077490624633815,0.011938037960206427,0.04,0.04,0.03999913276668672,0.039999126847702085,-0.003163410191823655,0.0029550329398328233,8.672333132800358e-07,8.731522979157913e-07,2.8904213119446593,0.04,1,1,1.2992628121684142e-07,3.809421470488905e-12,5,5,0.0005097573564291965,0.025484061772656448,0.014553125819314228,1.5395325022780983e-06,1.070824813977112e-06,22,0,22,0,0.0,0.1449069305222608,0.05317578030132739,0.05152047884044706,0.06736328243966738,0.0016553014608803318,-4.154747234575069,-0.026853873338052406,-0.17876321427130923,-0.17217516888572432,-0.10605828904074427,-0.006588045385584912,-18.007702545619622,-16.774282362443106,0.11458745860160562,0.11196236287709253,0.15212756477153322,0.0026250957245130824,-1.4513092991372218,-0.5756376067054434,-2.011843430737656,-2.0072467686295563,-0.368259340769419,-0.004596662108099725,15.895630525258639,15.698580005179576,0.021058492106052745,0.019644477718064622,0.04361311780708331,0.0014140143879881224,1.718166082183501,0.8498584049479544,1.8341712505739953,1.8264956996727801,0.22218722192201862,0.007675550901215189,3.854694120600925,1.1880096584097712,0.9457692626447693,0.9347057594612818,-0.49486278971320485,0.011063503183487589,-12.277691452178942,0.0005087892607703575
47,0.8000000000000008,approach,sequence,0.0,-0.0034943661328001763,-0.4089412753596461,0.22921057235644463,-0.0039297621944450615,-0.4115433649195318,0.22749950838618543,0.00043539606164488516,0.002602089559885723,0.0017110639702591912,0.003144547617461262,0.0016722263643904971,-0.009417263616589082,-0.007170948517290379,0.011954233462490358,-0.07325684655369359,0.11299613634098149,-0.1189782816490842,0.01599234513334683,0.011069510932841586,0.010460881328684926,0.007484100113468006,0.6841331109515982,0.0032766826386251714,0.008932589442744575,0.014344029710189596,0.011938037960206427,0.04,0.04,0.03999912391227162,0.03999912716435888,-0.003233387534500865,0.003019543390752532,8.760877283839341e-07,8.728356411177862e-07,2.9003566951834494,0.04,1,1,1.2875621759623254e-07,3.0928330632332257e-12,5,5,0.0005074568308659024,0.02536910630330452,0.014565036935973663,1.520293818605978e-06,1.0615733826112873e-06,22,0,22,0,0.0,0.14490693126021495,0.05465540636803101,0.05299782483214603,0.06794761537103679,0.0016575815358849805,-4.106091219442618,-0.026892741332571985,-0.1810961806298748,-0.17458851530655187,-0.10328651703337503,-0.00650766532332292,-17.95837386732842,-16.712996248870585,0.1170002062473143,0.11436160470069366,0.15249631725045712,0.002638601546620642,-1.5113294358805547,-0.5913857883588631,-2.019327530851124,-2.0148125174780884,-0.3653723319299968,-0.0045150133730356146,15.9276774106238,15.699398787853529,0.021808466666144787,0.020381329918880836,0.04413727438216844,0.001427136747263951,1.7240402996198583,0.8486770311060272,1.839381020883183,1.831716853421065,0.22186866633509827,0.0076641674621178435,3.84778329644314,1.1879347746337956,0.9492707963972554,0.9382012854644138,-0.4948002209565977,0.011069510932841586,-12.277525718579682,0.0005081033745032992
48,0.8166666666666675,approach,sequence,0.0,-0.004699522907555482,-0.40704980508935423,0.2272181021898264,-0.005150300621096247,-0.4096601204970629,0.2255164105601775,0.00045077771354076496,0.0026103154077086743,0.0017016916296489215,0.0031484442947531314,0.0017000768479780526,-0.009399203598613688,-0.007174537417349662,0.01194609880798639,-0.07323230559907115,0.11299466534813396,-0.11898586956047674,0.01594001388102379,0.011075740967985692,0.010404144881254782,0.007417840452778712,0.6822298393336348,0.0033291567102043903,0.009131691089544348,0.014609696608206659,0.011938037960206427,0.04,0.04,0.03999910804812726,0.03999912051081763,-0.0033032192572468627,0.0030841227279993478,8.91951872743213e-07,8.794891823704631e-07,2.910244489562999,0.04,1,1,1.2761835192996613e-07,4.4577707822207366e-12,5,5,0.0005052095642997392,0.0252568119144451,0.014577342172879426,1.5014641392947338e-06,1.0525196919218122e-06,22,0,22,0,0.0,0.14490693194268656,0.05613756088763366,0.05447750993862534,0.06850288835552984,0.0016600509490083196,-4.061641740579574,-0.026924957477748916,-0.1833715103273101,-0.17694400172315086,-0.10051508472402003,-0.006427508604159249,-17.910154312944655,-16.652506110840783,0.11942815362447329,0.11677605204476724,0.15289873217427033,0.002652101579706051,-1.5682648763253155,-0.6071791508721882,-2.0267453713039028,-2.022311269952717,-0.3625039855672679,-0.004434101351185937,15.958660208408219,15.699816140688831,0.022568182577959832,0.02112822368957323,0.0446583973486009,0.001439958888386602,1.7300793626724627,0.8474752741363302,1.844583999812003,1.836930569904729,0.22157285752097358,0.007653429907274134,3.8411316889964837,1.1878587436370234,0.9527786276372933,0.9417028866693076,-0.4947378702006363,0.011075740967985692,-12.277374668282846,0.00050741680473897
49,0.8333333333333343,approach,sequence,0.0,-0.005904378099228727,-0.40515824984036625,0.22522553030727765,-0.006370426355750228,-0.4077768986318732,0.22353318582384615,0.00046604825652150125,0.0026186487915069723,0.0016923444834315016,0.003152546957821357,0.001727911611536901,-0.009381162775540415,-0.007178118827127848,0.011938060288624633,-0.07320754407923885,0.11299331191138129,-0.1189934841798801,0.01588908172669936,0.011082189915309515,0.010348491278871217,0.007352024668761281,0.6803661648629981,0.003381699159501413,0.009330658761021425,0.014874514636984982,0.011938037960206427,0.04,0.04,0.03999908675293866,0.039999108469221056,-0.003372919651387296,0.0031487380514354877,9.132470613418264e-07,8.915307789444937e-07,2.9200852288390267,0.04,1,1,1.2651187387792168e-07,5.980176495733962e-12,5,5,0.0005030146595834393,0.025147133807729396,0.014590040398958726,1.4830333724678226e-06,1.0436581908230732e-06,22,0,22,0,0.0,0.14490693257391984,0.057622392182258474,0.05595968946769098,0.06903289397746369,0.0016627027145674905,-4.020936101438224,-0.02694984400548963,-0.1855892006523646,-0.1792416435475432,-0.09774322591976489,-0.0063475571048213775,-17.863033912150286,-16.592812936003867,0.12187131388911757,0.11920571604393193,0.15333097370386173,0.0026655978451856355,-1.6224368198998604,-0.6230092462171668,-2.034097395972664,-2.029743499538045,-0.35965320337713264,-0.004353896434619031,15.9885987001162,15.699833507144731,0.023337411696386826,0.021884938884610083,0.04517565362321922,0.0014524728117767428,1.736253427389407,0.8462531405714067,1.8497806414834628,1.8421373162922814,0.22129922099038365,0.007643325191181383,3.8347287849128406,1.1877815934710991,0.9562929270682663,0.9452107371529568,-0.4946754901333147,0.011082189915309515,-12.277238651749258,0.0005067294071330365
50,0.850000000000001,approach,sequence,0.0,-0.007108927693972183,-0.40326660732131636,0.2232328565121155,-0.007590135575508998,-0.40589369735485853,0.22154983369492148,0.0004812078815368149,0.0026270900335421676,0.0016830228171940131,0.003156854268537813,0.001755730341041472,-0.00936314095274502,-0.007181684977438941,0.01193011301902026,-0.07318255318552618,0.1129920766208814,-0.11900112773548022,0.015839523230908245,0.011088855610727033,0.010293905064431026,0.0072866305717260715,0.6785406939574485,0.0034343133973103765,0.009529493978005095,0.015138506690833452,0.011938037960206427,0.04,0.04,0.03999906125753765,0.03999909227101051,-0.003442499408523616,0.0032133635813406283,9.38742462347486e-07,9.077289894882101e-07,2.92987943315038,0.04,1,1,1.254360192979401e-07,4.448812368618472e-12,5,5,0.0005008712794679689,0.02504003017623703,0.014603132038831679,1.4649920655491078e-06,1.0349837357643348e-06,22,0,22,0,0.0,0.14490693315795009,0.05911004439431229,0.05744451362573445,0.06954086339549989,0.0016655307685778387,-3.983577376468247,-0.026966812162924847,-0.18774923418320613,-0.1814814409069836,-0.09497020267884788,-0.006267793276222539,-17.81700421205062,-16.533917888774422,0.12432969829532362,0.12165060670209449,0.15378972411911687,0.002679091593229127,-1.67411852429899,-0.6388676393082727,-2.04138402654439,-2.0371096566182754,-0.3568189306846179,-0.0042743699261147405,16.01751142442663,15.69945222252845,0.024115919002775245,0.0226512489623359,0.045688280862019585,0.001464670040439344,1.7425367171390391,0.8450106324830616,1.8549713910898633,1.8473375503936709,0.22104721755769388,0.00763384069619244,3.828565277096004,1.1877033514520292,0.9598138691917885,0.9487250135810614,-0.4946128610741226,0.011088855610727033,-12.27711798479595,0.0005060410327481953
51,0.8666666666666677,approach,sequence,0.0,-0.00831316753241525,-0.4013748751529837,0.22124008060529557,-0.008809424301578496,-0.40401051467549626,0.2195663536714368,0.0004962567691632457,0.002635639522512556,0.0016737269338587824,0.003161364946141916,0.0017835326193901694,-0.009345138052638324,-0.007185229479074728,0.011922252995732898,-0.07315732356416992,0.11299096076173631,-0.11900880140908177,0.01579131512475026,0.01109573721526147,0.01024037201936257,0.007221636632322781,0.6767522813014123,0.0034870028130794084,0.009728198194600643,0.015401695276245957,0.011938037960206427,0.04,0.04,0.03999898825927468,0.03999902840485335,-0.003511313389193216,0.0032786585141762747,1.0117407253235067e-06,9.715951466496286e-07,2.93962760934027,0.04,1,1,1.2439006722183724e-07,5.6905173464773e-12,5,5,0.0004987786427300937,0.024935462012512264,0.014616618074711929,1.4473310747650928e-06,1.0264913448858965e-06,22,0,22,0,0.0,0.14490693369844845,0.06060065245937513,0.05893212560144048,0.07002945906255133,0.0016685268579346504,-3.9492238878098647,-0.026975347790269735,-0.189851579272666,-0.18366337910622182,-0.0921953064470028,-0.006188200166444169,-17.772057861917688,-16.475822286558056,0.12680332071494746,0.12411073456429068,0.1542721892927287,0.0026925861506567755,-1.7235428356301554,-0.6547458964734529,-2.048605663176713,-2.044410169180092,-0.35400015097290194,-0.0041954939966206695,16.04541573610277,15.698673509667742,0.024903463249431268,0.02342692105449116,0.04619558839499376,0.0014765421949401066,1.7489068360566193,0.8437477471900674,1.8601566851364169,1.8525317209440044,0.22081633680990084,0.007624964192412431,3.8226327520542327,1.187624044169902,0.9633416316557734,0.9522458944405119,-0.49454994521474105,0.01109573721526147,-12.277012568834152,0.0005053541491901268
52,0.8833333333333344,approach,sequence,0.0,-0.009517093301687398,-0.3994830508627158,0.21924720238602705,-0.010028288395988126,-0.402127348455821,0.2175827452531619,0.0005111950943007277,0.0026442975931051937,0.0016644571328651436,0.0031660776573679784,0.001811317932278054,-0.009327154052345011,-0.007188735106966153,0.011914469682117441,-0.07313184566457777,0.11298997318051618,-0.11901650509649309,0.015744427425129322,0.011102823314389387,0.010187878557773401,0.0071570219602090646,0.6749985280698269,0.003539770774035541,0.009926772689302601,0.015664102399998114,0.011938037960206427,0.04,0.04,0.03999937519163572,0.0399994260162927,-0.003586930207296041,0.003336826174081748,6.248083642829139e-07,5.739837072998855e-07,2.949330251638813,0.04,1,1,1.2337334127799743e-07,4.979457614467981e-12,5,5,0.00049673602904963,0.024833393351278925,0.014630502094240105,1.4300419675374565e-06,1.0181760510274169e-06,22,0,22,0,0.0,0.14490693419884285,0.06209435046325582,0.0604226644193638,0.0705010296741283,0.0016716860438920206,-3.9175800206164695,-0.026974967573462287,-0.19189619020862086,-0.1857874289495754,-0.08941785433122915,-0.00610876125904547,-17.728188190068067,-16.4185276194085,0.12929218980833862,0.12658610815576218,0.15477586961493114,0.0027060816525764364,-1.7709108382619547,-0.6706355357731658,-2.055762685136922,-2.0516454434548965,-0.3511958906152247,-0.00411724168202543,16.072327741640947,15.697498487750455,0.025699795183083553,0.024211715302530225,0.04669695196573183,0.001488079880553328,1.7553453840857003,0.8424644710251484,1.865336951722274,1.857720267907402,0.22060611882847703,0.007616683814871905,3.8169248273943595,1.187543694779003,0.966876396534752,0.9557735732203626,-0.49448485988004376,0.011102823314389387,-12.276926326003377,0.0005046384707393069
53,0.9000000000000011,approach,sequence,0.0,-0.010720700527240981,-0.39759113187992473,0.21725422165126063,-0.011246723560553555,-0.40024419655178706,0.21559900795938958,0.0005260230333125736,0.0026530646718623263,0.0016552136918710492,0.003170991130611485,0.001839085635519921,-0.00930918900127741,-0.007192218686447252,0.011906773092234563,-0.07310610987392577,0.11298911424203584,-0.11902423762633951,0.015698855878395205,0.011110137308076418,0.010136412430956218,0.007092766260377914,0.6732814302697108,0.003592620626212399,0.010125218907506511,0.015925749997971368,0.011938037960206427,0.04,0.04,0.0399989837553475,0.039999042411245064,-0.0036508288087947955,0.003406937207344397,1.0162446524991653e-06,9.575887549365114e-07,2.9589878418362896,0.04,1,1,1.2238513326048375e-07,5.7022636828812025e-12,5,5,0.0004947426265453256,0.02473378364466883,0.014644775903352003,1.4131168961660758e-06,1.0100335513252832e-06,22,0,22,0,0.0,0.1449069346622502,0.06359126278642072,0.06191626232748995,0.0709575714272479,0.0016750004589307643,-3.888383834712272,-0.026965339016744107,-0.19388300775828313,-0.18785354725259787,-0.08663717835111819,-0.006029460505685258,-17.685389599272867,-16.36203550291733,0.1317963170662821,0.12907673609557968,0.15529857593350144,0.0027195809707024066,-1.8163954076757705,-0.6865281445902267,-2.0628554513973,-2.0588158646143073,-0.34840518673840615,-0.004039586782992544,16.098262951523793,15.695928172694966,0.026504658878295412,0.02500538481585138,0.04719168078060538,0.001499274062444031,1.761831758612388,0.841160807034337,1.870512610736631,1.8629036226559843,0.22041605485642737,0.007608988080646695,3.8114320167505866,1.1874623343181607,0.9704183491237146,0.9593082118156382,-0.4944216752165742,0.011110137308076418,-12.276850101419313,0.0005039677191170776
