VatsinShah86/newton/mujoco_test_control_debug.csv
frame,sim_time,phase,scripted_mode,gripper_cmd,ee_target_x,ee_target_y,ee_target_z,ee_pos_x,ee_pos_y,ee_pos_z,ee_err_x,ee_err_y,ee_err_z,ee_pos_err_norm,ee_rot_err_x,ee_rot_err_y,ee_rot_err_z,ee_rot_err_norm,ee_vel_x,ee_vel_y,ee_vel_z,arm_joint_err_l2,arm_joint_err_max_abs,arm_target_delta_l2,arm_target_delta_max_abs,arm_qvel_l2,ee_pos_error_time_integral,ee_rot_error_time_integral,arm_joint_error_l2_time_integral,arm_joint_error_max_running,finger_left_target,finger_right_target,finger_left_qpos,finger_right_qpos,finger_left_qvel,finger_right_qvel,finger_left_err,finger_right_err,arm_ctrl_l2,finger_ctrl,ik_success,ik_status,ik_cost,ik_optimality,ik_nfev,ik_njev,ik_weighted_residual_norm,ik_seed_delta_norm,ik_seed_delta_max_abs,ik_pos_err_norm,ik_rot_err_norm,ncon_total,ncon_finger_rope_total,ncon_rope_ground_total,ncon_finger_ground_total,finger_rope_normal_force_sum,rope_ground_normal_force_sum,panda_joint1_target,panda_joint1_qpos,panda_joint1_qvel,panda_joint1_err,panda_joint1_actuator_force,panda_joint1_qfrc_bias,panda_joint2_target,panda_joint2_qpos,panda_joint2_qvel,panda_joint2_err,panda_joint2_actuator_force,panda_joint2_qfrc_bias,panda_joint3_target,panda_joint3_qpos,panda_joint3_qvel,panda_joint3_err,panda_joint3_actuator_force,panda_joint3_qfrc_bias,panda_joint4_target,panda_joint4_qpos,panda_joint4_qvel,panda_joint4_err,panda_joint4_actuator_force,panda_joint4_qfrc_bias,panda_joint5_target,panda_joint5_qpos,panda_joint5_qvel,panda_joint5_err,panda_joint5_actuator_force,panda_joint5_qfrc_bias,panda_joint6_target,panda_joint6_qpos,panda_joint6_qvel,panda_joint6_err,panda_joint6_actuator_force,panda_joint6_qfrc_bias,panda_joint7_target,panda_joint7_qpos,panda_joint7_qvel,panda_joint7_err,panda_joint7_actuator_force,panda_joint7_qfrc_bias
0,0.016666666666666666,approach,sequence,0.0,0.0533027743939947,-0.49815180160425454,0.32246476830540477,0.05377830066018485,-0.499862375708936,0.32278455243965853,-0.0004755262661901502,0.0017105741046814504,-0.0003197841342537644,0.0018040096701414658,0.00011898721043957716,-0.0017633147285931365,-0.0002531113702997107,0.0017853577104033455,0.0,0.0,0.0,0.008716935503978219,0.005673084852566346,0.015131225496862091,0.011881979599627668,1.6453083662784442,3.0066827835691097e-05,2.975596184005576e-05,0.00014528225839963697,0.005673084852566346,0.04,0.04,0.03999968804367099,0.0399994543599631,0.0006383729203571305,-0.0004483844642809815,3.119563290118754e-07,5.456400369030501e-07,2.369498291793378,0.04,1,1,4.582520612569343e-08,1.8053496831349324e-12,4,4,0.00030273819093630533,0.015131225496862091,0.011881979599627668,1.5143076326991287e-06,8.474242764779682e-07,0,0,0,0,0.0,0.0,0.001657063320020147,9.623056501104294e-05,-1.04047063207025,0.0015608327550091041,-113.7525882653032,-0.033919241480385,-0.005428618035820439,-0.0017212099542130283,-0.04095652093563637,-0.0037074080816074106,-13.953075469524007,-19.891062607032048,0.0016764400976639804,0.00022276840434275143,1.0693018055689771,0.001453671693321229,97.5475026348791,-0.035506634890477534,-1.5826719795996276,-1.5769988947470612,-0.3522015578868214,-0.005673084852566346,8.533063048647819,14.821584460445177,9.170293536966427e-06,-0.00012222065087707596,-0.021841576013273488,0.00013139094441404239,0.14660017527376798,0.8835093836089064,1.5772425287352625,1.573482377528498,0.1194293394605542,0.0037601512067644283,3.030379605199414,1.1371841184254494,0.7886333362612856,0.7852642359075633,-0.5836011797454836,0.0033691003537222874,-22.713737890911034,0.00019210106627204349
1,0.03333333333333333,approach,sequence,0.0,0.05210707212162001,-0.49629608604059,0.3204333609551643,0.052647770989657304,-0.49968999331072866,0.31984089424882656,-0.000540698868037294,0.003393907270138663,0.0005924667063377242,0.0034874028477242993,0.00023800507223198565,-0.005046915565714098,-0.0006337452369912923,0.005092115097605763,-0.0678317802316529,0.010342943892439616,-0.17661949144991862,0.01435946227643532,0.007748324524853301,0.01494647029848794,0.011719451954633087,1.707365220101465,8.819020863109608e-05,0.00011462454680015181,0.00038460662967355896,0.007748324524853301,0.04,0.04,0.039999535784835366,0.039999157323186096,0.0004063938002749045,-0.00028177367039165584,4.6421516463474033e-07,8.426768139044305e-07,2.382715741771572,0.04,1,1,1.1059034548506458e-07,2.7498993734097218e-11,4,4,0.0004702985126173898,0.023506586687857208,0.017392536807199432,2.280786934872927e-06,1.2940768566264174e-06,0,0,0,0,0.0,0.0,0.0032404897008775505,-0.00021348539149787792,-1.0573269756909394,0.0034539750923754282,-102.57293979162473,-0.09866437061068524,-0.010762027636625447,-0.003966543236709915,-0.08716181277222194,-0.006795484399915532,-22.730946022507776,-19.884853079385124,0.003441322606026388,0.0009081488414363539,1.086372131554731,0.002533173764590034,98.82567598523579,-0.10269619328554416,-1.5943914315542607,-1.5866431070294074,-0.48095975358891097,-0.007748324524853301,12.536531870954605,14.842580872221818,3.717260243707359e-05,-0.0002359582916323581,-0.01622101793525786,0.00027313089406943167,0.6111566400654076,0.8817181451416942,1.5836281915854153,1.5775953019314561,0.18837637565750268,0.006032889653959206,4.190398198914863,1.1309407318262972,0.7919809680749152,0.7852607192421762,-0.5850495761581649,0.006720248832739029,-16.058958758646668,0.00037709419572535575
2,0.05,approach,sequence,0.0,0.0509124568382355,-0.4944272502896917,0.3184133740094469,0.05139218714530746,-0.49945544565604444,0.31684498993360743,-0.00047973030707196274,0.005028195366352739,0.0015683840758394796,0.005288924126803236,0.00033134695452454116,-0.007868102906536646,-0.0004096383753287927,0.007885723666897358,-0.07533503066099068,0.014072859281053507,-0.17975425891314734,0.018266034001308825,0.0093921950685385,0.014763893262521333,0.011541195181312247,1.7523402542881232,0.0001763389440778167,0.0002460532745817744,0.0006890405296953728,0.0093921950685385,0.04,0.04,0.03999951868588366,0.03999904391787319,0.00010862561518074413,-7.13058647702394e-05,4.813141163406698e-07,9.560821268086994e-07,2.3957869539992958,0.04,1,1,1.6304888824371844e-07,2.6429968104212177e-10,4,4,0.0005710497145498252,0.028543133787107666,0.019289519706165548,2.6535572745592905e-06,1.5319060168592826e-06,0,0,0,0,0.0,0.0,0.004383135614338263,-0.0010882753378556008,-1.0759966716646905,0.005471410952193864,-90.3441095133266,-0.1757275784964136,-0.015997465265217274,-0.007085177607591921,-0.14454785301339318,-0.008912287657625353,-25.874113442616796,-19.828949727470345,0.005667552245133175,0.0022509316817649824,1.109672354097309,0.003416620563368193,98.50697426737182,-0.1837848767764244,-1.605932626735573,-1.5975575021860566,-0.5228006568324233,-0.008375124549516277,13.977663632650547,14.863588814009189,9.087878642467907e-05,-0.00031048330082625997,-0.0071666841504573935,0.00040136208725093906,1.0428836990714572,0.880147021682586,1.589933920567118,1.582579169584765,0.2302152390329974,0.007354750982352831,4.825155071147947,1.128037676270086,0.7953479712612271,0.7859557761926886,-0.5781779740506219,0.0093921950685385,-12.037179340979492,0.0004472671519692474
3,0.06666666666666667,approach,sequence,0.0,0.049719702867459005,-0.49254500360837006,0.3164047711627272,0.05013028541364268,-0.49881332598840267,0.314227650195813,-0.0004105825461836743,0.006268322380032609,0.002177120966914192,0.00664833055675075,0.00042159202246081634,-0.00959743399608666,0.0004737016400348123,0.009618361211059512,-0.07571410389988681,0.038527180058506305,-0.15704038426766598,0.02043771121315322,0.010692373002561317,0.01463381782573894,0.011363339337727707,1.7624806757150193,0.00028714445335699585,0.0004063592947660996,0.001029669049914593,0.010692373002561317,0.04,0.04,0.03999956518406668,0.039999005731942316,-0.00025067716639172216,0.00018633247839253646,4.3481593332145296e-07,9.942680576843776e-07,2.4087102081649308,0.04,1,1,2.021484529059278e-07,1.1682382644426074e-09,4,4,0.0006358434601471148,0.03178261810022423,0.019738463887243984,2.8230572716656e-06,1.653390096848611e-06,38,0,38,0,0.0,0.00033613114575860824,0.004911143312939528,-0.0016849900340183833,-1.05153896811031,0.006596133346957912,-86.4956647559375,-0.23838834572346013,-0.021134209032254863,-0.011070441627651218,-0.19259166597354552,-0.010063767404603645,-25.714980606863264,-19.747359437206015,0.008523072409268419,0.0040476761084994066,1.1413775300093354,0.0044753963007690125,97.58048608566061,-0.25222447385482966,-1.6172959660733006,-1.6087580181511059,-0.5285751164569545,-0.008537947922194755,13.858033412111581,14.882319288072932,0.00018042666818040635,-0.00035344270078692516,0.00492434632508632,0.0005338693689673315,1.4835475349205667,0.8783773102147407,1.5961609220497512,1.5880754989669827,0.2548703568958039,0.008085423082768495,5.154810242464009,1.1265027165145813,0.7987274169108797,0.7880350439083184,-0.5624899228015482,0.010692373002561317,-12.112924099962584,0.0004715383773700871
4,0.08333333333333333,approach,sequence,0.0,0.048528915519795185,-0.49065302044576997,0.31440416495332923,0.048898317520379715,-0.49753983141715197,0.3120062124284925,-0.00036940200058453027,0.006886810971381996,0.0023979525248367106,0.007301698398657263,0.0004767349682530367,-0.010337147362933972,0.0009057161692385576,0.010387695298389734,-0.07391807359577784,0.07640967427504197,-0.13328626603922866,0.021466671509235025,0.011345342409829984,0.01446319255712805,0.011200201903288853,1.7646380019218004,0.00040883942666795025,0.0005794875497392619,0.0013874469084018434,0.011345342409829984,0.04,0.04,0.039999584154993405,0.039999037765444126,-0.0006633488079095068,0.0004754346380680416,4.158450065960828e-07,9.62234555874908e-07,2.421500736015024,0.04,1,1,2.2495089985507231e-07,3.266965928439045e-09,4,4,0.0006707471950818316,0.03352788329520657,0.01973814982548361,2.8827594426821336e-06,1.7040183618176205e-06,38,0,38,0,0.0,0.00039497924382038847,0.005360541312529922,-0.001755814177105024,-1.0193371457884326,0.007116355489634946,-87.7250600236458,-0.28150049321046455,-0.02617608548623027,-0.015686879777492436,-0.22322475234425687,-0.010489205708737834,-24.251625502764796,-19.65875969164751,0.01146953340704774,0.006430920757548707,1.1696637709616517,0.005038612649499033,96.27572053604624,-0.3026998166259636,-1.6284961679765895,-1.619890192805546,-0.5238553813176132,-0.008605975171043445,13.119730965047893,14.900260560393527,0.0003006233584296162,-0.00032351260085900435,0.017879897717560184,0.0006241359592886206,1.8950699213206967,0.8768937796037349,1.6023201596895862,1.5938587610072137,0.26928658016520596,0.0084613986823725,5.320714188879265,1.1252038323416018,0.8021163181444951,0.7907709757346651,-0.5565042860106157,0.011345342409829984,-12.149132872460541,0.0004916166459963886
5,0.09999999999999999,approach,sequence,0.0,0.047339388815852076,-0.48875647407398837,0.31240713263504083,0.047693878316492015,-0.49575780617158016,0.310040047512297,-0.0003544895006399387,0.007001332097591795,0.002367085122743806,0.007399149000064003,0.0004996223403142979,-0.01044804812504203,0.0007570329568723387,0.010487346232671366,-0.072266352233262,0.10692151473430833,-0.11796989497173005,0.021799195112870397,0.011690051545156344,0.014305280095272642,0.011058249555167432,1.7526407603818714,0.000532158576669017,0.000754276653617118,0.0017507668269496834,0.011690051545156344,0.04,0.04,0.03999955081458749,0.03999905571028273,-0.001096449871436257,0.0007770399440614097,4.491854125113215e-07,9.442897172737275e-07,2.434178255822558,0.04,1,1,2.3536556785070686e-07,5.886385072867733e-09,4,4,0.0006860984883392571,0.03429562013783621,0.019664224726210877,2.885654956190728e-06,1.7163976221335937e-06,38,0,38,0,0.0,0.00039694149015688247,0.005787813628617551,-0.001422432164822019,-0.9871675291970681,0.007210245793439571,-90.17120365178329,-0.3010185801218197,-0.03113015315084639,-0.020644038392669907,-0.2371009330456343,-0.010486114758176485,-22.73728845444137,-19.56647601768222,0.014442528016998921,0.009300755222574703,1.1772554903362304,0.005141772794424218,94.58509532630308,-0.3306402458494523,-1.639554417531757,-1.6308861650963358,-0.5188630071082851,-0.008668252435421131,12.379927274108923,14.918312591662723,0.0004501316282121844,-0.00022130503873134084,0.029464333093897916,0.0006714366669435252,2.334549664543374,0.8760569373483826,1.6084258563117102,1.5997902266088027,0.27721146208202285,0.008635629702907544,5.404396174039903,1.1242646636190958,0.8055060417921107,0.7938159902469544,-0.5551300752915648,0.011690051545156344,-12.16602300143336,0.0005049332178894139
6,0.11666666666666665,approach,sequence,0.0,0.04615034110943079,-0.4868593511397703,0.3104103627123111,0.046502913003187575,-0.4936790376393714,0.30817726492952313,-0.00035257189375678677,0.006819686499601074,0.0022330977827879628,0.007184647284355782,0.0005098133342343056,-0.010280478753288786,0.0002298809195433347,0.010295678621137868,-0.0714579187982664,0.12472611193252714,-0.11176695496643352,0.0217675924600108,0.011886205149758133,0.014167611772737737,0.010933641990317655,1.7387819117207903,0.0006519026980749467,0.0009258712973027491,0.00211356003461653,0.011886205149758133,0.04,0.04,0.03999940229933402,0.0399989656699765,-0.0015271100382507326,0.0010821284447739019,5.97700665981582e-07,1.0343300234985642e-06,2.4467584107093003,0.04,1,1,2.377824698983119e-07,8.659118018899179e-09,4,4,0.0006896121662185376,0.03447149923905212,0.019601894425738786,2.860059169692105e-06,1.7091192922456486e-06,38,0,38,0,0.0,0.0003885764245629049,0.006178884153627738,-0.0008475957686597191,-0.9642683183119332,0.007026479922287457,-92.63862659300835,-0.30133883980303383,-0.03600279265373514,-0.025704336435407253,-0.23927147002919252,-0.010298456218327888,-21.710304745509433,-19.471576643061518,0.017449378823702434,0.012450988567371875,1.1747745171032786,0.004998390256330559,92.76406857814268,-0.3399196543045844,-1.6504880595220746,-1.6417747344255091,-0.5161501875229768,-0.008713325096565416,11.904888064183979,14.936568855602498,0.0006289683448993558,-6.862032735614617e-05,0.040050944372340525,0.0006975886722555019,2.7815517125486346,0.8757521182726973,1.6144890963164955,1.6057871414375513,0.28126060691863486,0.008701954878944207,5.460741100692303,1.1237427586088957,0.8088891070574135,0.7970029019076553,-0.5559501067476755,0.011886205149758133,-12.173747001940683,0.000508958263043903
7,0.13333333333333333,approach,sequence,0.0,0.04496120989843813,-0.48496384276981086,0.30841210972971433,0.04531305272809172,-0.4914606507062931,0.3063163119595818,-0.00035184282965358693,0.0064968079364822184,0.0020957977701325237,0.006835544969759868,0.0005206320828755045,-0.010065316531520447,-0.0004805713530249542,0.010090223162584974,-0.0713916165057514,0.13310321598469788,-0.11165717819647925,0.021578369391506157,0.012010029101366948,0.014038196060573938,0.010819949730113798,1.7251931777452942,0.0007658284475709445,0.001094041683345832,0.002473199524474966,0.012010029101366948,0.04,0.04,0.03999926386385543,0.03999888457021878,-0.0019452187801544275,0.0013784936419395503,7.361361445690218e-07,1.1154297812204783e-06,2.459250819256442,0.04,1,1,2.3592959715738048e-07,3.175715643617345e-12,5,5,0.0006869200785497255,0.03433709557144589,0.019533274826679214,2.820841066274729e-06,1.692128720129318e-06,38,0,38,0,0.0,0.000381215524451477,0.006552936589961061,-0.0001541875003437428,-0.9490951601206972,0.0067071240903048045,-94.65265725206152,-0.29063866969313606,-0.04079846711443141,-0.030721838034053775,-0.23534803462660783,-0.010076629080377632,-21.217517610390985,-19.375573238353834,0.020468088622740174,0.01573080470717019,1.1667283304933382,0.004737283915569983,90.89195361239777,-0.3384475287995895,-1.6613080092521884,-1.6525920866089288,-0.5149138491925874,-0.0087159226432596,11.71781341762835,14.95477096505772,0.0008361203156834763,0.00011833219696008297,0.049878986283940954,0.0007177881187233933,3.2257312902156987,0.8757410569104134,1.6205164420081812,1.6118022654440436,0.2830954573087554,0.008714176564137643,5.509305413728271,1.1235014676365083,0.8122620598940143,0.8002520307926474,-0.5577624581164472,0.012010029101366948,-12.177086474635644,0.0005063195052998834
8,0.15,approach,sequence,0.0,0.0437716443720692,-0.4830708229804195,0.3064117572769083,0.04411778821215922,-0.4891979665088646,0.30441316556555725,-0.00034614384009001853,0.0061271435284451226,0.0019985917113510276,0.006454151548025522,0.0005381682985237613,-0.009907277818815181,-0.001243903778829748,0.009999553765429246,-0.07171587095594997,0.13576105184570864,-0.11418878364147345,0.02133993968318011,0.01209802348218092,0.013913462585626203,0.010712360704932644,1.7124896370669052,0.0008733976400380365,0.0012607009127696528,0.0028288651858613015,0.01209802348218092,0.04,0.04,0.03999915841478475,0.03999883218622145,-0.002345950756642754,0.0016621428466277468,8.415852152526826e-07,1.1678137785478548e-06,2.47166052157529,0.04,1,1,2.321619727552583e-07,1.4411672243491022e-12,5,5,0.0006814131973410235,0.03406195369871604,0.019428283348192243,2.7754834315141406e-06,1.6712064160571546e-06,38,0,38,0,0.0,0.00037644598808411344,0.006922518904703611,0.0005773971995586805,-0.9391439261764791,0.006345121705144931,-96.09892548950569,-0.27594427015993744,-0.045520103468291,-0.035632936521124405,-0.22948991616508727,-0.009887166947166598,-21.090424867312095,-19.279602276223684,0.023485670061189817,0.019053806626018906,1.1560260979452424,0.004431863435170911,89.00269104809614,-0.3332155814842501,-1.672020369957121,-1.663353007016621,-0.5137836902285713,-0.008667362940500078,11.730468771241249,14.972659624544495,0.001070572645162783,0.0003311270798957229,0.059163729209148946,0.00073944556526706,3.658494067814085,0.8758302610909025,1.6265111737480942,1.6178104358358383,0.28373899143771325,0.008700737912255896,5.5541951345257985,1.1233983816490491,0.8156238680440405,0.8035258445618596,-0.5599871782232999,0.01209802348218092,-12.178342359025464,0.0005002775989477737
9,0.16666666666666666,approach,sequence,0.0,0.04258146024204171,-0.48118042171834047,0.30440929758818525,0.04291566091791115,-0.4869416280336681,0.30246334375498873,-0.0003342006758694435,0.005761206315327616,0.001945953833196512,0.006090149802792588,0.0005637186861016947,-0.00982530159411362,-0.0019871389062089046,0.01004007227090129,-0.07212763765488406,0.13538030851179106,-0.11698930863411117,0.021100978611211088,0.012167759998271133,0.013792511212271116,0.010608058962622069,1.7006834079149233,0.0009749001367512463,0.0014280354506180076,0.0031805481627148195,0.012167759998271133,0.04,0.04,0.03999901309834232,0.03999873450898825,-0.0027272736988474384,0.0019334725280445177,9.869016576805056e-07,1.2654910117523843e-06,2.4839899163727286,0.04,1,1,2.2773015732531328e-07,8.130248806845881e-12,5,5,0.0006748779998270995,0.033735397403806995,0.019275421903122147,2.7276721588165683e-06,1.6487602987144399e-06,38,0,38,0,0.0,0.0003736862678885314,0.0072899178633263435,0.0012978311619742911,-0.9322947099273795,0.005992086701352053,-97.00738517386056,-0.26130562671219326,-0.05016962618032324,-0.04042683395482744,-0.2239394921887161,-0.009742792225495796,-21.13342125016601,-19.184201358591913,0.026500511309697574,0.02237991840084991,1.1443566335244413,0.004120592908847663,87.10533609942364,-0.328344022404214,-1.682628428919743,-1.674052696148319,-0.5119084132895392,-0.008575732771423983,11.839345076315112,14.990097997523295,0.0013316457856722818,0.000566731064392323,0.0680525803481549,0.0007649147212799588,4.074820131357802,0.8759112684209196,1.63247476065817,1.6237993794808725,0.28377175524770387,0.008675381177297492,5.594058004937324,1.123355857014853,0.8189746308481242,0.806806870849853,-0.5623538393043919,0.012167759998271133,-12.178605226409445,0.0004927510474350486
10,0.18333333333333332,approach,sequence,0.0,0.041390595276064916,-0.4792924431939022,0.30240495786546634,0.041707983260515835,-0.4847146061153995,0.30048025129454337,-0.0003173879844509189,0.005422162921497331,0.0019247065709229738,0.005762385032613524,0.0005944812471621482,-0.009798503828966599,-0.00267561346338375,0.010174624938784767,-0.07246065944371896,0.13362131509611408,-0.11898554762672209,0.020875511273000903,0.012227049508642174,0.013675287866832775,0.01050568215175085,1.6687423631433878,0.001070939887294805,0.001597612532931087,0.003528473350598168,0.012227049508642174,0.04,0.04,0.03999884150505022,0.039998604270211444,-0.003073029511574315,0.0021807219653986105,1.1584949497836505e-06,1.3957297885572317e-06,2.4962401862606,0.04,1,1,2.232170259888184e-07,8.569399536915804e-09,4,4,0.0006681572060358526,0.033399561262409616,0.019081414923174833,2.6792769633508418e-06,1.6261888515995694e-06,38,0,38,0,0.0,0.00037217106424027507,0.007650290561900317,0.002014157481703648,-0.910057494021798,0.0056361330801966685,-97.29067683349658,-0.24764447469621864,-0.0547483611841639,-0.04511646126113978,-0.21933894041830784,-0.009631899923024122,-21.200745070633587,-19.089753373988337,0.02951845755678571,0.02566091471769836,1.1156052892075483,0.00385754283908735,85.10883476066086,-0.32476752076959703,-1.693134111071494,-1.684677548964602,-0.508965087087169,-0.00845656210689194,11.98233987007552,15.007111340231416,0.001619047800692926,0.0008251345827293317,0.07627702131126073,0.0007939132179635943,4.4503946222681865,0.8759518941422566,1.6384079143534085,1.6297637046511402,0.2832606330268664,0.008644209702268313,5.61599970811676,1.1233536640897865,0.8223147724334436,0.8100877229248015,-0.5645453657199841,0.012227049508642174,-12.178511095534304,0.0004847837761867771
11,0.19999999999999998,approach,sequence,0.0,0.040199068227189425,-0.4774066043390092,0.30039899796926356,0.04049689067284154,-0.48252793961269613,0.29848007420163014,-0.0002978224456521156,0.005121335273686911,0.001918923767633418,0.005477138086686552,0.0006258034150740841,-0.009798176408317883,-0.003290706368351262,0.010354933087448854,-0.0726655552604577,0.13119999016220296,-0.12001062557479347,0.020666801052663993,0.012279663713938738,0.013555429504756928,0.010404716298025196,1.6392264987298089,0.0011622255220729142,0.0017701947510552346,0.0038729200348092347,0.012279663713938738,0.04,0.04,0.039998770420564746,0.03999857378314571,-0.003398334700266584,0.0024110252517552566,1.229579435255146e-06,1.4262168542902853e-06,2.508412294384069,0.04,1,1,2.1886698987459618e-07,3.4886536023592852e-09,4,4,0.0006616146761893908,0.033072637561261324,0.018861278404917137,2.6313265383128512e-06,1.6035246722093083e-06,38,0,38,0,0.0,0.0003713650849691959,0.008031649076066938,0.0027637553552712284,-0.8902908102523528,0.005267893720795709,-97.17561936577988,-0.23509008774747883,-0.059257238629800556,-0.04971949361780225,-0.215713301123053,-0.009537745011998305,-21.231610589380836,-18.996337599106372,0.03251379455356793,0.028839537088765983,1.0884137110523942,0.0036742574648019506,83.1717185464614,-0.3225821348700618,-1.7035388273695191,-1.695214297895652,-0.5052573255300641,-0.008324529473867193,12.112437197971303,15.023702971171907,0.0019307267464151556,0.0011065801873721597,0.08399378655296856,0.0008241465590429959,4.798610551719911,0.8759477120130461,1.6443111715288001,1.6357012897511127,0.28255693139403393,0.0086098817776874,5.629506024231887,1.1233918462930328,0.8256462143002085,0.8133665505862697,-0.5666487553765878,0.012279663713938738,-12.178262699673951,0.0004763328172003728
12,0.21666666666666665,approach,sequence,0.0,0.039006952266994424,-0.4755226188158823,0.2983916469570844,0.039284303407939446,-0.4803839886374331,0.296474588460628,-0.0002773511409450216,0.004861369821550776,0.001917058496456403,0.005233063488636825,0.0006563845599699674,-0.009802860091772093,-0.003828459689474292,0.010544382877312193,-0.07275523589412566,0.12863705851578255,-0.12032914446012732,0.020478416621665843,0.012328661752765924,0.013429536424159054,0.010304965051071147,1.611583076049695,0.001249443246883528,0.0019459344656771044,0.004214226978503665,0.012328661752765924,0.04,0.04,0.03999866992540816,0.03999850972089128,-0.0037039724439447766,0.0026284228691832627,1.3300745918404244e-06,1.4902791087220701e-06,2.5205072344480914,0.04,1,1,2.1477698410160238e-07,2.1329802861754138e-10,4,4,0.000655403668133773,0.032762287332061414,0.01862949452493834,2.584323988180079e-06,1.5813651121513856e-06,38,0,38,0,0.0,0.0003709478427928074,0.008482427707377206,0.003553237957857628,-0.871882241364186,0.004929189749519578,-96.75155014841036,-0.22352507188190493,-0.0636968919248551,-0.05424897551304142,-0.2126676167507787,-0.009447916411813681,-21.215523189066516,-18.904139414980918,0.0354414323573976,0.03190590160342193,1.062842717292651,0.0035355307539756686,81.27807168279895,-0.32165343276227665,-1.7138437924205903,-1.7056539032240507,-0.5011088218664993,-0.008189889196539513,12.219072548328768,15.039872007114065,0.0022629371091927204,0.001409592662916043,0.09119528660695106,0.0008533444462766775,5.12184917049621,0.8758917006270799,1.6501850871671657,1.6416114560171147,0.2817381842759873,0.008573631150051053,5.636163617560214,1.1234466858358907,0.828972189247062,0.816643527494296,-0.568644155123565,0.012328661752765924,-12.177945295235986,0.00046810075862979
13,0.2333333333333333,approach,sequence,0.0,0.03781434467170311,-0.47364023157193996,0.2963830889202091,0.038071240991338205,-0.47827630194382076,0.29446962474677124,-0.0002568963196350957,0.004636070371880796,0.001913464173437851,0.005022000533164368,0.0006862686264392811,-0.009802160598240416,-0.004300643010361572,0.010726082571186166,-0.07278374499607443,0.1264612016167399,-0.12029782283140666,0.020307473169879388,0.012375207944460676,0.013304999419686285,0.010206398170134356,1.5847355365386664,0.0013331432557696008,0.002124702508530207,0.004552684864668322,0.012375207944460676,0.04,0.04,0.03999867062358882,0.03999854546842412,-0.00399311881458406,0.0028316627643527143,1.3293764111813045e-06,1.4545315758784927e-06,2.5325258739484253,0.04,1,1,2.1095987710370432e-07,4.548523035449965e-12,5,5,0.000649553503729607,0.03246997518390163,0.01839628736667387,2.538576891016517e-06,1.559838019305919e-06,38,0,38,0,0.0,0.00037073797882918535,0.009011635998870489,0.004382900549998515,-0.8534508530719569,0.004628735448871974,-96.14579488628127,-0.21268927120567055,-0.06806788244295309,-0.0587114635124348,-0.20984478281755456,-0.009356418930518286,-21.165430114325034,-18.813372683468707,0.03829439801096272,0.03487258765144845,1.0383721274629027,0.00342181035951427,79.41087136862882,-0.32170522251109224,-1.7240501905907246,-1.7159924382247402,-0.4968016471484862,-0.008057752365984383,12.308331271206953,15.055634111761186,0.0026137564413567303,0.0017326712665978923,0.09790417399915577,0.000881085174758838,5.420948571725128,0.8757793318679742,1.6560302871122656,1.6474940433596226,0.2808266239868493,0.008536243752643058,5.637112326016904,1.1234947390672687,0.8322945343229089,0.8199193263784482,-0.5705227055568476,0.012375207944460676,-12.177624611917508,0.0004608676361268389
14,0.24999999999999997,approach,sequence,0.0,0.03662133615249973,-0.4717592479979882,0.29437345425997063,0.03685783189342809,-0.4761930272453871,0.2924666870537395,-0.00023649574092835662,0.004433779247398906,0.0019067672062311192,0.004832193066186499,0.0007155380223780305,-0.009793921500028693,-0.0047288606551549196,0.01089931264374342,-0.07280454587460697,0.12499648190602008,-0.12017626158190353,0.020148279929595347,0.012419527331684388,0.013184308920460517,0.010109132397037479,1.5583498704448362,0.001413679806872709,0.002306357719259264,0.004888489530161577,0.012419527331684388,0.04,0.04,0.039998641037564064,0.03999854781001637,-0.004264897976294855,0.0030236446377148165,1.3589624359364172e-06,1.4521899836320018e-06,2.544469166230834,0.04,1,1,2.073799750695117e-07,2.183950376252396e-12,5,5,0.0006440185945599889,0.03219342085573262,0.018166884763021862,2.4941581586699957e-06,1.5388907994870683e-06,38,0,38,0,0.0,0.0003706363916188234,0.009613675570187738,0.005263662957666164,-0.834421205935489,0.004350012612521574,-95.51129697684428,-0.20239678399742478,-0.0723707956593817,-0.0631088171229836,-0.2070353840669732,-0.00926197853639811,-21.099050545192995,-18.724218735487803,0.04107958809814261,0.037751462880236945,1.0149404581947283,0.003328125217905667,77.5666807767478,-0.32253124968439517,-1.734159322987762,-1.7262297031151403,-0.49250406201457564,-0.007929619872621751,12.38917304513052,15.071008948634937,0.0029821840743198755,0.0020746368697253255,0.1041476348199675,0.0009075472045945499,5.697067338160679,0.8756080064295686,1.6618475087271602,1.6533491125183348,0.2798373813250069,0.00849839620882542,5.633506844574185,1.1235191676035576,0.835614299380334,0.8231947720486497,-0.5722865059898143,0.012419527331684388,-12.177311856422875,0.00045522381135639986
15,0.26666666666666666,approach,sequence,0.0,0.03542799197404888,-0.46987955017274124,0.2923628161131328,0.03564363213048199,-0.4741209439412191,0.290465165795496,-0.00021564015643310563,0.004241393768477875,0.0018976503176367787,0.004651558717717793,0.0007443298120049068,-0.00977995467778206,-0.0051373377965806145,0.011072207548844368,-0.07285198577676608,0.12432499825007826,-0.1200912754946093,0.019996037006961297,0.012461848537761888,0.01306665025363235,0.010013366869910056,1.532151856245628,0.0014912057855013389,0.0024908945117400032,0.005221756813610932,0.012461848537761888,0.04,0.04,0.03999859023653483,0.0399985272187366,-0.004520391469774204,0.0032047889062822134,1.4097634651738522e-06,1.4727812634035553e-06,2.5563383091311205,0.04,1,1,2.039849173459938e-07,1.0260941117484628e-11,5,5,0.0006387251636596037,0.031928934643364854,0.017942986742531808,2.451061040831816e-06,1.5185355246656805e-06,38,0,38,0,0.0,0.00037059019620755933,0.010288802236714417,0.006211563822356121,-0.8145151446688739,0.0040772384143582955,-94.96500627598327,-0.19261713780863152,-0.076606262914006,-0.06744070493192729,-0.20416545087462887,-0.009165557982078715,-21.02899731666463,-18.636687156730424,0.043798063107296635,0.04055188567897037,0.9923388087643923,0.003246177428326266,75.7439543109241,-0.3240861035782681,-1.7441726898576722,-1.736367444812076,-0.488286258000056,-0.007805245045596099,12.468166629489133,15.085988640865594,0.0033669285364425444,0.002434423352933625,0.10993614627164397,0.0009325051835089196,5.95116993031874,0.8753778088258999,1.6676376216722841,1.6591769233110356,0.27878665676491193,0.00846069836124852,5.626276019448142,1.123513602454132,0.8389326289758787,0.8264707804381168,-0.5739365130328263,0.012461848537761888,-12.17701986307884,0.0004513021819003045
16,0.2833333333333333,approach,sequence,0.0,0.034234346295389656,-0.4680010985321227,0.29035119253311703,0.03442800807393622,-0.4720492777025674,0.2884639501470038,-0.00019366177854656524,0.004048179170444699,0.0018872423861132082,0.004470675933730204,0.0007728040032850957,-0.009762878784682433,-0.0055459516138302006,0.011254714900646823,-0.072937443392746,0.12429997431910422,-0.1200729389095323,0.019847685054896914,0.01250241768500071,0.012951715755329959,0.009919314281077174,1.5060134995301702,0.001565717051063509,0.00267847309341745,0.005552551564525881,0.01250241768500071,0.04,0.04,0.039998525061847916,0.039998491076637686,-0.0047606657673040995,0.0033756403525146356,1.4749381520851035e-06,1.5089233623144516e-06,2.568134745951633,0.04,1,1,2.0072320656075465e-07,2.4070560713209055e-09,5,5,0.0006335979901495184,0.03167275498695989,0.017724559326673273,2.4091961679090657e-06,1.49883457904682e-06,38,0,38,0,0.0,0.0003705716905219558,0.011041168286089224,0.007241574330249359,-0.7938051642952269,0.003799593955839865,-94.5611731974023,-0.18336060479156308,-0.0807749762521857,-0.07170642409747417,-0.201240220168754,-0.009068552154711529,-20.960927079031592,-18.550633831920216,0.04644697525735377,0.0432798742401639,0.9702945600056658,0.003167101017189873,73.9438648159396,-0.32636536519837456,-1.7540920041387493,-1.7464080609129113,-0.48415960588640716,-0.007683943225837986,12.548274059813593,15.100546201452659,0.0037664374038539534,0.002810920162073733,0.11527219039897507,0.0009555172417802203,6.184213320316924,0.8750929549643536,1.6734016243440433,1.6649779626636423,0.2776923456735694,0.008423661680400985,5.616074051923988,1.1234826731828917,0.8422507383649743,0.8297483206799736,-0.575473389322246,0.01250241768500071,-12.17676143911217,0.0004488019591264679
17,0.3,approach,sequence,0.0,0.033040407729265774,-0.46612391670693526,0.28833855766918665,0.0332104416366272,-0.46997202941721117,0.2864621980914305,-0.00017003390736142904,0.0038481127102759083,0.0018763595777561703,0.004284577951873078,0.0008011158448796587,-0.009744608192419606,-0.005965915487719254,0.011453878078070197,-0.07305398623854112,0.12463489712137288,-0.12010512333440082,0.019702122780581477,0.012541447247323867,0.012839650392332414,0.009827129308337401,1.4799769287683886,0.0016371266835947269,0.002869371061385287,0.005880920277535572,0.012541447247323867,0.04,0.04,0.039998450625539986,0.039998444782774506,-0.004986783806856451,0.0035367958455355874,1.5493744600150738e-06,1.5552172254948426e-06,2.5798601004769983,0.04,1,1,1.975567052737151e-07,9.463112929122408e-12,5,5,0.0006285804726106517,0.03142205128599083,0.017511072534175387,2.3686180474712557e-06,1.4796315691087133e-06,38,0,38,0,0.0,0.0003705666093214466,0.011875937778375263,0.008363238113563536,-0.7726354531738489,0.0035126996648117276,-94.29271135549884,-0.1746107362715725,-0.08487766876252088,-0.07590572206449142,-0.19829140024669492,-0.008971946698029462,-20.895662925048043,-18.465839228503146,0.04902237678772107,0.045938126316766595,0.9485758495352139,0.0030842504709544735,72.17026290030691,-0.3293332097997287,-1.7639191334470867,-1.7563539262978756,-0.4801127787223209,-0.007565207149211162,12.629837521959416,15.114650388691995,0.004179053884823007,0.003202873143752454,0.1201595517352215,0.0009761807410705527,6.397264018192827,0.8747606641707701,1.679140610432182,1.6707529428482255,0.27657167492859014,0.008387667583956482,5.603347666735317,1.1234380652235707,0.845569822439247,0.8330283751919232,-0.5768986522031601,0.012541447247323867,-12.176545701189752,0.0004471742281912036
18,0.31666666666666665,approach,sequence,0.0,0.03184617104363643,-0.46424806415526987,0.28632486058593215,0.03199067387891386,-0.46788803109167465,0.2844594808558516,-0.00014450283527743524,0.0036399669364047815,0.001865379730080552,0.004092661958300321,0.000829401029869548,-0.00972609261879415,-0.0063996182709377975,0.011672184787409407,-0.0731860654628004,0.12503989953219108,-0.12016303413473262,0.01955974712610492,0.012579056748510231,0.012730777340634152,0.009736864630979225,1.454196724635703,0.0017053377162330656,0.003063907474508777,0.0062069160629706546,0.012579056748510231,0.04,0.04,0.039998370783049075,0.03999839223859355,-0.005199794507950066,0.0036888876758059633,1.629216950925494e-06,1.6077614064524681e-06,2.591516074556967,0.04,1,1,1.9446641459350072e-07,3.766727434978506e-12,5,5,0.0006236447940831394,0.031175433006963554,0.017302071780190387,2.3291527868255955e-06,1.4610805231709465e-06,38,0,38,0,0.0,0.0003705677393957593,0.012797201023043669,0.009580170165934978,-0.7514195679599938,0.0032170308571086905,-94.12089588412249,-0.1663215537778931,-0.08891507465513668,-0.08003887386223613,-0.1953459790408838,-0.008876200792900552,-20.832173437911308,-18.382114808151258,0.05152125512989658,0.04852638148553495,0.9270735935346985,0.0029948736443616286,70.42836163263982,-0.3329183421360493,-1.773655998078066,-1.7662071770000416,-0.47613392540422417,-0.007448821078024359,12.71212423545603,15.128279535959702,0.004603175782521552,0.0036088378834509918,0.12461086234765703,0.0009943378990705603,6.59150087939328,0.8743879478042622,1.6848557137047282,1.6765027561777315,0.27543883139683706,0.008352957526996718,5.588430600748779,1.1233914407788879,0.848890983196891,0.8363119264483808,-0.5782156307936726,0.012579056748510231,-12.176374927195184,0.0004459063190685626
19,0.3333333333333333,approach,sequence,0.0,0.03065162875850951,-0.462373607765429,0.28431004496865386,0.030768702342000742,-0.4657995440358315,0.2824556499855092,-0.00011707358349123329,0.0034259362704024965,0.0018543949831446582,0.0038973742835815657,0.00085775463085093,-0.00970762736212727,-0.006843141050438922,0.01190807925086454,-0.07331829221478722,0.12530922335058814,-0.12022985222054361,0.019421760536698675,0.01261530480486961,0.012625338063724314,0.00964846825525445,1.42886032108238,0.0017702939542927584,0.0032623754620231863,0.006530612071915632,0.01261530480486961,0.04,0.04,0.03999844622533416,0.03999849576786987,-0.00540302282544778,0.0038300422778310677,1.55377466583978e-06,1.5042321301339534e-06,2.603104348406499,0.04,1,1,1.9145023326836975e-07,1.7094473101926148e-12,5,5,0.0006187895171516236,0.03093282850410791,0.01709728933327881,2.290794239165307e-06,1.4431167391334518e-06,38,0,38,0,0.0,0.0003705715132877154,0.013807338044241241,0.01089113172899707,-0.7305094710974798,0.002916206315244172,-93.99802832307381,-0.15843587292726333,-0.09288788760813778,-0.08410646605887483,-0.19241734512209868,-0.008781421549262952,-20.769368977919385,-18.299342908715108,0.05394217553382354,0.05104284727892145,0.9057891937589839,0.002899328254902092,68.72334254506274,-0.3370345321832745,-1.7833044663333204,-1.7759697313664824,-0.4722167895926409,-0.007334734966838008,12.794322169478619,15.141424487107917,0.005037333379216154,0.004027267340042217,0.12864735209140338,0.001010066039173937,6.768151196120479,0.8739800007292919,1.6905480509898683,1.6822284014444098,0.2743040345617654,0.008319649545458496,5.571603375231916,1.1233509939075024,0.8522152199214389,0.8395999151165693,-0.5794287623305933,0.01261530480486961,-12.176247565228778,0.0004446447080523018
20,0.35,approach,sequence,0.0,0.029456779086417216,-0.4605006006618371,0.2822940641525261,0.029544695985166704,-0.46371032200254386,0.28045066743352454,-8.791689874948841e-05,0.0032097213407067393,0.0018433967190015776,0.003702452150899425,0.0008862278297375617,-0.009689237806037504,-0.007289771264116842,0.012157610542836593,-0.07344038141004226,0.12535332199725913,-0.12029895311908012,0.019289452639468588,0.012650197129677299,0.012523429323099846,0.009561815512535876,1.4041281197338615,0.001832001490141082,0.003465002304403796,0.006852102949240109,0.012650197129677299,0.04,0.04,0.039998329309710055,0.03999840276947256,-0.00559233593574719,0.003966590275324342,1.6706902899454867e-06,1.5972305274433718e-06,2.614626510496314,0.04,1,1,1.8851613981797492e-07,4.162619422367274e-12,5,5,0.0006140295429667451,0.030694983270750768,0.016896550479373884,2.2535079666046142e-06,1.425723180383702e-06,38,0,38,0,0.0,0.00037057621878414137,0.014906966295037289,0.01229240444779023,-0.7101139980627342,0.0026145618472470586,-93.88784314897276,-0.1509074663600802,-0.09679673343110365,-0.08810915304797091,-0.18950763195223247,-0.008687580383132734,-20.70682454161829,-18.217491035091648,0.05628535334702705,0.053485359930929996,0.8848062071100915,0.0027999934160970533,67.05932528794304,-0.3416060854324616,-1.7928662818458563,-1.7856433562287253,-0.46835986943213387,-0.007222925617131004,12.87596881546051,15.154087272021743,0.005480226842443059,0.004456606723424584,0.13229696031472635,0.001023620119018475,6.928422691047216,0.8735392942005136,1.6962186808224988,1.6879309131257496,0.2731738198097554,0.008287767696749215,5.553120270781619,1.123319548536866,0.8555434369477851,0.8428932398181078,-0.5805439956123611,0.012650197129677299,-12.176157134788582,0.0004432652050373881
21,0.36666666666666664,approach,sequence,0.0,0.028261629121696795,-0.45862907209004355,0.2802768885610643,0.028318896293324562,-0.4616241163194438,0.2784445087593873,-5.726717162776729e-05,0.0029950442294002233,0.0018323798016769977,0.0035115787336472545,0.0009148352980682041,-0.009670912271006776,-0.0077327290089047535,0.01241606079645465,-0.07354798151052853,0.12517234098600505,-0.12036952044823357,0.019163791348391895,0.0126837420747411,0.012424990772892953,0.009476750978751447,1.3801055729221368,0.0018905278023685363,0.0036719366510113735,0.007171499471713307,0.0126837420747411,0.04,0.04,0.0399983887430424,0.03999848805193659,-0.0057739800376075765,0.004093031717794828,1.611256957599616e-06,1.5119480634082083e-06,2.626084029169504,0.04,1,1,1.8567466717090582e-07,1.9767758490518115e-12,5,5,0.0006093843896440174,0.03046287367792845,0.01669967659588245,2.217261634345476e-06,1.4088786756388507e-06,38,0,38,0,0.0,0.0003705810703838184,0.016095569668076952,0.013779303198278497,-0.6903246545819621,0.0023162664697984545,-93.76686714510807,-0.1437063021113863,-0.10064215889377973,-0.09204753438875238,-0.18661418755213344,-0.008594624505027348,-20.644564681671852,-18.136572417522736,0.058552065373818594,0.05585258569684568,0.8642243746024838,0.002699479676972913,65.43906505615027,-0.34657582411710075,-1.8023430328246077,-1.7952297154826924,-0.46456229863530124,-0.007113317341915337,12.956881670582334,15.166274551698525,0.005930697508455286,0.00489540782793486,0.13558906123387524,0.0010352896805204265,7.073455677223064,0.8730665731633811,1.7018685847052961,1.6936113075373165,0.27205210366627625,0.008257277167979638,5.533211436136753,1.1232965454626642,0.8588764821781447,0.8461927401034036,-0.5815666505959507,0.0126837420747411,-12.17609955713965,0.00044176588602847996
22,0.3833333333333333,approach,sequence,0.0,0.027066194578326902,-0.4567590264486212,0.27825850664687773,0.027091576205225426,-0.45954458928783565,0.2764371511985849,-2.538162689852408e-05,0.0027855628392144394,0.0018213554482928163,0.0033282638457944333,0.0009434981649274331,-0.009652601330764055,-0.00816398022571449,0.012677281820790554,-0.07363920528594817,0.12477162189648783,-0.12044145364814351,0.01904463212679911,0.012715514874420575,0.012329896471137546,0.00939312190913566,1.3582163519521204,0.0019459988664651102,0.0038832246813578827,0.007488910007159959,0.012715514874420575,0.04,0.04,0.039998251093088036,0.0399983902371898,-0.005897322138527514,0.004193338370057155,1.748906911964998e-06,1.60976281020353e-06,2.6374782513600032,0.04,1,1,1.829338732846337e-07,1.8159224134794947e-12,5,5,0.0006048700245253251,0.030237298524048224,0.016506439251050997,2.1820195968061005e-06,1.3925587573483703e-06,38,0,38,0,0.0,0.00037058573451884407,0.017371702084015384,0.01533259196123389,-0.6735640450607712,0.0020391101227814935,-91.2052766511942,-0.13396637350975554,-0.10442463643676517,-0.09592236174032985,-0.18379040466067098,-0.008502274696435316,-20.54271567708605,-18.059500783671506,0.06074445319156045,0.05815674449753306,0.8449916902701315,0.002587708694027392,62.22647868664805,-0.34872098341332103,-1.8117361547337434,-1.8047305286027937,-0.46076616032517975,-0.0070056261309496826,13.064656248719075,15.179209410384821,0.0063877262218882905,0.005343540031109576,0.13803999896927968,0.0010441861907787148,7.087694353497209,0.8725942014898624,1.7074986669064278,1.6992705631975396,0.27053527173597547,0.008228103708888268,5.491403165516203,1.1233896439473696,0.8622151484242829,0.8494996335498624,-0.5819995166416246,0.012715514874420575,-12.168163788286165,0.0004425149173258626
23,0.39999999999999997,approach,sequence,0.0,0.025870499625696024,-0.45489044270036416,0.2762389254140469,0.025864003912901758,-0.457488703716913,0.27442888819547107,6.495712794266778e-06,0.002598261016548864,0.0018100372185758107,0.0031665813169776485,0.0009727999348373679,-0.009633856940222538,-0.00854816505520315,0.012916217134629234,-0.0736543375394201,0.12335313425535732,-0.12049578018683116,0.01893177193467616,0.01274328950651471,0.012238469344299948,0.009310776807809118,1.3386357264575608,0.001998775221748071,0.004098494966935037,0.007804439539404562,0.01274328950651471,0.04,0.04,0.03999830554403144,0.03999849775956409,-0.0060084305437510185,0.004270825495277523,1.6944559685580507e-06,1.5022404359077424e-06,2.648810254944233,0.04,1,1,1.8028820566426482e-07,3.129479831743915e-12,5,5,0.0006004801506532332,0.03001794334476165,0.0163164029387588,2.1477147359623395e-06,1.3767103935811512e-06,38,0,38,0,0.0,0.00037059009072392876,0.01871950029624359,0.016887077286296397,-0.6618063944277175,0.001832423009947192,-87.6766195840901,-0.12396284692126001,-0.10814466079266054,-0.09973521160297422,-0.18112257356779488,-0.008409449189686322,-20.41481540836071,-17.982019553920438,0.06287820367691084,0.06042945237140389,0.825466241985664,0.002448751305506952,58.91283690992091,-0.3506123993492539,-1.8210469315415525,-1.8141475413981056,-0.45702491708828974,-0.006899390143446871,13.176568179199421,15.1916913040704,0.0068518335691319125,0.0058024300069459325,0.13987353609554315,0.00104940356218598,7.080146464880029,0.8721474304315594,1.7131097460760139,1.7049094572863186,0.26895692828034784,0.008200288789695254,5.44918878604949,1.1236255268506978,0.8655590876710894,0.8528157981645746,-0.5822231452973682,0.01274328950651471,-12.168935600692748,0.000438643264582865
24,0.41666666666666663,approach,sequence,0.0,0.02467460749217206,-0.4530231808964745,0.2742182385603483,0.024639841057222518,-0.4554891572010664,0.27242015129271246,3.4766434949543706e-05,0.0024659763045919436,0.0017980872676358617,0.003052108396148839,0.0010007328739381179,-0.009612953549324142,-0.008727539102386588,0.013022299374923423,-0.07344977134075441,0.11997279095079638,-0.12052421416551606,0.01876576042669295,0.012666330698149597,0.012150812762270027,0.00922923929059749,0.9849148807204069,0.002049643695017218,0.004315533289850427,0.008117202213182777,0.01274328950651471,0.04,0.04,0.039998311190054925,0.039998258760448435,-0.004418449890069173,0.0031518153484880558,1.6888099450759753e-06,1.741239551565632e-06,2.6600802751372794,0.04,1,1,1.7774034079776143e-07,4.195076952950446e-12,5,5,0.0005962220069701577,0.029805170735281966,0.01612862943404436,2.114273586571167e-06,1.3612207716687988e-06,38,0,38,0,0.0,0.00037059411395346886,0.020089338652558773,0.0184322099744164,-0.3207623245590596,0.0016571286781423729,-48.87557240065409,-0.07470640161243844,-0.11180279104718747,-0.10348547493266706,-0.17273936006013524,-0.008317316114520412,-19.710622365682866,-17.93872979993566,0.06500078382288728,0.06262284109317386,0.501318403411602,0.0023779427297134226,30.72949010540117,-0.30769348154853193,-1.83027617083215,-1.8234801645596388,-0.4468607386910361,-0.006796006272511201,13.813318292866825,15.214580647063528,0.007327387062330653,0.0062651545828324535,0.08980803316620056,0.0010622324794981996,4.578651774450275,0.8715384029811892,1.718702348028294,1.7105276702052812,0.25347791163327743,0.008174677823012733,4.727667760026179,1.1245332822900167,0.8689051786174751,0.8562388479193255,-0.560364855254299,0.012666330698149597,-12.176501056854704,0.0004850967891930798
25,0.4333333333333333,approach,sequence,0.0,0.023478645428059997,-0.45115686786927445,0.2721967167509907,0.023420694288578337,-0.45356168060119684,0.27041013427368576,5.795113948165939e-05,0.00240481273192239,0.0017865824773049543,0.0029963910890263242,0.0010290166615125698,-0.00959361346468573,-0.00854730764263395,0.012890025699636853,-0.07314880611865082,0.11564859599217492,-0.12060102114160198,0.018463502000369825,0.012363219585596275,0.012063212002787994,0.009147683603271117,0.7998197037852359,0.00209958354650099,0.0045303670515110415,0.008424927246522275,0.01274328950651471,0.04,0.04,0.03999872337726232,0.03999849678944474,-0.0030999151025519617,0.0022219671599512905,1.2766227376823092e-06,1.5032105552606478e-06,2.671288538773459,0.04,1,1,1.7477235622204296e-07,8.927970586361167e-13,5,5,0.0005912230648782961,0.029555348558513227,0.016017515474485933,2.081410382694441e-06,1.3452311249434879e-06,38,0,38,0,0.0,0.0003705978181980152,0.021504495941117557,0.01991869213993821,-0.05125066167485898,0.0015858038011793488,-17.59018585719066,-0.036966571084913843,-0.1153987869325585,-0.10717219333950158,-0.1651457593582472,-0.008226593593056927,-19.125778314552065,-17.86572969707322,0.06709141303681235,0.0647548609372844,0.24616048956907496,0.002336552099527947,8.393977864453348,-0.27709332421419136,-1.8394238544354211,-1.8327297885702305,-0.4381156143146187,-0.006694065865190613,14.343496243945992,15.223735543433435,0.007811490027075289,0.006735149417047981,0.04780736884433562,0.0010763406100273076,2.4369615290879203,0.8704035087512892,1.7242765373293445,1.7161259797334056,0.24099832233915064,0.008150557595938857,4.124279312653471,1.1246582298178067,0.8722563633938114,0.8598931438082151,-0.5448906242446402,0.012363219585596275,-12.196154365553639,0.0005095524768203141
26,0.44999999999999996,approach,sequence,0.0,0.022282773570857096,-0.44929099917668724,0.27017473145846926,0.022205257569138524,-0.45168377213791405,0.26839812886455927,7.75160017185729e-05,0.002392772961226808,0.0017766025939099928,0.0029812225598214327,0.0010571770149622984,-0.009577716488712936,-0.00835557592269201,0.012754055252310879,-0.07292620316638881,0.11267450779696708,-0.12072032454758963,0.0182250507118807,0.012139436882134147,0.011976828804042374,0.009065628555972705,0.7801890980918452,0.0021492705891646806,0.004742934639049556,0.008728678091720288,0.01274328950651471,0.04,0.04,0.03999886607584857,0.03999861438893259,-0.0029395847008018817,0.002105582011253954,1.1339241514293774e-06,1.3856110674115296e-06,2.6824342462132553,0.04,1,1,1.706147680259905e-07,1.057328226375075e-12,5,5,0.0005841485564922514,0.029201731594356423,0.015759694421163317,2.048333396952077e-06,1.3274285720113406e-06,38,0,38,0,0.0,0.00037060123055007537,0.02293663643296572,0.02135729232004892,-0.0034329840061138317,0.0015793441129167973,-11.86283196386377,-0.03011730787312741,-0.11893260317299056,-0.1107947972754033,-0.161273373449105,-0.008137805897587266,-18.97830906532431,-17.787375728983648,0.06917797859034294,0.06685571000116493,0.19886920739557973,0.0023222685891780143,4.473915539879243,-0.2819181563848201,-1.8484894829913938,-1.8418979412727206,-0.43376893686010637,-0.006591541718673266,14.487908139650244,15.232383352032482,0.008306793413735384,0.0072157928968882125,0.04069587337998687,0.0010910005168471718,2.0713749727283,0.8695828337569529,1.7298320510806386,1.72170575443183,0.23824011900631364,0.008126296648808706,4.007320756532863,1.124643725649813,0.8756115249669854,0.8634720880848512,-0.5445688035219524,0.012139436882134147,-12.18898672926457,0.0005098666058214879
27,0.4666666666666666,approach,sequence,0.0,0.021087100400648148,-0.44742521309436145,0.26815255244437536,0.0209920632466054,-0.44982902857671203,0.26638461792784607,9.503715404274651e-05,0.0024038154823505797,0.0017679345165292903,0.0029854569815310605,0.0010845068963996492,-0.009563480174598071,-0.008222269332717136,0.0126586737550981,-0.07279165935198735,0.11128461367212128,-0.12081065620279219,0.018059034373404375,0.012015445414968462,0.011891727888515091,0.00898354639535981,0.7727350756555394,0.002199028205523532,0.004953912534967858,0.009029661997943694,0.01274328950651471,0.04,0.04,0.0399989029800398,0.03999863902187915,-0.0029392200263441324,0.0021047879459874454,1.0970199601986752e-06,1.3609781208540062e-06,2.6935170096969085,0.04,1,1,1.6714619704652888e-07,2.554902996289542e-12,5,5,0.0005781802436032018,0.02890342719579211,0.015575088114033075,2.0165853394131096e-06,1.3107063290771077e-06,38,0,38,0,0.0,0.00037060438004483297,0.024362966777462355,0.022778004965719963,0.01588654144733051,0.0015849618117423914,-9.539467123106874,-0.02752603012129686,-0.12240439887154454,-0.11435361036881102,-0.15795375364405256,-0.008050788502733525,-18.88868511270141,-17.711094726253386,0.07128274897732614,0.06894475565708864,0.18034929334407585,0.0023379933202374997,2.9308521967432455,-0.2917514649034587,-1.8574730293867536,-1.8509844841598773,-0.42998456754041225,-0.006488545226876363,14.581277727458655,15.241204976870886,0.00881568630155739,0.007707416362916589,0.038325979104195745,0.0011082699386408008,1.9379935800583574,0.8687776194144338,1.7353688963065388,1.7272673655662591,0.23670900738207426,0.008101530740279639,3.955577335664202,1.1245981641213483,0.8789694435639744,0.866953998149006,-0.5449817390300737,0.012015445414968462,-12.183004906195038,0.0005096093386953646
28,0.4833333333333333,approach,sequence,0.0,0.01989167385973456,-0.4455593338612027,0.2661303135681428,0.0197797419474224,-0.4479799112290748,0.26437043630252816,0.00011193191231215899,0.002420577367872101,0.0017598772656146622,0.0029948107681247284,0.0011115190500499074,-0.009549657491395738,-0.008136384035008638,0.012594926675719,-0.07273927795098001,0.11094704085823248,-0.12085089751907474,0.017933331974589115,0.011949010370285729,0.01180772214967545,0.00890203877169804,0.7677990571276145,0.0022489417183256108,0.005163827979563175,0.009328550864186847,0.01274328950651471,0.04,0.04,0.03999893286619894,0.03999866613577267,-0.0029856266333854998,0.0021372244995037258,1.0671338010609377e-06,1.3338642273277856e-06,2.704537339942613,0.04,1,1,1.644147272614848e-07,2.410614725866611e-12,5,5,0.0005734365305096717,0.028666356205636637,0.015390583998574403,1.9861571213154515e-06,1.2952503818972603e-06,38,0,38,0,0.0,0.00037060729341495223,0.02578849733678745,0.024194835378960243,0.027620750784566148,0.0015936619578272061,-8.18148349195404,-0.02619227763235338,-0.12581435843756195,-0.11784980729940661,-0.15483841134192664,-0.007964551138155335,-18.810106088283305,-17.636173257957857,0.07340159238908375,0.07104055196404409,0.1701808984611008,0.002361040425039665,2.001164497027503,-0.3031797835749217,-1.8663750681584517,-1.8599893804284895,-0.42634269943610836,-0.006385687729962175,14.658628885707913,15.249746265909573,0.009337519836875944,0.008211378484505425,0.037280792072035954,0.0011261413523705188,1.8648142101417768,0.867949915482314,1.740887460592985,1.7328108276562515,0.23550456718072632,0.008076632936733441,3.9218577493184057,1.1245303504647906,0.8823309442746552,0.8703819339043695,-0.545156544894459,0.011949010370285729,-12.179533531947072,0.000509737013092473
29,0.49999999999999994,approach,sequence,0.0,0.01869650621401086,-0.4436933148313538,0.26410805065772364,0.018567650430250656,-0.44612848443100334,0.26235631227393064,0.0001288557837602032,0.0024351695996495115,0.001751738383793,0.003002539284891928,0.0011385216704852027,-0.009535121354338288,-0.008085797824292008,0.012553680627268157,-0.07272549103030469,0.11108560788428923,-0.12084744171585116,0.017828831073745756,0.011913637672844701,0.011725296329846917,0.008821491663216552,0.7638542334476532,0.002298984039740476,0.005373055990017644,0.009625698048749276,0.01274328950651471,0.04,0.04,0.03999895231283097,0.039998689022289695,-0.0030545434444268,0.002185765042363982,1.0476871690340284e-06,1.3109777103059717e-06,2.7154960574236453,0.04,1,1,1.6209845136583906e-07,3.079832953296997e-12,5,5,0.0005693829139794046,0.028463790285087654,0.015314271348292663,1.956722221218117e-06,1.2806426126845643e-06,38,0,38,0,0.0,0.0003706099939235409,0.027213243814909825,0.025613461515617,0.03563424757852984,0.0015997822992928241,-7.293080588151355,-0.02544138990358437,-0.12916284088429414,-0.12128448516857854,-0.1518346489034878,-0.007878355715715601,-18.73369962598133,-17.562255268399305,0.07553483083216954,0.0731522554328413,0.16391729768586827,0.002382575399328235,1.3551778254324631,-0.31544831138757207,-1.8751965598216682,-1.8689128218202022,-0.4227778922581609,-0.006283738001465977,14.726163031518809,15.257918784270682,0.00987217779899188,0.008728367507060467,0.036859090676530586,0.0011438102919314134,1.8196511586714266,0.8671023071300522,1.7463883764070942,1.7383363995144685,0.23446700714920177,0.008051976892625712,3.8967651584953273,1.1244570016694144,0.8856962052526621,0.8737825675798174,-0.5451663352389556,0.011913637672844701,-12.177504788202441,0.0005098704436716749
30,0.5166666666666666,approach,sequence,0.0,0.01750159448911253,-0.4418271715800771,0.26208575114098165,0.0173556502013908,-0.44427301842516354,0.2603425981790383,0.0001459442877217304,0.002445846845086419,0.0017431529619433284,0.0030069999623328217,0.0011656001637385715,-0.00951935225020344,-0.00805927245716926,0.012527113136874261,-0.07272001373159136,0.11132796035038806,-0.12082284569353896,0.0177358404001523,0.011894927461801763,0.01164459733723671,0.008742063414530321,0.760402138872391,0.0023491007057793566,0.005581841208965549,0.009921295388751814,0.01274328950651471,0.04,0.04,0.0399989612807507,0.03999870500884703,-0.003135949988441161,0.0022433326640465636,1.0387192493008235e-06,1.2949911529711033e-06,2.7263941369666513,0.04,1,1,1.6001162214549222e-07,1.4151888025823018e-12,5,5,0.0005657059698208818,0.028280056333462027,0.0152826923244751,1.928107185944126e-06,1.2666360087353822e-06,38,0,38,0,0.0,0.00037061250144381386,0.02863687058429046,0.02703471355288388,0.041413689825186034,0.001602157031406582,-6.667297765864049,-0.024989159046082114,-0.1324502543711493,-0.12465831306897271,-0.14888693260648253,-0.007791941302176586,-18.65820664582145,-17.489176243916745,0.07768299719632453,0.0752824194270447,0.15972089396813804,0.0024005777692798352,0.8736261499206535,-0.3282338525947716,-1.8839386232361985,-1.8777553926893515,-0.41928075071977466,-0.006183230546846996,14.786992557998019,15.2656939304999,0.010419580314473298,0.009258521553011542,0.03677616982914561,0.001161058761461756,1.7904092157442015,0.8662377597532478,1.7518723873756228,1.7438445415936643,0.23353806648170175,0.008027845781958476,3.876622168452741,1.1243869974295935,0.8890652599042925,0.8771703324424908,-0.545095746945773,0.011894927461801763,-12.176240116161125,0.0005097815901948643
31,0.5333333333333333,approach,sequence,0.0,0.016306932786502498,-0.43996093546505166,0.26006338960572356,0.016143816201631224,-0.4424144991370189,0.2583292970002732,0.00016311658487127428,0.0024535636719672516,0.001734092605450377,0.00300892985576852,0.0011927317598133935,-0.009502442732956147,-0.00804739644397353,0.012509181286977035,-0.07271003998557457,0.11151115728867733,-0.1207980707259082,0.017649730375960897,0.011885269203517512,0.011565615662733272,0.008663758800396382,0.7572439161686252,0.002399249536708832,0.005790327563748499,0.010215457561684495,0.01274328950651471,0.04,0.04,0.03999896075345299,0.039998713378917417,-0.0032248696671022194,0.0023064076304522224,1.0392465470132617e-06,1.286621082584316e-06,2.7372325737262835,0.04,1,1,1.5806253895308321e-07,1.8846704326672984e-12,5,5,0.0005622500137004591,0.028107369206302073,0.015267800501192919,1.900233595254597e-06,1.2531019886126773e-06,38,0,38,0,0.0,0.0003706148329481811,0.03005926623458718,0.0284574774001717,0.04572908327526211,0.001601788834415481,-6.200140199393644,-0.024702840387276083,-0.13567699429366706,-0.12797157262582542,-0.14596399740420832,-0.007705421667841633,-18.58456408883046,-17.416884373390477,0.07984638003954928,0.07743053183568438,0.1567298177235557,0.0024158482038648954,0.5008968595049055,-0.3413778957751688,-1.892602382036595,-1.8865180200748473,-0.41585194552805044,-0.006084361961747664,14.84333682731176,15.273059552408302,0.01097962015079079,0.009801703059686202,0.03689506984143128,0.001177917091104588,1.7713384666206977,0.8653566337102995,1.7573402522887849,1.749335826259672,0.2326900767169028,0.008004426029112777,3.859685344182708,1.1243223332837848,0.8924381329436837,0.8805528637401662,-0.5449942354142274,0.011885269203517512,-12.175370025107895,0.0005094382781906052
32,0.55,approach,sequence,0.0,0.015112517366048763,-0.4380946314089526,0.25804094529905636,0.014932256300990331,-0.4405544355082383,0.2563162304932909,0.00018026106505843187,0.0024598040992857007,0.0017247148057654704,0.0030096131677784374,0.0012198703435829432,-0.0094848032726239,-0.008043397383918335,0.012495832035168946,-0.07269359403845356,0.11160381772683636,-0.12078399041893784,0.017568320251780088,0.01188066637682128,0.01148827923637667,0.008586512162112259,0.7542914022911419,0.0024494097561718058,0.005998591431001315,0.010508262899214162,0.01274328950651471,0.04,0.04,0.039998951972055136,0.03999871444024928,-0.0033185732369392915,0.0023730493019033863,1.048027944865193e-06,1.2855597507216432e-06,2.748012317477626,0.04,1,1,1.5620835628826417e-07,1.286314408960692e-12,5,5,0.0005589424948744981,0.027942100981203283,0.015262017844240305,1.8730633687861135e-06,1.2399727677585949e-06,38,0,38,0,0.0,0.0003706170030655141,0.031480529299117425,0.029880441758382274,0.04905219259881964,0.0016000875407351511,-5.835360045720989,-0.024519071804802124,-0.13884341907589715,-0.13122435338189603,-0.14305325619294368,-0.007619065694001115,-18.513698414087685,-17.34537787309759,0.0820250777640093,0.07959532313707217,0.15451912279034924,0.0024297546269371334,0.20492567004259854,-0.3547984602427926,-1.9011888941987072,-1.8952018063763567,-0.4124890205400116,-0.0059870878223504675,14.896713692913181,15.280008113326653,0.01155216369731462,0.010357688515390389,0.03714409410684924,0.0011944751819242313,1.7592162591277294,0.8644577011453102,1.7627926987885578,1.7548108755867848,0.23190738924138446,0.007981823201772986,3.845014565774818,1.124261520094353,0.8958148815844065,0.8839342152075852,-0.5448863143614924,0.01188066637682128,-12.174701884960314,0.0005089068499019959
33,0.5666666666666668,approach,sequence,0.0,0.013918347464416708,-0.4362282724035356,0.25601840671872345,0.013721041991038217,-0.4386939333771976,0.25430319825043424,0.00019730547337849097,0.002465660973661965,0.0017152084682892088,0.003010042122056732,0.0012469840468323262,-0.009466865894491168,-0.008043117140445064,0.012484720758281123,-0.07267285859712688,0.1116301278624432,-0.12078193457139896,0.017490522172073572,0.011879009726067813,0.011412506385211707,0.008510242908592591,0.751500067640971,0.0024995771248727513,0.006206670110306,0.010799771602082056,0.01274328950651471,0.04,0.04,0.03999893616527371,0.03999870897854184,-0.003415458058882338,0.0024421062848225157,1.0638347262906245e-06,1.2910214581621227e-06,2.758734256920831,0.04,1,1,1.5442888141271138e-07,1.295661735101083e-12,5,5,0.0005557497303871796,0.02778256740445694,0.015261383676855145,1.8465700077391584e-06,1.2272090365017065e-06,38,0,38,0,0.0,0.00037061902456649606,0.03290087984453983,0.03130278268022764,0.05169153672052412,0.0015980971643121886,-5.541109826364391,-0.0244061050075594,-0.14194984702290456,-0.13441672744089184,-0.14015315619432323,-0.007533119582012721,-18.445876883100368,-17.274667322245293,0.08421909177037791,0.08177579544372847,0.15286394610317688,0.002443296326649441,-0.035599487212891745,-0.36845001264931326,-1.9096991371072998,-1.903807871732004,-0.4091853570240147,-0.005891265375295829,14.947990835379642,15.28653414422807,0.012137060351291456,0.010926258998133567,0.03748272729129706,0.0012108013531578893,1.7520158307026357,0.8635394069300432,1.7682304121267813,1.7602703277040186,0.23118006045833858,0.007960084422762748,3.8320402564831966,1.1242022797857345,0.8991955988844403,0.8873165891583725,-0.5447827198845464,0.011879009726067813,-12.174137119609895,0.0005082699863815359
34,0.5833333333333335,approach,sequence,0.0,0.012724424440673024,-0.4343618619489635,0.25399576986836236,0.012510203070728311,-0.43683354248721246,0.2522900625882258,0.00021422136994471257,0.002471680538248977,0.0017057072801365813,0.0030107362561358104,0.0012740609313665664,-0.009448924012352436,-0.008044393754997119,0.01247468104335665,-0.07265033521859432,0.11162345339910784,-0.12078813973250724,0.017415715795394943,0.011879168506764959,0.011338228330579379,0.008434880876949213,0.7488427213021592,0.0025497560624750146,0.00641458146102861,0.011090033532005305,0.01274328950651471,0.04,0.04,0.03999891445583969,0.03999869793287607,-0.003514531314887972,0.002512854704243973,1.0855441603119242e-06,1.3020671239330484e-06,2.7693992276906645,0.04,1,1,1.5271352536635403e-07,2.503458786218413e-12,5,5,0.000552654549183039,0.027627909942945676,0.015263813700290285,1.8207291910432606e-06,1.21478487867824e-06,38,0,38,0,0.0,0.0003706209087497521,0.0343205826192744,0.03272422146447018,0.05385046312165978,0.0015963611548042156,-5.298348049527107,-0.024345691557605062,-0.14499656161245247,-0.13754883513526386,-0.13726616365943076,-0.00744772647718861,-18.380819271596465,-17.204759830431513,0.08642839417768927,0.08397144448488934,0.15162982003849318,0.0024569496927999285,-0.23565065786414152,-0.3823037244038857,-1.918134017984249,-1.9123372642625087,-0.40593286037918364,-0.0057967537217402665,14.997556077963054,15.292634162611112,0.012734150854557829,0.011507224924625943,0.03788598363268489,0.0012269259299318852,1.7483785475477482,0.8626005491649303,1.773654040835434,1.765714821043964,0.2305012606144929,0.007939219791470054,3.8203833471152393,1.1241428604912427,0.9025804028586628,0.8907012343518979,-0.5446873239041004,0.011879168506764959,-12.17362559117646,0.0005075882949865714
35,0.6000000000000002,approach,sequence,0.0,0.011530750719987638,-0.43249539840478385,0.2519730348667387,0.011299744322034618,-0.4349734180078285,0.2502767634655396,0.0002310063979530201,0.0024780196030446677,0.001696271401199101,0.00301185686504104,0.0013011017602533172,-0.009431107141401558,-0.008046301020953484,0.012465215915616015,-0.0726275249216216,0.1116074687630364,-0.12079794736116978,0.017343492362089135,0.011880520060079336,0.01126539300006256,0.00836037185719607,0.7462996297328526,0.0025999536768923654,0.006622335059622211,0.011379091738040125,0.01274328950651471,0.04,0.04,0.039998887832798466,0.03999868222054854,-0.003615149856328189,0.002584817530400499,1.1121672015348971e-06,1.3177794514623864e-06,2.7800080260553863,0.04,1,1,1.5105563044715114e-07,2.0008456199589588e-12,5,5,0.0005496464872027313,0.027477605471056415,0.015268190005090498,1.7955153900396182e-06,1.2026802669921415e-06,38,0,38,0,0.0,0.0003706226657348118,0.03573990048808881,0.03414484321157257,0.05566191451010554,0.0015950572765162374,-5.09483845373984,-0.024325139373075757,-0.14798381791027554,-0.14062089204810396,-0.13439446315663162,-0.0073629258621715765,-18.31802396562864,-17.135656181099748,0.08865296356247251,0.08618213666258384,0.1507245367451741,0.002470826899888673,-0.405773156249154,-0.3963382212459573,-1.926494389841445,-1.920790936083457,-0.4027243855619136,-0.005703453757988086,15.045532390432527,15.298306713780493,0.013343272383345265,0.012100420628874215,0.03833707135403243,0.0012428517544710495,1.7473687103477467,0.8616404359489551,1.779064206614131,1.771144987294881,0.22986602233087586,0.007919219319249882,3.8097771163461402,1.1240823215107447,0.9059694243569884,0.894088904296909,-0.5446008455004567,0.011880520060079336,-12.173141701491204,0.0005068941541013592
36,0.6166666666666669,approach,sequence,0.0,0.010337329080101276,-0.4306288784153516,0.24995020320827063,0.010089661656143882,-0.4331135245875071,0.2482632957393675,0.0002476674239573935,0.002484646172155547,0.001686907468903126,0.0030133805870380947,0.0013281118051954787,-0.009413429367650352,-0.008048534454465732,0.012456140666015445,-0.07260495995344417,0.11159360521928341,-0.1208080635703268,0.01727355984205476,0.011882708730133529,0.011193960772685975,0.008286674123297644,0.7438552215401717,0.0026501766866763336,0.006829937404055801,0.01166698440207437,0.01274328950651471,0.04,0.04,0.03999885714899105,0.039998662659274244,-0.003716880877340892,0.0026576682207124424,1.1428510089533939e-06,1.3373407257571968e-06,2.7905614199206163,0.04,1,1,1.4945033579973339e-07,1.328636346589753e-12,5,5,0.0005467180915238372,0.027331281434859574,0.015273894885408867,1.7709044169568954e-06,1.1908791268686236e-06,38,0,38,0,0.0,0.00037062430467696536,0.0371590772578345,0.0355649006982018,0.05721299216629592,0.001594176559632704,-4.922100526582568,-0.024334401333678618,-0.15091184717880907,-0.14363315667139417,-0.13153842593540746,-0.007278690507414892,-18.25702469991961,-17.06735308110305,0.09089279480656486,0.08840792236251264,0.15007884283151857,0.0024848724440522107,-0.5533010479390441,-0.4105357388461318,-1.9347810639647427,-1.929169757087758,-0.3995547370512757,-0.005611306876984745,15.091947268371769,15.303552038805481,0.013964260283830484,0.012705691453075497,0.03882395142594021,0.0012585688307549872,1.7483348012883546,0.8606587762247442,1.7844615123284466,1.7765614479607856,0.2292705681708132,0.007900064367660997,3.8000298188949273,1.1240203361195684,0.9093627991823179,0.8974800904521844,-0.5445226965360945,0.011882708730133529,-12.172672239227268,0.0005061997496089432
37,0.6333333333333336,approach,sequence,0.0,0.00914416232086808,-0.42876229874338134,0.2479272762662264,0.00887995098362344,-0.43125377662365344,0.24624967878102663,0.00026421133724463877,0.002491477880272097,0.0016775974851997721,0.0030152285122296025,0.0013550960441820964,-0.009395852490928558,-0.008051029392096721,0.012447385411910875,-0.07258264035122648,0.11158487783122117,-0.12081701750045248,0.017205706334193528,0.01188552284748079,0.011123898896099034,0.008213753123609724,0.7414970431992328,0.0027004304952134937,0.007037393827587649,0.01195374617431093,0.01274328950651471,0.04,0.04,0.03999882312867938,0.03999863994560049,-0.003819423567543866,0.0027311763331193187,1.176871320618389e-06,1.3600543995115344e-06,2.8010601552758168,0.04,1,1,1.478938622901251e-07,4.609838612519574e-12,5,5,0.0005438637003700929,0.027188654844846418,0.015280574773303579,1.7468731767861544e-06,1.1793675206332025e-06,38,0,38,0,0.0,0.00037062583392693204,0.03857834193508464,0.036984688076032717,0.05856227057491292,0.0015936538590519203,-4.773901812595454,-0.024365264541709994,-0.1537808593552428,-0.14658589289803559,-0.1286968048737136,-0.007194966457207214,-18.197502373718976,-16.99984599401795,0.0931478917997174,0.09064889941018084,0.14963897868792958,0.0024989923895365612,-0.6833107425513845,-0.4248807440627991,-1.9429948170883524,-1.9374745393009778,-0.39642052129299893,-0.005520277787374628,15.136824547363176,15.308371525551877,0.014596947159319173,0.013322883162894254,0.039337655433739294,0.001274063996424919,1.7508182597301314,0.8596555089269576,1.7898465466277005,1.7819648124734688,0.22871192935041268,0.007881734154231657,3.7910029668964853,1.123956898677008,0.9127606652254879,0.9008751423780071,-0.5444518404289047,0.01188552284748079,-12.172210322491082,0.00050550708615308
38,0.6500000000000004,approach,sequence,0.0,0.007951253182300009,-0.42689565686090697,0.24590425479582295,0.007670610939951433,-0.42939410399290556,0.24423593457628484,0.00028064224234857545,0.0024984471319985935,0.0016683202195381108,0.0030173316845355474,0.0013820576469107688,-0.009378331581741011,-0.008053775086386005,0.012438909909576374,-0.07256040262032046,0.11158035784487264,-0.12082465228450745,0.01713977963926593,0.011888830488040014,0.011055178124139153,0.008141577427283497,0.7392152972753694,0.0027507193566224195,0.007244708992747255,0.012239409168298696,0.01274328950651471,0.04,0.04,0.03999878637973729,0.03999861466047049,-0.003922562960646471,0.002805175040397199,1.2136202627091586e-06,1.385339529508256e-06,2.8115049586776943,0.04,1,1,1.4638324082489838e-07,2.2661032137287054e-12,5,5,0.0005410789976055222,0.027049509992949146,0.015288018492988664,1.7234005387458584e-06,1.1681334178602908e-06,38,0,38,0,0.0,0.00037062726114886225,0.03999790478553968,0.03840447952070216,0.05975077211018174,0.0015934252648375224,-4.645507948405054,-0.02441113378314234,-0.15659104432057824,-0.1494793446871582,-0.12586754277665604,-0.007111699633420038,-18.13928605563683,-16.933130865414938,0.09541826994041133,0.09290515105195528,0.14936351964190375,0.0025131188884560535,-0.7993598802376596,-0.43935944005973887,-1.951136394515636,-1.9457060562629807,-0.3933195119452331,-0.005430338252655265,15.180212623053194,15.312767166590225,0.015241163281437308,0.01395183691587014,0.039871412816817324,0.0012893263655671672,1.7544908190421644,0.8586306676745414,1.7952198858310977,1.7873556771998416,0.22818771861482295,0.007864208631256142,3.782596012794329,1.12389210835493,0.9161631608709958,0.9042743303829558,-0.5443871771728428,0.011888830488040014,-12.17175234019146,0.0005048149249986672
39,0.6666666666666671,approach,sequence,0.0,0.00675860437355569,-0.42502895087880443,0.2438811389821871,0.006461642519636785,-0.4275344679184596,0.2422220777609767,0.0002969618539189053,0.0025055170396551807,0.0016590612212104006,0.0030196499986603676,0.0014089982355551163,-0.009360835958928858,-0.008056750583408278,0.012430678012120763,-0.07253810521887888,0.11157816446675684,-0.12083140891848809,0.017075670832591584,0.01189254683915486,0.010987770031363447,0.00807011661142365,0.7370023252602377,0.0028010468566000923,0.007451886959615934,0.012524003682175221,0.01274328950651471,0.04,0.04,0.039998747407502505,0.039998587284335474,-0.004026141950069302,0.0028795411252304044,1.2525924974957081e-06,1.4127156645268868e-06,2.8218965381953622,0.04,1,1,1.4491613272863714e-07,9.101943259621939e-13,5,5,0.0005383607205742951,0.026913683842621376,0.01529609676750765,1.7004673350541255e-06,1.1571661533423824e-06,38,0,38,0,0.0,0.00037062859340784957,0.04141797533124517,0.039824520041207304,0.06080899088324499,0.0015934552900378693,-4.533267780301941,-0.024466892623507805,-0.15934257221236298,-0.1523137254273729,-0.1230484835835877,-0.007028846784990078,-18.082304580827213,-16.867204764037268,0.09770393947874288,0.09517672581732954,0.14922069573351213,0.002527213661413341,-0.9040204766337752,-0.45395951265675727,-1.9592065111270596,-1.9538650530995765,-0.39025003241806666,-0.0053414580274830925,15.22217884524889,15.31674119108327,0.015896733843223026,0.014592386950851521,0.04042003224646966,0.0013043468923715044,1.759111043931565,0.8575843073498716,1.8005820943823356,1.792734625133726,0.22769598405583202,0.007847469248609684,3.7747347966524103,1.1238260610669748,0.9195704271504634,0.9076778803113086,-0.5443276777411592,0.01189254683915486,-12.171296480069259,0.0005041220703185072
40,0.6833333333333338,approach,sequence,0.0,0.0055662186268320615,-0.4231621792663207,0.24185792866740632,0.005253047960177409,-0.42567485436580665,0.24020811436280354,0.00031317066665465226,0.0025126750994859393,0.0016498143046027869,0.0030221679737733923,0.001435918605551942,-0.009343352161452946,-0.008059917827847415,0.012422655402382788,-0.07251567356756256,0.11157681315917767,-0.12083780389039012,0.017013299925272403,0.011896615053146875,0.010921647273516182,0.007999340561705814,0.7348521550226108,0.0028514163228296487,0.007658931216322314,0.01280755868092976,0.01274328950651471,0.04,0.04,0.03999870662916251,0.03999855821367392,-0.004130043334001083,0.0029541818254759282,1.2933708374920916e-06,1.441786326078498e-06,2.832235583226833,0.04,1,1,1.4349066218458276e-07,2.353440010695959e-12,5,5,0.0005357063788766805,0.0267810519659114,0.015304727220734837,1.6780561974722542e-06,1.146456327663905e-06,38,0,38,0,0.0,0.00037062983723799663,0.0428387560368999,0.041245029614117565,0.0617603816230993,0.0015937264227823336,-4.4343508682605375,-0.024528640639509526,-0.1620355938764678,-0.15508921764361647,-0.12023775818110702,-0.006946376232851326,-18.026534812830164,-16.802065802169572,0.10000491178053623,0.09746364573620352,0.14918645954525594,0.0025412660443327184,-0.9992229854094603,-0.46866983949140406,-1.9672058516887654,-1.9619522492663182,-0.3872105655160447,-0.005253602422447212,15.26279458328554,15.32029584193197,0.01656347970803863,0.015244360984443048,0.04097952068198819,0.001319118723595582,1.7644964147295532,0.8565164738461215,1.8059337247609908,1.7981022260399697,0.22723510505111455,0.007831498721021068,3.767363046934406,1.1237588174074213,0.9229826075320434,0.9110859924788965,-0.544272441585008,0.011896615053146875,-12.17084188988133,0.000503428249105476
41,0.7000000000000005,approach,sequence,0.0,0.0043740987398537745,-0.42129534059800094,0.23983462355904103,0.004044829913797861,-0.42381526245357243,0.23819404452758697,0.0003292688260559135,0.002519921855571483,0.0016405790314540647,0.003024884076530177,0.0014628192712857642,-0.009325878584478881,-0.00806323220987097,0.01241481233298303,-0.0724930827827729,0.11157551473405358,-0.12084419011299419,0.01695260496436877,0.01190099588956528,0.010856783373435529,0.007929219521840558,0.7327600527151711,0.002901831057438485,0.007865844755205364,0.013090102097002574,0.01274328950651471,0.04,0.04,0.03999866438739728,0.03999852777530549,-0.004234178176052212,0.003029026207860453,1.3356126027236348e-06,1.4722246945084172e-06,2.8425227645183906,0.04,1,1,1.4210527050002768e-07,2.2207289192257055e-12,5,5,0.0005331140037553463,0.026651516016425975,0.01531385599232793,1.6561504245270833e-06,1.1359950157973716e-06,38,0,38,0,0.0,0.000370630998697296,0.044260443135875814,0.042666212040644656,0.06262346513240519,0.0015942310952311578,-4.346551440731048,-0.024593413613436532,-0.16467024124631505,-0.15780597714259542,-0.11743387120891212,-0.006864264103719625,-17.971967005114266,-16.73771284707986,0.10232119891786239,0.09976591915608296,0.14924251174283787,0.002555279761779425,-1.0864682336554665,-0.48348021330008983,-1.975135071210606,-1.969968337672348,-0.3841995935350073,-0.005166733538257917,15.302123977363408,15.323433288008015,0.017241217138689202,0.015907581059475002,0.04154676430421085,0.0013336360792142003,1.77050521196103,0.8554271997854769,1.8112753174314842,1.8034590368495338,0.22680371323796664,0.007816280581950386,3.760436584503168,1.1236904080548848,0.9263998484712245,0.9144988525816592,-0.5442206991803821,0.01190099588956528,-12.170388252782914,0.0005027338940402151
42,0.7166666666666672,approach,sequence,0.0,0.0031822475998300203,-0.4194284334028237,0.23781122335527027,0.0028369910855909194,-0.4219556955798372,0.23617986579278472,0.0003452565142391009,0.0025272621770134895,0.001631357562485558,0.0030278017882064733,0.0014897007051598464,-0.009308418877395645,-0.008066652549596279,0.012407125111963587,-0.0724703296924165,0.1115740124241138,-0.12085072408813513,0.016893534751344315,0.011905661767781073,0.010793152830703825,0.007859724352776931,0.7307221626739675,0.00295229442057526,0.00807263017373809,0.01337166100952498,0.01274328950651471,0.04,0.04,0.03999862096271562,0.03999849623832256,-0.004338478016273836,0.0031040193227543605,1.3790372843797138e-06,1.5037616774432605e-06,2.852758734510218,0.04,1,1,1.4075860647123193e-07,3.5339220249406655e-12,5,5,0.0005305819568572455,0.026524994162137154,0.015323447525281031,1.6347347588632872e-06,1.1257741393119309e-06,38,0,38,0,0.0,0.00037063208341018503,0.04568322990982896,0.044088263203421775,0.06341312459062853,0.001594966706407186,-4.268135277300672,-0.02465892896163476,-0.16724662774076773,-0.16046413754080088,-0.11463562674719423,-0.006782490199966851,-17.91858912613668,-16.674145260105917,0.10465281080656544,0.10208354912855842,0.14937464451312962,0.002569261678007015,-1.1669535901992276,-0.4983810866897342,-1.9829947955633829,-1.9779139830915182,-0.3812155811588425,-0.005080812471864649,15.340219530677132,15.326155605110937,0.01792975710044607,0.016581863976584007,0.04211927957910906,0.0013478931238620623,1.7770249220454417,0.854316509248665,1.816607400990007,1.8088056021371017,0.22640063177489214,0.007801798852905328,3.7539196302950586,1.1236208488950634,0.9298223001069402,0.9179166383391592,-0.5441717965962773,0.011905661767781073,-12.169935558863017,0.0005020396903979568
43,0.733333333333334,approach,sequence,0.0,0.001990668193727376,-0.4175614561047154,0.23578772779379745,0.001629534178736869,-0.4200961568147122,0.23416557533774474,0.0003611340149905068,0.0025347007099967844,0.0016221524560527112,0.0030309246207583605,0.0015165633635506929,-0.009290977379466308,-0.008070144872657978,0.012399575128491568,-0.07244741441124303,0.11157232590750077,-0.12085742730239879,0.016836043951749095,0.011910592057144953,0.010730731422442954,0.007790826764751513,0.7287351815479168,0.0030028098309212324,0.00827928975921295,0.01365226174205413,0.01274328950651471,0.04,0.04,0.039998695623995044,0.03999858425000748,-0.004444629326278155,0.003177209020331919,1.3043760049569197e-06,1.4157499925240846e-06,2.8629441278656746,0.04,1,1,1.394494550957659e-07,3.650840960831963e-12,5,5,0.000528108805258473,0.02640141483942381,0.015333478116673405,1.6137946178586775e-06,1.115786031147967e-06,38,0,38,0,0.0,0.0003706330966040778,0.0471073069441565,0.04551137545054334,0.06414139527001222,0.0015959314936131591,-4.197722479253855,-0.024723381292896675,-0.16976484875881265,-0.16306381344874304,-0.11184201441743143,-0.006701035310069603,-17.866383794368517,-16.611362728583014,0.10699975498213399,0.10441653760111512,0.14957158288508596,0.002583217381018868,-1.2416489590340234,-0.5133633594616318,-1.9907856223281344,-1.9857898212817922,-0.3782570140956231,-0.00499580104634223,15.377122760147358,15.328464776553096,0.018628904982733997,0.017267021418017472,0.04269504241478589,0.0013618835647165248,1.7839649329361293,0.8531844223183845,1.82193049248279,1.8141424545875098,0.2260248314810741,0.007788037895280153,3.747782645254574,1.12355015215166,0.9332501164558326,0.9213395243986876,-0.5441250700320722,0.011910592057144953,-12.169484291005801,0.0005013443682235913
44,0.7500000000000007,approach,sequence,0.0,0.0007993636117193262,-0.4156944070168113,0.23376413665519183,0.0004224619579093619,-0.41823664753355444,0.23215117099074012,0.0003769016538099643,0.0025422405167431217,0.0016129656644517099,0.003034254428408265,0.0015434076768329088,-0.009273557090174857,-0.008073685749353385,0.01239214952867141,-0.07242433324965043,0.11157055686946471,-0.12086426082027701,0.01678009312139987,0.011915773413283204,0.010669496566501232,0.007722499419280382,0.72679655859961,0.0030533807380613703,0.008485825584690807,0.01393192996074413,0.01274328950651471,0.04,0.04,0.03999862457624438,0.03999852409241474,-0.004548745788057475,0.0032528924769905238,1.3754237556187765e-06,1.4759075852577297e-06,2.8730795619524288,0.04,1,1,1.3817669166251333e-07,2.1447747148458534e-12,5,5,0.0005256932407069989,0.02628071271369401,0.015343930211165091,1.593316326167748e-06,1.1060234586865855e-06,38,0,38,0,0.0,0.00037063404314415085,0.04853285546153898,0.04693573604059913,0.06481792575222692,0.0015971194209398534,-4.134199888864373,-0.024785304584605247,-0.17222498231547612,-0.16560510220314476,-0.10905211862295004,-0.006619880112331361,-17.81533083597924,-16.54936516547386,0.10936204267216142,0.10676488924434092,0.14982429399998384,0.002597153427820492,-1.3113452578979263,-0.528418234724766,-1.9985081217474148,-1.9935964590936472,-0.3753224345929453,-0.004911662653767523,15.412866993575335,15.330362693989297,0.019338461443286516,0.017962860221839936,0.0432723852131176,0.0013756012214465804,1.791251129958681,0.8520309573664558,1.8272450977953927,1.8194701153962318,0.22567539091484498,0.007774982399160857,3.7420004611294644,1.123478335337178,0.9366834546098527,0.9247676811965695,-0.5440803057906906,0.011915773413283204,-12.169033901537205,0.0005006525781964758
45,0.7666666666666674,approach,sequence,0.0,-0.00039166295100770496,-0.41382728435541044,0.23174044974903218,-0.0007842226915247409,-0.41637716746511766,0.23013665137516226,0.00039255974051703594,0.0025498831097072183,0.0016037983738699246,0.003037791343570649,0.001570233915006524,-0.009256159389055036,-0.008077256820633854,0.012384837460778583,-0.07240107896604617,0.11156880410620684,-0.12087117693467153,0.016725645125400482,0.011921195237227233,0.010609426631844658,0.007654715950487168,0.7249037911594649,0.0031040105937875477,0.00869223954237045,0.014210690712834137,0.01274328950651471,0.04,0.04,0.039998558470811164,0.03999846994221115,-0.00465296365778108,0.0033284229011138655,1.4415291888364434e-06,1.5300577888496814e-06,2.8831656377482453,0.04,1,1,1.3693928101978165e-07,2.6190962414517264e-12,5,5,0.0005233340826274965,0.02616282883030419,0.015354794823371432,1.5732869777108528e-06,1.0964795993599092e-06,38,0,38,0,0.0,0.0003706349275568291,0.049960057161893584,0.04836153014598503,0.06545069444144691,0.0015985270159085546,-4.076656148990111,-0.024843480277091635,-0.1746270893727978,-0.16808808443571702,-0.10626506623216594,-0.006539004937080789,-17.76541026760924,-16.488152710607967,0.1117396795674709,0.10912860840255392,0.15012524064089566,0.0026110711649169754,-1.3766936550284754,-0.5435371114646104,-2.006162837697902,-2.0013344752386115,-0.37241046755450474,-0.004828362459290414,15.447480364215153,15.33185116034311,0.020058220581518967,0.018669181799479514,0.04384987659862255,0.0013890387820394527,1.7988227928310678,0.8508561320925878,1.8325517121099506,1.8247890946786693,0.22535148361239288,0.00776261743128126,3.7365521218457616,1.1234054162390388,0.9401224760199409,0.9282012807827137,-0.5440369488072462,0.011921195237227233,-12.168585130476913,0.0004999620575742939
46,0.7833333333333341,approach,sequence,0.0,-0.0015824081922817647,-0.4119600862557926,0.22971666689823844,-0.0019905167393614934,-0.41451771538113297,0.2281220156814896,0.00040810854707972865,0.002557629125340355,0.0015946512167488436,0.003041534453539424,0.0015970422610109168,-0.009238784531664872,-0.008080843478320762,0.01237762961665537,-0.07237764287020515,0.1115671250390815,-0.1208781416203597,0.016672665166604338,0.011926848723170402,0.01055050169985215,0.007587450912271088,0.7230547512319535,0.0031547028346798713,0.008898533369314706,0.014488568465610877,0.01274328950651471,0.04,0.04,0.03999856608389627,0.039998490479269205,-0.00475827433421262,0.003402780957100691,1.433916103729671e-06,1.5095207307955216e-06,2.893202940256726,0.04,1,1,1.3573624332912047e-07,4.8382692805307006e-12,5,5,0.0005210302166460607,0.02604770754124794,0.01536606449530753,1.5536942719509314e-06,1.0871479090858057e-06,38,0,38,0,0.0,0.0003706357540575703,0.05138908466444741,0.049788937637303556,0.06604613848036306,0.0016001470271438528,-4.024337041319114,-0.0248968769662462,-0.1769712144984933,-0.1705128243511772,-0.10348000925299561,-0.006458390147316084,-17.716604496657055,-16.42772569416134,0.11413267451918165,0.1115077007505133,0.15046822990574943,0.00262497376866834,-1.438230593916046,-0.5587115168191272,-2.013750288610173,-2.0090044214043434,-0.36951981717634363,-0.00474586720582959,15.480987754175658,15.332931880273584,0.02078797125175463,0.01938578216221201,0.04442630186722326,0.0014021890895426214,1.8066295281894043,0.8496599613559022,1.8378508202877102,1.8300998917998137,0.22505235559525985,0.007750928487896491,3.7314196232459835,1.1233314173961295,0.9435673452780212,0.9316404965548508,-0.5439946010783141,0.011926848723170402,-12.168138395805727,0.0004992718374722885
47,0.8000000000000008,approach,sequence,0.0,-0.002772868699359953,-0.41009281078097004,0.22769278792897835,-0.003196417000872406,-0.41265828964426005,0.22610726338382287,0.00042354830151245275,0.002565478863290005,0.0015855245451554811,0.0030454823993896853,0.0016238327702129875,-0.009221432249632119,-0.008084434420170311,0.012370518400382715,-0.07235401569065475,0.1115655442123753,-0.12088513786000399,0.01662112148470638,0.011932727786865271,0.010492703002085912,0.007520679717759826,0.7212476159262162,0.0032054608746696993,0.009104708675987751,0.01476558715702265,0.01274328950651471,0.04,0.04,0.03999862100382233,0.03999855846739795,-0.004864276964651249,0.003476433640633701,1.3789961776713988e-06,1.4415326020505992e-06,2.9031920391538972,0.04,1,1,1.3456665414080886e-07,3.977413931215914e-12,5,5,0.0005187805974413631,0.02593529664612317,0.015377733863034981,1.5345268645044896e-06,1.0780223561999153e-06,38,0,38,0,0.0,0.0003706365265722279,0.05282010374636683,0.051218132224198215,0.06660955426804419,0.0016019715221686145,-3.9766113102607505,-0.02494461703666712,-0.17925738628707072,-0.17287936986405586,-0.10069612177260004,-0.0063780164230148595,-17.66889889410936,-16.36808463958334,0.11654103733629832,0.11390217295774394,0.15084807383717477,0.002638864378554387,-1.4964016309357362,-0.5739330685094215,-2.021270968327933,-2.0166068233586576,-0.366649259485258,-0.004664144969275252,15.51341197693182,15.33360645646707,0.021527496481806248,0.02011245174375799,0.04500060223048078,0.0014150447380482586,1.8146290773861296,0.8484424570991421,1.8431428972466992,1.8354029957221087,0.2247773127502359,0.007739901524590476,3.7265874012796303,1.1232563631162176,0.9470182304178858,0.9350855026310205,-0.5439530002027968,0.011932727786865271,-12.167693831384895,0.0004985823438535177
48,0.8166666666666675,approach,sequence,0.0,-0.003963040944196144,-0.40822545592366516,0.22566881266615485,-0.004401920153266857,-0.41079888846528373,0.2240923940382575,0.00043887920907071266,0.00257343254161857,0.0015764186278973413,0.0030496336987903454,0.0016506053770224466,-0.009204102177011786,-0.008088021471954046,0.012363498142771656,-0.07233018914366705,0.11156407073857899,-0.1208921607339214,0.01657098580313696,0.011938829925485228,0.01043601265437827,0.007454378587775423,0.7194808573800654,0.0032562881029828718,0.00931076697836728,0.0150417702537416,0.01274328950651471,0.04,0.04,0.0399985243125489,0.03999847272959691,-0.0049680441486429135,0.0035525510817906955,1.4756874511037688e-06,1.5272704030899753e-06,2.913133489517423,0.04,1,1,1.3342964801509184e-07,4.772554557581984e-12,5,5,0.0005165842584033931,0.02582554787794746,0.015389801233754885,1.515773819924037e-06,1.0690970165252352e-06,38,0,38,0,0.0,0.0003706372487574846,0.054253279912467554,0.052649284023447124,0.06714546917262093,0.0016039958890204306,-3.932944702179043,-0.024985953323678933,-0.18148561765924615,-0.17518775276729984,-0.09791260071789495,-0.006297864891946309,-17.6222814828468,-16.3092302752261,0.1189647725945385,0.11631202972783963,0.1512602721640997,0.002652742866698865,-1.5515807902183383,-0.589193439754623,-2.0287253469157083,-2.024142181961824,-0.363797631099265,-0.004583164953884111,15.54477429216422,15.33387639143917,0.022276572095866795,0.02084897468760835,0.04557181868378722,0.0014275974082584436,1.8227853135660368,0.8472036284287716,1.8484284083219527,1.8406988853471824,0.22452571065815016,0.007729522974770253,3.722041817005902,1.1231802789412493,0.9504753038647754,0.9385364739392902,-0.5439120710126876,0.011938829925485228,-12.167251105444166,0.0004978966438359753
49,0.8333333333333343,approach,sequence,0.0,-0.005152921277916781,-0.406358019604304,0.22364474093211087,-0.005607022730756105,-0.4089395100265366,0.2220774071956002,0.0004541014528393235,0.002581490422232602,0.001567333736510662,0.003053986897672273,0.0016773598651980846,-0.009186794030127423,-0.008091595448301103,0.012356562530426062,-0.07230615464935487,0.11156270632482701,-0.12089921055943809,0.01652223031413928,0.011945151346601457,0.010380414314917154,0.007388524483181946,0.7177528225795228,0.003307187884610743,0.009516709687207714,0.015317140758977254,0.01274328950651471,0.04,0.04,0.03999851157345464,0.039998472986004056,-0.005072979182337367,0.0036271805751218957,1.488426545362409e-06,1.5270139959444595e-06,2.9230278321032257,0.04,1,1,1.3232441945318153e-07,3.4374094859671593e-12,5,5,0.0005144403161751255,0.025718417128134993,0.015402267276749537,1.49742503386765e-06,1.060366456784225e-06,38,0,38,0,0.0,0.00037063792402013265,0.05568876899055378,0.05408255667214791,0.06765756468782291,0.0016062123184058669,-3.8928845691219465,-0.025020231097243432,-0.18365590645887572,-0.17743798910955802,-0.095128675848587,-0.006217917349317703,-17.5767422462651,-16.251163503740056,0.12140388820444888,0.11873727610000231,0.1517011000047448,0.0026666121044465613,-1.6040825363388649,-0.6044843232858101,-2.03611387139889,-2.031610974030546,-0.36096382267288857,-0.004502897368344083,15.575094579850884,15.333743070317958,0.02303496806571142,0.021595129089329132,0.046139110369559616,0.0014398389763822864,1.8310680384694606,0.8459434789398173,1.8537078095429187,1.845988029845144,0.22429695503537506,0.007719779697774598,3.717771311319666,1.123103186590325,0.9539387412160397,0.9419935898694383,-0.5438713604590425,0.011945151346601457,-12.166811085734253,0.0004972108303429954
50,0.850000000000001,approach,sequence,0.0,-0.006342505924774356,-0.40449049966693434,0.22162057254694933,-0.006811721135368222,-0.40708015251364715,0.2200623023800908,0.0004692152105938655,0.002589652846712809,0.0015582701668585275,0.003058540614943948,0.0017040959652161857,-0.00916950765739805,-0.008095148860001405,0.012349706425795295,-0.07228190427672702,0.11156145077336754,-0.12090628893056399,0.01647482978446521,0.01195169036301258,0.01032589249968385,0.007323095078145769,0.7160622319632367,0.0033581635615264754,0.009722538127637636,0.015591721255385008,0.01274328950651471,0.04,0.04,0.03999849239321746,0.0399984663278368,-0.005177772407805894,0.0037019324547871604,1.5076067825386952e-06,1.5336721631981076e-06,2.9328755939660143,0.04,1,1,1.3125019687973952e-07,3.6206759377673724e-12,5,5,0.0005123479225677401,0.025613862043567765,0.015415132102755913,1.4794709625592062e-06,1.0518253919988572e-06,38,0,38,0,0.0,0.00037063855553473904,0.0571267220522592,0.0555181080614554,0.06814897366972981,0.001608613990803802,-3.8560427205570136,-0.025046886839535914,-0.18576823574872822,-0.17963007960365812,-0.0923436036366412,-0.0061381561450701005,-17.53227273822847,-16.193885400426467,0.1238583907453372,0.1211779166424885,0.1521673307775839,0.00268047410284869,-1.6541735977561416,-0.6197974271907806,-2.043436966477036,-2.039013653140912,-0.35814676643459453,-0.00442331333612378,15.604391355126609,15.33320777395911,0.023802447420324866,0.02235068652543903,0.046701708721165566,0.0014517608948858354,1.839450745072007,0.8446620077864306,1.8589815479346063,1.8512708889433391,0.22409048627530187,0.007710658991267216,3.713765353913004,1.1230251106819011,0.9574087219721942,0.9454570316091816,-0.5438307620935259,0.01195169036301258,-12.166373623293794,0.0004965262880134227
51,0.8666666666666677,approach,sequence,0.0,-0.007531790975379373,-0.4026228938742467,0.21959630732926488,-0.008016011620714856,-0.4052208140617008,0.21804707910546184,0.00048422064533548345,0.0025979201874540836,0.0015492282238030453,0.003063293492824106,0.0017308132672704808,-0.009152243000563748,-0.008098674043914008,0.012342924603881127,-0.07225742912079808,0.11156030711678144,-0.12091339647773813,0.01642876002529172,0.011958445167900567,0.01027243288313224,0.007258068715223054,0.7144077716011433,0.003409218453073544,0.009928253537702322,0.015865533922473203,0.01274328950651471,0.04,0.04,0.03999859550431371,0.03999858344081329,-0.005284286570485402,0.0037746819923829065,1.4044956862940827e-06,1.4165591867079663e-06,2.9426772888589388,0.04,1,1,1.3020625813415568e-07,4.200688268848382e-12,5,5,0.000510306296520346,0.025511843624116178,0.015428397629826174,1.4619027317579992e-06,1.0434689094671328e-06,38,0,38,0,0.0,0.00037063914625831717,0.058567282808174234,0.05695608957415735,0.06862231338080275,0.001611193234016886,-3.822085556950981,-0.025065423659653273,-0.18782257424076346,-0.18176401003929246,-0.08955667022792567,-0.006058564201470995,-17.4888655111381,-16.137397201647723,0.12632828774874397,0.12363395607851688,0.15265621861564482,0.0026943316702270903,-1.7020816195010866,-0.6351244511124661,-2.050695035192259,-2.04635065031493,-0.35534543629675774,-0.004344384877329244,15.632681933752792,15.332271670501683,0.024578766445470555,0.0231154120310881,0.047258912262320284,0.0014633544143824555,1.8479107027938397,0.8433592090435013,1.864250061774093,1.8565479132387424,0.22390578090065127,0.007702148535350561,3.710014777744618,1.1229460726968208,0.9608854292390078,0.9489269840711072,-0.5437899790913363,0.011958445167900567,-12.165939172106619,0.000495840824549898
52,0.8833333333333344,approach,sequence,0.0,-0.008720772379736381,-0.40075519990293107,0.21757194509646058,-0.009219890302106236,-0.4033614927089597,0.21603173688962668,0.0004991179223698544,0.0026062928060286428,0.0015402082068338985,0.003068244157753087,0.0017575112941137145,-0.009135000068966503,-0.008102166821080396,0.012336214143957266,-0.07223272088348276,0.11155928116446501,-0.12092053295010952,0.016384000605570097,0.011965418080616796,0.010220021810379298,0.007193424383985736,0.7127885543988912,0.003460355855702762,0.010133857106768276,0.016138600599232705,0.01274328950651471,0.04,0.04,0.039998462499015355,0.03999846090842143,-0.005387288238432838,0.0038512678948411623,1.5375009846455012e-06,1.5390915785729042e-06,2.952433417875056,0.04,1,1,1.2919191643723483e-07,4.648324739464152e-12,5,5,0.0005083146986606522,0.025412324950518542,0.015442066718017955,1.444712145859357e-06,1.0352924876858083e-06,38,0,38,0,0.0,0.0003706396989467187,0.06001059441066399,0.058396648810438524,0.06907992669329677,0.0016139456002254651,-3.790722363545342,-0.025075412052073594,-0.1898188764972175,-0.1838397516476036,-0.0867671823134853,-0.005979124849613882,-17.446514021646067,-16.081700312004802,0.12881358128929526,0.1261053967619393,0.15316526499024152,0.002708184527355967,-1.748002819705789,-0.6504570780457519,-2.0578884595762448,-2.0536223747161007,-0.3525588396905013,-0.004266084860144126,15.659982485967703,15.330935830133207,0.025363673180535326,0.02388906329713153,0.04781004447876926,0.0014746098834037963,1.8564271600415267,0.8420350732853442,1.8695137808666742,1.8618195444617267,0.22374233829006832,0.007694236404947485,3.706510914464616,1.1228660971530386,0.9643690507891252,0.9524036327085084,-0.543749183855457,0.011965418080616796,-12.165506788947596,0.0004951600007710097
53,0.9000000000000011,approach,sequence,0.0,-0.009909445939634432,-0.3988874153391928,0.21554748566454787,-0.01042335312507079,-0.40150218636434304,0.2140162752749022,0.0005139071854363582,0.002614771025150231,0.001531210389645682,0.003073391183459598,0.001784189384504069,-0.009117778883048282,-0.008105619467926487,0.012329569760489092,-0.0722077693778733,0.11155838067700041,-0.12092769688346938,0.016340529349475465,0.011972607238661226,0.010168647160016095,0.007129141677785444,0.7112032191281605,0.0035115790420937555,0.01033934993610976,0.016410942755057296,0.01274328950651471,0.04,0.04,0.03999855819731208,0.03999857133218776,-0.005493523001418771,0.003923955599157316,1.4418026879209345e-06,1.4286678122407692e-06,2.9621444695652177,0.04,1,1,1.2820654103070675e-07,6.479330638978017e-12,5,5,0.0005063724736411069,0.025315273304523846,0.0154561447598216,1.427891089993095e-06,1.0272914689952572e-06,38,0,38,0,0.0,0.0003706402161677074,0.061456787893248405,0.05983992576807241,0.06952364620842916,0.0016168621251759913,-3.7617025518432,-0.02507645620624817,-0.19175708354479365,-0.18585726153503093,-0.08397447728665053,-0.005899822009762717,-17.40521220854032,-16.026796272441533,0.13131427853070157,0.12859224205884204,0.15369244728735953,0.0027220364718595347,-1.792105420168582,-0.6657869498246423,-2.06501760125403,-2.0608292142485016,-0.3497860243035506,-0.004188387005528593,15.686308240889048,15.329201203894701,0.026156909236237313,0.02467139120283682,0.0483545005672234,0.0014855180334004923,1.8649829579975972,0.8406895843726647,1.8747731267359309,1.8670862157593848,0.2235996939751077,0.0076869109765460575,3.7032466803043462,1.1227852010294406,0.96785977746833,0.9558871702296687,-0.5437077860932727,0.011972607238661226,-12.165077834558133,0.0004944761998695261
